ai-pipeline/luts/chill.cube
TITLE "ClipVibe Chill"
LUT_3D_SIZE 5
DOMAIN_MIN 0.0 0.0 0.0
DOMAIN_MAX 1.0 1.0 1.0
0.019719 0.049279 0.122003
0.249916 0.046446 0.091941
0.460648 0.048860 0.090283
0.656906 0.050856 0.087858
0.909075 0.053321 0.084396
0.036848 0.272166 0.085975
0.261877 0.274326 0.081398
0.473831 0.276216 0.079910
0.670116 0.278704 0.080359
0.922626 0.282740 0.083321
0.049470 0.489796 0.081327
0.273794 0.493822 0.083425
0.485469 0.497399 0.087002
0.682443 0.500747 0.091000
0.935203 0.505184 0.095898
0.061869 0.701798 0.092972
0.285900 0.706111 0.095854
0.497304 0.709916 0.099788
0.694383 0.714577 0.105514
0.947609 0.721964 0.116168
0.076997 0.959606 0.114681
0.300737 0.967450 0.123601
0.512204 0.974678 0.133810
0.709356 0.981342 0.143220
0.962815 0.989266 0.154166
0.000710 0.023098 0.343270
0.250911 0.047379 0.320023
0.461939 0.049613 0.317426
0.658211 0.051578 0.314508
0.910397 0.054084 0.310961
0.008025 0.293767 0.342495
0.253895 0.275901 0.341322
0.478131 0.276170 0.308182
0.676194 0.278479 0.307941
0.930912 0.282217 0.310984
0.050846 0.491031 0.309782
0.271851 0.496381 0.310673
0.486895 0.499117 0.312665
0.690615 0.500994 0.311373
0.951058 0.503339 0.314377
0.063269 0.703198 0.321863
0.282928 0.709143 0.321449
0.496282 0.712888 0.324567
0.695983 0.717281 0.330491
0.955342 0.723867 0.335452
0.078479 0.962105 0.345592
0.297523 0.971911 0.351247
0.509622 0.979146 0.359844
0.708653 0.985177 0.368657
0.964500 0.992099 0.378448
0.000000 0.020780 0.533079
0.251693 0.048238 0.512539
0.462920 0.050278 0.510019
0.659321 0.052188 0.506899
0.911523 0.054756 0.503386
0.000000 0.268723 0.535046
0.237340 0.251197 0.528703
0.478712 0.276746 0.505695
0.677073 0.279286 0.504934
0.930616 0.283592 0.507831
0.021691 0.509396 0.522571
0.245990 0.516423 0.531086
0.461817 0.502089 0.542360
0.689525 0.501992 0.514286
0.946931 0.505224 0.517445
0.064458 0.704387 0.516182
0.283884 0.710111 0.518779
0.495266 0.715007 0.521655
0.696884 0.719244 0.527440
0.959294 0.725074 0.534042
0.079743 0.964296 0.541761
0.298621 0.974051 0.549835
0.507966 0.982258 0.556651
0.707716 0.988047 0.564109
0.965590 0.994068 0.572785
0.000000 0.019854 0.738377
0.252766 0.049061 0.718870
0.463804 0.051077 0.716116
0.660424 0.052886 0.713264
0.912736 0.055510 0.709996
0.000000 0.257752 0.741222
0.226960 0.239407 0.733971
0.478601 0.277941 0.715019
0.677773 0.280348 0.716311
0.931704 0.284681 0.718769
0.000000 0.495590 0.742504
0.211596 0.481076 0.750555
0.448867 0.464275 0.748455
0.689975 0.502880 0.729087
0.946402 0.506628 0.731175
0.020711 0.722673 0.743572
0.241146 0.729194 0.751552
0.448063 0.735646 0.763316
0.648103 0.711105 0.774711
0.957514 0.727447 0.754706
0.081103 0.966703 0.752385
0.299801 0.976355 0.762957
0.508964 0.984325 0.771826
0.707122 0.990443 0.778456
0.966415 0.995720 0.785300
0.000000 0.019081 0.967856
0.254055 0.049917 0.948774
0.464981 0.051908 0.945839
0.661508 0.053761 0.943083
0.914062 0.056412 0.940545
0.000000 0.251147 0.971202
0.216175 0.227807 0.964280
0.479224 0.279261 0.947610
0.677697 0.282099 0.949996
0.932771 0.285954 0.953851
0.000000 0.481714 0.974849
0.187536 0.448427 0.984485
0.438788 0.452727 0.980944
0.689914 0.504374 0.965302
0.947253 0.508037 0.969359
0.000000 0.709663 0.987109
0.197166 0.697345 0.996087
0.410946 0.681356 1.000000
0.623496 0.655349 1.000000
0.958163 0.729703 0.997293
0.024822 0.980676 1.000000
0.237321 0.976355 1.000000
0.432647 0.971630 1.000000
0.608161 0.965123 1.000000
0.841679 0.920799 1.000000
