ai-pipeline/luts/chill.cube
TITLE "ClipVibe Chill"
LUT_3D_SIZE 33
DOMAIN_MIN 0.0 0.0 0.0
DOMAIN_MAX 1.0 1.0 1.0
0.019719 0.049279 0.122003
0.053376 0.044017 0.092614
0.082645 0.044307 0.092641
0.111462 0.044652 0.092501
0.139832 0.045030 0.092368
0.167867 0.045400 0.092267
0.195569 0.045760 0.092170
0.222926 0.046109 0.092063
0.249916 0.046446 0.091941
0.278909 0.046801 0.091787
0.307382 0.047142 0.091613
0.335271 0.047468 0.091419
0.362491 0.047781 0.091208
0.388918 0.048078 0.090983
0.414366 0.048360 0.090749
0.438516 0.048623 0.090512
0.460648 0.048860 0.090283
0.478217 0.049046 0.090093
0.499269 0.049267 0.089856
0.522860 0.049511 0.089581
0.547915 0.049768 0.089278
0.574030 0.050033 0.088952
0.600987 0.050303 0.088604
0.628644 0.050578 0.088239
0.656906 0.050856 0.087858
0.686909 0.051150 0.087447
0.717425 0.051447 0.087023
0.748406 0.051748 0.086591
0.779811 0.052054 0.086152
0.811607 0.052363 0.085710
0.843765 0.052677 0.085268
0.876261 0.052996 0.084829
0.909075 0.053321 0.084396
0.021647 0.094146 0.122301
0.059971 0.091979 0.122632
0.084024 0.074190 0.092631
0.113191 0.074398 0.092300
0.141790 0.074672 0.092030
0.169972 0.074965 0.091802
0.197777 0.075262 0.091586
0.225209 0.075559 0.091367
0.252257 0.075852 0.091141
0.281333 0.076154 0.090876
0.309933 0.076433 0.090587
0.337934 0.076704 0.090287
0.365231 0.076973 0.089983
0.391701 0.077239 0.089681
0.417165 0.077499 0.089382
0.441310 0.077748 0.089093
0.463428 0.077977 0.088822
0.480979 0.078158 0.088604
0.502006 0.078375 0.088337
0.525569 0.078617 0.088033
0.550594 0.078872 0.087704
0.576683 0.079135 0.087354
0.603619 0.079403 0.086987
0.631266 0.079675 0.086605
0.659527 0.079949 0.086210
0.689538 0.080237 0.085789
0.720062 0.080532 0.085364
0.751051 0.080832 0.084936
0.782463 0.081139 0.084511
0.814265 0.081452 0.084090
0.846429 0.081772 0.083678
0.878932 0.082100 0.083277
0.911752 0.082437 0.082892
0.027085 0.103506 0.092376
0.055815 0.103624 0.091937
0.084942 0.103895 0.091562
0.114493 0.103976 0.090924
0.143853 0.104000 0.090485
0.172786 0.104053 0.090042
0.201331 0.104119 0.089589
0.229441 0.104204 0.089145
0.257050 0.104318 0.088730
0.286615 0.104463 0.088289
0.315258 0.104705 0.087973
0.342979 0.105027 0.087755
0.369867 0.105383 0.087576
0.395900 0.105747 0.087406
0.420950 0.106101 0.087233
0.444728 0.106434 0.087055
0.466538 0.106734 0.086877
0.483869 0.106967 0.086725
0.504659 0.107239 0.086531
0.527990 0.107535 0.086298
0.552808 0.107839 0.086035
0.578722 0.108144 0.085743
0.605517 0.108447 0.085427
0.633056 0.108746 0.085089
0.661244 0.109040 0.084732
0.691217 0.109342 0.084343
0.721723 0.109647 0.083951
0.752692 0.109959 0.083565
0.784085 0.110281 0.083189
0.815867 0.110611 0.082825
0.848012 0.110951 0.082479
0.880496 0.111300 0.082152
0.913297 0.111661 0.081850
0.028780 0.132266 0.091531
0.057320 0.132770 0.091039
0.086138 0.133124 0.090372
0.115318 0.133264 0.089886
0.144238 0.133377 0.089540
0.173483 0.133404 0.088137
0.202065 0.133434 0.087658
0.230256 0.133476 0.087161
0.258045 0.133524 0.086652
0.287804 0.133597 0.086132
0.316581 0.133777 0.085846
0.344425 0.134040 0.085694
0.371395 0.134350 0.085597
0.397468 0.134682 0.085513
0.422526 0.135017 0.085423
0.446291 0.135339 0.085320
0.468079 0.135635 0.085206
0.485388 0.135866 0.085102
0.506150 0.136140 0.084960
0.529448 0.136440 0.084782
0.554238 0.136748 0.084569
0.580135 0.137057 0.084323
0.606927 0.137362 0.084046
0.634481 0.137661 0.083741
0.662701 0.137953 0.083412
0.692700 0.138257 0.083060
0.723212 0.138571 0.082718
0.754189 0.138896 0.082389
0.785588 0.139231 0.082078
0.817378 0.139577 0.081788
0.849531 0.139936 0.081524
0.882022 0.140307 0.081288
0.914831 0.140691 0.081085
0.030432 0.160992 0.090717
0.058869 0.161517 0.089990
0.087494 0.161920 0.089121
0.116553 0.162070 0.088631
0.145356 0.162205 0.088159
0.173832 0.162333 0.087804
0.202263 0.162451 0.086714
0.231020 0.162425 0.085045
0.258829 0.162454 0.084523
0.288520 0.162524 0.084093
0.317261 0.162689 0.083955
0.345125 0.162924 0.083937
0.372144 0.163203 0.083949
0.398279 0.163504 0.083952
0.423404 0.163810 0.083929
0.447236 0.164108 0.083878
0.469087 0.164382 0.083803
0.486445 0.164599 0.083726
0.507266 0.164856 0.083613
0.530631 0.165139 0.083462
0.555489 0.165433 0.083275
0.581451 0.165730 0.083056
0.608304 0.166027 0.082807
0.635915 0.166321 0.082534
0.664177 0.166615 0.082246
0.694184 0.166932 0.081957
0.724704 0.167261 0.081686
0.755688 0.167603 0.081436
0.787096 0.167958 0.081212
0.818894 0.168327 0.081018
0.851055 0.168710 0.080858
0.883555 0.169108 0.080735
0.916373 0.169522 0.080655
0.032066 0.189347 0.089693
0.060433 0.189886 0.088797
0.088946 0.190312 0.087807
0.117930 0.190464 0.087327
0.146632 0.190614 0.086844
0.175035 0.190763 0.086358
0.203097 0.190904 0.086004
0.230756 0.191060 0.085678
0.259147 0.191105 0.083212
0.289241 0.191118 0.082105
0.317984 0.191261 0.082150
0.345887 0.191469 0.082279
0.372964 0.191720 0.082409
0.399166 0.191996 0.082502
0.424360 0.192279 0.082551
0.448259 0.192558 0.082555
0.470170 0.192818 0.082525
0.487575 0.193025 0.082479
0.508451 0.193272 0.082400
0.531875 0.193546 0.082284
0.556794 0.193833 0.082133
0.582814 0.194126 0.081952
0.609723 0.194422 0.081745
0.637383 0.194720 0.081518
0.665657 0.195028 0.081301
0.695672 0.195364 0.081096
0.726200 0.195714 0.080917
0.757193 0.196080 0.080767
0.788609 0.196461 0.080652
0.820416 0.196858 0.080574
0.852586 0.197272 0.080540
0.885096 0.197703 0.080552
0.917924 0.198153 0.080616
0.033681 0.217332 0.088519
0.061996 0.217882 0.087502
0.090476 0.218307 0.086480
0.119385 0.218471 0.085996
0.148013 0.218634 0.085513
0.176344 0.218797 0.085035
0.204357 0.218960 0.084563
0.232010 0.219116 0.084227
0.259224 0.219284 0.084012
0.288999 0.219442 0.082439
0.318585 0.219508 0.080809
0.346724 0.219668 0.080784
0.373866 0.219896 0.081032
0.400136 0.220153 0.081218
0.425396 0.220421 0.081340
0.449358 0.220688 0.081403
0.471326 0.220940 0.081420
0.488775 0.221142 0.081409
0.509701 0.221385 0.081370
0.533179 0.221657 0.081298
0.558151 0.221945 0.081195
0.584222 0.222242 0.081064
0.611179 0.222545 0.080912
0.638859 0.222859 0.080763
0.667140 0.223189 0.080638
0.697164 0.223549 0.080536
0.727701 0.223926 0.080468
0.758702 0.224320 0.080438
0.790128 0.224733 0.080451
0.821944 0.225164 0.080511
0.854125 0.225614 0.080623
0.886645 0.226084 0.080791
0.919484 0.226575 0.081020
0.035275 0.244942 0.087259
0.063552 0.245503 0.086160
0.092031 0.245921 0.085152
0.120881 0.246098 0.084677
0.149453 0.246274 0.084210
0.177729 0.246452 0.083752
0.205689 0.246631 0.083306
0.233311 0.246812 0.082874
0.260549 0.246987 0.082578
0.289746 0.247188 0.082374
0.318562 0.247398 0.081701
0.347189 0.247557 0.080384
0.374797 0.247732 0.079953
0.401187 0.247969 0.080143
0.426511 0.248230 0.080339
0.450531 0.248493 0.080465
0.472550 0.248742 0.080535
0.490038 0.248945 0.080564
0.511008 0.249190 0.080573
0.534533 0.249468 0.080554
0.559550 0.249763 0.080510
0.585664 0.250072 0.080444
0.612649 0.250392 0.080372
0.640337 0.250730 0.080324
0.668627 0.251086 0.080308
0.698659 0.251475 0.080328
0.729206 0.251884 0.080390
0.760217 0.252313 0.080500
0.791652 0.252763 0.080661
0.823479 0.253233 0.080878
0.855670 0.253725 0.081156
0.888201 0.254240 0.081500
0.921052 0.254778 0.081913
0.036848 0.272166 0.085975
0.065094 0.272740 0.084827
0.093593 0.273149 0.083871
0.122399 0.273339 0.083420
0.150926 0.273532 0.082983
0.179159 0.273727 0.082560
0.207078 0.273924 0.082154
0.234660 0.274123 0.081766
0.261877 0.274326 0.081398
0.291096 0.274542 0.081154
0.319743 0.274767 0.081008
0.347799 0.275007 0.080780
0.375421 0.275233 0.080020
0.402151 0.275453 0.079612
0.427678 0.275698 0.079614
0.451767 0.275961 0.079780
0.473831 0.276216 0.079910
0.491352 0.276424 0.079986
0.512360 0.276677 0.080051
0.535924 0.276967 0.080099
0.560978 0.277277 0.080127
0.587125 0.277605 0.080143
0.614120 0.277951 0.080179
0.641817 0.278318 0.080250
0.670116 0.278704 0.080359
0.700158 0.279128 0.080518
0.730714 0.279574 0.080729
0.761735 0.280043 0.080996
0.793181 0.280534 0.081324
0.825019 0.281049 0.081716
0.857221 0.281589 0.082179
0.889764 0.282153 0.082717
0.922626 0.282740 0.083321
0.038608 0.302611 0.084564
0.066827 0.303203 0.083394
0.095365 0.303600 0.082531
0.124129 0.303810 0.082127
0.152617 0.304024 0.081742
0.180812 0.304241 0.081377
0.208694 0.304462 0.081034
0.236240 0.304687 0.080714
0.263424 0.304915 0.080418
0.292628 0.305168 0.080124
0.321294 0.305418 0.079977
0.349336 0.305675 0.079928
0.376680 0.305944 0.079886
0.403277 0.306217 0.079690
0.428917 0.306484 0.079480
0.453168 0.306752 0.079474
0.475327 0.307014 0.079585
0.492892 0.307232 0.079705
0.513935 0.307503 0.079847
0.537534 0.307813 0.079985
0.562621 0.308148 0.080115
0.588786 0.308506 0.080255
0.615792 0.308888 0.080435
0.643498 0.309293 0.080658
0.671808 0.309720 0.080930
0.701861 0.310189 0.081268
0.732430 0.310683 0.081668
0.763463 0.311202 0.082135
0.794922 0.311747 0.082672
0.826772 0.312314 0.083268
0.858984 0.312889 0.083871
0.891532 0.313470 0.084479
0.924397 0.314058 0.085092
0.040336 0.332491 0.083283
0.068534 0.333104 0.082123
0.097119 0.333493 0.081382
0.125851 0.333727 0.081043
0.154308 0.333966 0.080729
0.182473 0.334210 0.080440
0.210326 0.334459 0.080178
0.237845 0.334712 0.079943
0.265003 0.334970 0.079738
0.294179 0.335256 0.079547
0.322837 0.335547 0.079391
0.350896 0.335836 0.079370
0.378252 0.336130 0.079447
0.404793 0.336432 0.079536
0.430343 0.336738 0.079628
0.454608 0.337038 0.079670
0.476825 0.337323 0.079777
0.494439 0.337558 0.079915
0.515527 0.337849 0.080116
0.539157 0.338187 0.080356
0.564267 0.338555 0.080611
0.590442 0.338950 0.080902
0.617458 0.339373 0.081243
0.645176 0.339820 0.081638
0.673497 0.340294 0.082091
0.703562 0.340813 0.082628
0.734142 0.341354 0.083211
0.765184 0.341904 0.083800
0.796648 0.342462 0.084396
0.828501 0.343028 0.084997
0.860715 0.343602 0.085603
0.893266 0.344182 0.086213
0.926134 0.344769 0.086828
0.042030 0.361740 0.082204
0.070211 0.362379 0.081082
0.098846 0.362765 0.080485
0.127552 0.363027 0.080229
0.155984 0.363296 0.080003
0.184125 0.363570 0.079808
0.211956 0.363850 0.079644
0.239453 0.364136 0.079512
0.266591 0.364427 0.079413
0.295747 0.364751 0.079342
0.324385 0.365080 0.079311
0.352439 0.365414 0.079318
0.379810 0.365745 0.079448
0.406363 0.366079 0.079673
0.431919 0.366416 0.079912
0.456161 0.366751 0.080164
0.478375 0.367068 0.080406
0.496007 0.367328 0.080613
0.517122 0.367648 0.080900
0.540777 0.368019 0.081258
0.565901 0.368425 0.081662
0.592087 0.368863 0.082120
0.619114 0.369330 0.082637
0.646841 0.369814 0.083178
0.675169 0.370311 0.083727
0.705240 0.370839 0.084306
0.735823 0.371378 0.084892
0.766868 0.371927 0.085485
0.798335 0.372484 0.086083
0.830191 0.373050 0.086687
0.862408 0.373622 0.087295
0.894961 0.374202 0.087908
0.927831 0.374788 0.088526
0.043683 0.390259 0.081390
0.071851 0.390927 0.080331
0.100533 0.391317 0.079891
0.129219 0.391611 0.079736
0.157631 0.391912 0.079614
0.185753 0.392220 0.079528
0.213566 0.392535 0.079478
0.241046 0.392857 0.079464
0.268168 0.393186 0.079486
0.297308 0.393551 0.079552
0.325932 0.393922 0.079660
0.353972 0.394299 0.079810
0.381342 0.394679 0.080000
0.407910 0.395055 0.080298
0.433477 0.395428 0.080686
0.457729 0.395798 0.081082
0.479948 0.396149 0.081472
0.497582 0.396437 0.081800
0.518709 0.396791 0.082216
0.542378 0.397195 0.082697
0.567511 0.397627 0.083203
0.593704 0.398079 0.083725
0.620736 0.398548 0.084259
0.648466 0.399030 0.084803
0.676798 0.399525 0.085356
0.706873 0.400053 0.085939
0.737459 0.400590 0.086528
0.768507 0.401138 0.087124
0.799977 0.401694 0.087725
0.831836 0.402258 0.088331
0.864055 0.402830 0.088942
0.896611 0.403408 0.089557
0.929482 0.403993 0.090177
0.045286 0.417888 0.080888
0.073444 0.418588 0.079915
0.102168 0.418988 0.079640
0.130837 0.419318 0.079599
0.159233 0.419655 0.079597
0.187340 0.420001 0.079634
0.215139 0.420355 0.079711
0.242606 0.420716 0.079828
0.269716 0.421085 0.079984
0.298844 0.421494 0.080200
0.327457 0.421911 0.080461
0.355488 0.422333 0.080766
0.382849 0.422758 0.081113
0.409417 0.423185 0.081496
0.434999 0.423604 0.081969
0.459260 0.424004 0.082491
0.481487 0.424374 0.082961
0.499127 0.424670 0.083330
0.520257 0.425027 0.083767
0.543932 0.425429 0.084252
0.569070 0.425859 0.084762
0.595267 0.426309 0.085288
0.622302 0.426776 0.085826
0.650037 0.427258 0.086374
0.678372 0.427751 0.086930
0.708450 0.428277 0.087516
0.739039 0.428814 0.088109
0.770090 0.429360 0.088707
0.801563 0.429915 0.089311
0.833424 0.430478 0.089920
0.865646 0.431049 0.090533
0.898204 0.431626 0.091151
0.931077 0.432211 0.091772
0.046824 0.444351 0.080727
0.074973 0.445086 0.079857
0.103731 0.445505 0.079749
0.132386 0.445872 0.079834
0.160770 0.446248 0.079962
0.188865 0.446634 0.080133
0.216653 0.447029 0.080348
0.244111 0.447432 0.080605
0.271211 0.447843 0.080906
0.300330 0.448299 0.081281
0.328935 0.448763 0.081705
0.356959 0.449231 0.082168
0.384314 0.449690 0.082627
0.410875 0.450136 0.083072
0.436455 0.450565 0.083501
0.460726 0.450968 0.083957
0.482959 0.451336 0.084432
0.500602 0.451631 0.084805
0.521737 0.451986 0.085247
0.545416 0.452386 0.085736
0.570558 0.452814 0.086250
0.596759 0.453263 0.086780
0.623798 0.453729 0.087322
0.651536 0.454208 0.087873
0.679875 0.454701 0.088432
0.709956 0.455225 0.089022
0.740548 0.455761 0.089618
0.771602 0.456306 0.090219
0.803078 0.456860 0.090826
0.834941 0.457422 0.091437
0.867165 0.457992 0.092052
0.899725 0.458569 0.092672
0.932601 0.459152 0.093296
0.048263 0.469083 0.080905
0.076406 0.469855 0.080149
0.105188 0.470298 0.080203
0.133832 0.470705 0.080420
0.162206 0.471122 0.080683
0.190292 0.471549 0.080994
0.218072 0.471985 0.081351
0.245522 0.472431 0.081754
0.272616 0.472884 0.082199
0.301728 0.473374 0.082689
0.330326 0.473856 0.083171
0.358343 0.474328 0.083643
0.385690 0.474789 0.084104
0.412245 0.475236 0.084551
0.437818 0.475667 0.084982
0.462088 0.476075 0.085390
0.484329 0.476447 0.085802
0.501976 0.476740 0.086179
0.523115 0.477094 0.086624
0.546798 0.477493 0.087118
0.571944 0.477919 0.087636
0.598148 0.478366 0.088169
0.625192 0.478831 0.088715
0.652933 0.479309 0.089270
0.681275 0.479800 0.089832
0.711359 0.480324 0.090425
0.741954 0.480858 0.091023
0.773010 0.481402 0.091627
0.804488 0.481955 0.092236
0.836354 0.482516 0.092849
0.868580 0.483085 0.093467
0.901142 0.483661 0.094089
0.934019 0.484244 0.094714
0.049470 0.489796 0.081327
0.077608 0.490602 0.080680
0.106403 0.491072 0.080872
0.135040 0.491514 0.081210
0.163406 0.491967 0.081598
0.191487 0.492431 0.082035
0.219260 0.492900 0.082503
0.246705 0.493364 0.082967
0.273794 0.493822 0.083425
0.302901 0.494314 0.083917
0.331493 0.494797 0.084400
0.359504 0.495270 0.084873
0.386846 0.495732 0.085335
0.413395 0.496181 0.085784
0.438964 0.496613 0.086216
0.463229 0.497023 0.086626
0.485469 0.497399 0.087002
0.503122 0.497696 0.087325
0.524265 0.498048 0.087774
0.547951 0.498445 0.088271
0.573100 0.498870 0.088792
0.599308 0.499316 0.089329
0.626354 0.499779 0.089878
0.654098 0.500257 0.090435
0.682443 0.500747 0.091000
0.712529 0.501269 0.091595
0.743127 0.501803 0.092196
0.774185 0.502346 0.092802
0.805665 0.502898 0.093413
0.837533 0.503458 0.094028
0.869761 0.504027 0.094648
0.902324 0.504602 0.095271
0.935203 0.505184 0.095898
0.050627 0.509639 0.081988
0.078763 0.510478 0.081456
0.107562 0.510979 0.081781
0.136192 0.511458 0.082244
0.164554 0.511939 0.082724
0.192629 0.512415 0.083200
0.220398 0.512885 0.083671
0.247838 0.513350 0.084136
0.274922 0.513809 0.084595
0.304024 0.514303 0.085088
0.332611 0.514787 0.085573
0.360618 0.515262 0.086048
0.387955 0.515725 0.086511
0.414500 0.516175 0.086961
0.440064 0.516608 0.087394
0.464325 0.517020 0.087805
0.486561 0.517396 0.088182
0.504214 0.517696 0.088481
0.525362 0.518052 0.088872
0.549052 0.518448 0.089372
0.574205 0.518872 0.089896
0.600415 0.519317 0.090436
0.627464 0.519779 0.090988
0.655211 0.520255 0.091548
0.683558 0.520744 0.092115
0.713647 0.521265 0.092713
0.744246 0.521798 0.093316
0.775307 0.522340 0.093924
0.806789 0.522892 0.094537
0.838659 0.523451 0.095154
0.870888 0.524019 0.095775
0.903453 0.524594 0.096400
0.936334 0.525175 0.097028
0.052022 0.533511 0.083143
0.080154 0.534389 0.082744
0.108949 0.534914 0.083152
0.137574 0.535400 0.083639
0.165931 0.535882 0.084121
0.194000 0.536360 0.084598
0.221764 0.536832 0.085070
0.249199 0.537298 0.085537
0.276278 0.537759 0.085997
0.305375 0.538253 0.086492
0.333957 0.538739 0.086978
0.361958 0.539215 0.087454
0.389290 0.539680 0.087919
0.415830 0.540131 0.088370
0.441389 0.540566 0.088805
0.465646 0.540978 0.089217
0.487878 0.541356 0.089595
0.505527 0.541656 0.089895
0.526674 0.542016 0.090255
0.550371 0.542416 0.090691
0.575528 0.542839 0.091219
0.601742 0.543282 0.091763
0.628794 0.543743 0.092318
0.656544 0.544218 0.092881
0.684894 0.544706 0.093451
0.714986 0.545226 0.094052
0.745588 0.545757 0.094657
0.776651 0.546299 0.095268
0.808135 0.546849 0.095883
0.840007 0.547408 0.096503
0.872239 0.547975 0.097126
0.904806 0.548549 0.097753
0.937688 0.549130 0.098383
0.053526 0.559211 0.084642
0.081650 0.560093 0.084240
0.110441 0.560618 0.084649
0.139060 0.561106 0.085138
0.167411 0.561590 0.085621
0.195476 0.562069 0.086100
0.223235 0.562542 0.086573
0.250665 0.563010 0.087041
0.277739 0.563472 0.087503
0.306830 0.563968 0.087999
0.335406 0.564455 0.088486
0.363403 0.564933 0.088964
0.390730 0.565399 0.089430
0.417265 0.565851 0.089882
0.442819 0.566287 0.090318
0.467071 0.566701 0.090732
0.489299 0.567080 0.091111
0.506945 0.567381 0.091412
0.528089 0.567742 0.091773
0.551785 0.568146 0.092177
0.576948 0.568572 0.092640
0.603167 0.569014 0.093187
0.630222 0.569473 0.093746
0.657976 0.569947 0.094313
0.686329 0.570434 0.094886
0.716424 0.570953 0.095489
0.747029 0.571483 0.096098
0.778095 0.572023 0.096711
0.809581 0.572573 0.097329
0.841455 0.573131 0.097951
0.873689 0.573700 0.098583
0.906262 0.574310 0.099281
0.939154 0.574966 0.100056
0.055101 0.586129 0.086214
0.083219 0.587013 0.085808
0.112004 0.587540 0.086218
0.140618 0.588030 0.086708
0.168964 0.588514 0.087193
0.197024 0.588994 0.087673
0.224778 0.589469 0.088147
0.252203 0.589938 0.088616
0.279272 0.590401 0.089079
0.308358 0.590899 0.089577
0.336930 0.591388 0.090066
0.364921 0.591866 0.090545
0.392244 0.592334 0.091012
0.418774 0.592788 0.091466
0.444324 0.593225 0.091903
0.468572 0.593639 0.092318
0.490796 0.594020 0.092698
0.508438 0.594321 0.093000
0.529579 0.594683 0.093361
0.553270 0.595088 0.093766
0.578433 0.595519 0.094197
0.604659 0.595965 0.094679
0.631718 0.596422 0.095242
0.659475 0.596895 0.095812
0.687831 0.597380 0.096389
0.717930 0.597898 0.096995
0.748538 0.598427 0.097607
0.779606 0.598967 0.098224
0.811098 0.599540 0.098891
0.842980 0.600159 0.099631
0.875226 0.600823 0.100445
0.907811 0.601530 0.101331
0.940714 0.602281 0.102288
0.056731 0.613990 0.087841
0.084843 0.614876 0.087431
0.113622 0.615405 0.087843
0.142232 0.615895 0.088333
0.170574 0.616381 0.088820
0.198629 0.616863 0.089301
0.226378 0.617339 0.089777
0.253799 0.617809 0.090247
0.280864 0.618273 0.090711
0.309945 0.618772 0.091210
0.338512 0.619262 0.091700
0.366499 0.619742 0.092180
0.393817 0.620211 0.092649
0.420342 0.620666 0.093104
0.445888 0.621104 0.093542
0.470132 0.621520 0.093958
0.492352 0.621901 0.094339
0.509992 0.622203 0.094642
0.531129 0.622566 0.095004
0.554816 0.622972 0.095410
0.579975 0.623404 0.095842
0.606199 0.623854 0.096292
0.633266 0.624316 0.096790
0.661027 0.624786 0.097364
0.689387 0.625271 0.097944
0.719490 0.625808 0.098594
0.750106 0.626392 0.099312
0.781185 0.627020 0.100099
0.812689 0.627692 0.100956
0.844583 0.628407 0.101881
0.876840 0.629163 0.102873
0.909436 0.629961 0.103932
0.942351 0.630797 0.105056
0.058407 0.642626 0.089514
0.086513 0.643514 0.089101
0.115288 0.644044 0.089513
0.143893 0.644536 0.090005
0.172230 0.645023 0.090492
0.200281 0.645506 0.090975
0.228026 0.645983 0.091452
0.255442 0.646454 0.091923
0.282503 0.646920 0.092389
0.311579 0.647420 0.092889
0.340142 0.647911 0.093380
0.368125 0.648392 0.093861
0.395438 0.648862 0.094331
0.421960 0.649318 0.094787
0.447502 0.649757 0.095226
0.471742 0.650174 0.095643
0.493959 0.650556 0.096025
0.511596 0.650859 0.096328
0.532729 0.651223 0.096692
0.556413 0.651630 0.097099
0.581568 0.652063 0.097532
0.607788 0.652517 0.097989
0.634856 0.653009 0.098504
0.662628 0.653540 0.099117
0.690998 0.654107 0.099858
0.721113 0.654742 0.100693
0.751741 0.655420 0.101594
0.782832 0.656141 0.102560
0.814347 0.656902 0.103590
0.846252 0.657704 0.104683
0.878520 0.658545 0.105838
0.911127 0.659422 0.107053
0.944052 0.660336 0.108327
0.060121 0.671923 0.091226
0.088222 0.672813 0.090809
0.116992 0.673344 0.091222
0.145594 0.673837 0.091715
0.173926 0.674326 0.092204
0.201973 0.674809 0.092687
0.229714 0.675287 0.093165
0.257127 0.675760 0.093638
0.284183 0.676226 0.094104
0.313256 0.676727 0.094606
0.341814 0.677220 0.095098
0.369793 0.677702 0.095580
0.397102 0.678173 0.096051
0.423620 0.678630 0.096508
0.449159 0.679070 0.096948
0.473395 0.679488 0.097366
0.495609 0.679871 0.097749
0.513243 0.680178 0.098058
0.534375 0.680560 0.098455
0.558058 0.681008 0.098936
0.583213 0.681505 0.099488
0.609435 0.682047 0.100106
0.636505 0.682630 0.100788
0.664283 0.683253 0.101533
0.692668 0.683912 0.102371
0.722794 0.684634 0.103377
0.753433 0.685398 0.104443
0.784535 0.686201 0.105569
0.816061 0.687042 0.106755
0.847977 0.687921 0.107997
0.880256 0.688834 0.109295
0.912873 0.689782 0.110646
0.945808 0.690762 0.112050
0.061869 0.701798 0.092972
0.089965 0.702690 0.092552
0.118731 0.703222 0.092966
0.147329 0.703716 0.093460
0.175658 0.704206 0.093949
0.203701 0.704690 0.094434
0.231438 0.705170 0.094913
0.258847 0.705643 0.095387
0.285900 0.706111 0.095854
0.314968 0.706613 0.096356
0.343523 0.707106 0.096850
0.371498 0.707589 0.097333
0.398804 0.708061 0.097805
0.425318 0.708526 0.098275
0.450854 0.708998 0.098773
0.475090 0.709467 0.099285
0.497304 0.709916 0.099788
0.514940 0.710284 0.100210
0.536073 0.710739 0.100740
0.559757 0.711266 0.101367
0.584914 0.711845 0.102068
0.611139 0.712469 0.102837
0.638212 0.713134 0.103669
0.665993 0.713837 0.104562
0.694383 0.714577 0.105514
0.724524 0.715382 0.106598
0.755174 0.716220 0.107811
0.786288 0.717095 0.109078
0.817824 0.718005 0.110399
0.849750 0.718949 0.111770
0.882039 0.719924 0.113190
0.914665 0.720930 0.114657
0.947609 0.721964 0.116168
0.063648 0.732188 0.094749
0.091739 0.733081 0.094326
0.120501 0.733615 0.094740
0.149095 0.734110 0.095235
0.177420 0.734600 0.095726
0.205460 0.735086 0.096211
0.233194 0.735566 0.096691
0.260599 0.736041 0.097166
0.287649 0.736509 0.097634
0.316714 0.737013 0.098139
0.345265 0.737530 0.098675
0.373238 0.738066 0.099254
0.400544 0.738616 0.099869
0.427059 0.739175 0.100512
0.452597 0.739735 0.101171
0.476834 0.740286 0.101833
0.499049 0.740807 0.102468
0.516686 0.741231 0.102992
0.537820 0.741751 0.103642
0.561507 0.742348 0.104399
0.586666 0.743000 0.105232
0.612893 0.743696 0.106134
0.639969 0.744432 0.107098
0.667752 0.745206 0.108120
0.696145 0.746014 0.109197
0.726292 0.746890 0.110376
0.756957 0.747798 0.111641
0.788080 0.748732 0.113028
0.819627 0.749699 0.114462
0.851563 0.750696 0.115941
0.883860 0.751721 0.117461
0.916496 0.752772 0.119020
0.949448 0.753848 0.120616
0.065453 0.763043 0.096553
0.093541 0.763938 0.096127
0.122299 0.764472 0.096542
0.150890 0.764968 0.097038
0.179212 0.765460 0.097529
0.207248 0.765946 0.098015
0.234979 0.766437 0.098515
0.262381 0.766951 0.099060
0.289430 0.767484 0.099648
0.318494 0.768087 0.100332
0.347046 0.768706 0.101055
0.375020 0.769338 0.101810
0.402327 0.769979 0.102591
0.428843 0.770622 0.103389
0.454382 0.771261 0.104193
0.478620 0.771884 0.104986
0.500837 0.772469 0.105739
0.518475 0.772941 0.106353
0.539611 0.773518 0.107107
0.563300 0.774177 0.107976
0.588461 0.774891 0.108925
0.614690 0.775649 0.109940
0.641768 0.776447 0.111016
0.669554 0.777280 0.112147
0.697949 0.778145 0.113329
0.728099 0.779078 0.114612
0.758769 0.780041 0.115944
