ai-pipeline/luts/chill.cube
TITLE "ClipVibe Chill"
LUT_3D_SIZE 9
DOMAIN_MIN 0.0 0.0 0.0
DOMAIN_MAX 1.0 1.0 1.0
0.019719 0.049279 0.122003
0.139832 0.045030 0.092368
0.249916 0.046446 0.091941
0.362491 0.047781 0.091208
0.460648 0.048860 0.090283
0.547915 0.049768 0.089278
0.656906 0.050856 0.087858
0.779811 0.052054 0.086152
0.909075 0.053321 0.084396
0.030432 0.160992 0.090717
0.145356 0.162205 0.088159
0.258829 0.162454 0.084523
0.372144 0.163203 0.083949
0.469087 0.164382 0.083803
0.555489 0.165433 0.083275
0.664177 0.166615 0.082246
0.787096 0.167958 0.081212
0.916373 0.169522 0.080655
0.036848 0.272166 0.085975
0.150926 0.273532 0.082983
0.261877 0.274326 0.081398
0.375421 0.275233 0.080020
0.473831 0.276216 0.079910
0.560978 0.277277 0.080127
0.670116 0.278704 0.080359
0.793181 0.280534 0.081324
0.922626 0.282740 0.083321
0.043683 0.390259 0.081390
0.157631 0.391912 0.079614
0.268168 0.393186 0.079486
0.381342 0.394679 0.080000
0.479948 0.396149 0.081472
0.567511 0.397627 0.083203
0.676798 0.399525 0.085356
0.799977 0.401694 0.087725
0.929482 0.403993 0.090177
0.049470 0.489796 0.081327
0.163406 0.491967 0.081598
0.273794 0.493822 0.083425
0.386846 0.495732 0.085335
0.485469 0.497399 0.087002
0.573100 0.498870 0.088792
0.682443 0.500747 0.091000
0.805665 0.502898 0.093413
0.935203 0.505184 0.095898
0.055101 0.586129 0.086214
0.168964 0.588514 0.087193
0.279272 0.590401 0.089079
0.392244 0.592334 0.091012
0.490796 0.594020 0.092698
0.578433 0.595519 0.094197
0.687831 0.597380 0.096389
0.811098 0.599540 0.098891
0.940714 0.602281 0.102288
0.061869 0.701798 0.092972
0.175658 0.704206 0.093949
0.285900 0.706111 0.095854
0.398804 0.708061 0.097805
0.497304 0.709916 0.099788
0.584914 0.711845 0.102068
0.694383 0.714577 0.105514
0.817824 0.718005 0.110399
0.947609 0.721964 0.116168
0.069142 0.826050 0.100346
0.182877 0.828947 0.102180
0.293093 0.831702 0.105635
0.405999 0.834851 0.109776
0.504522 0.837816 0.113797
0.592158 0.840589 0.117626
0.701660 0.844183 0.122658
0.825201 0.848344 0.128541
0.955118 0.852741 0.135168
0.076997 0.959606 0.114681
0.190504 0.963784 0.118478
0.300737 0.967450 0.123601
0.413664 0.971296 0.129023
0.512204 0.974678 0.133810
0.599851 0.977670 0.138044
0.709356 0.981342 0.143220
0.832879 0.985331 0.148784
0.962815 0.989266 0.154166
0.006616 0.030817 0.236128
0.140106 0.045613 0.209617
0.250554 0.046874 0.208928
0.363145 0.048188 0.207749
0.461309 0.049250 0.206583
0.548579 0.050146 0.205432
0.657574 0.051226 0.203892
0.780484 0.052426 0.202123
0.909751 0.053709 0.200370
0.012050 0.178495 0.237246
0.143110 0.168658 0.237103
0.258251 0.162776 0.204728
0.371895 0.163592 0.202453
0.470553 0.164422 0.200784
0.558117 0.165221 0.199485
0.667584 0.166242 0.198091
0.791018 0.167499 0.196940
0.920514 0.169071 0.196428
0.037516 0.272520 0.202132
0.150337 0.274229 0.199578
0.262390 0.274821 0.197029
0.379191 0.274996 0.193747
0.480599 0.275257 0.192468
0.570583 0.275635 0.191653
0.682077 0.276479 0.191549
0.805109 0.278345 0.193356
0.933220 0.280923 0.196512
0.044368 0.390704 0.197715
0.156492 0.393037 0.195253
0.267502 0.394340 0.194244
0.382066 0.395533 0.194610
0.481953 0.396758 0.195726
0.574001 0.397460 0.192134
0.685802 0.398625 0.194148
0.809658 0.400466 0.197764
0.938529 0.402799 0.201753
0.050173 0.490416 0.198230
0.162000 0.493440 0.197391
0.272565 0.495359 0.198204
0.386718 0.496972 0.199817
0.486300 0.498380 0.201225
0.574653 0.499618 0.203201
0.687693 0.500958 0.199831
0.813475 0.502415 0.201581
0.942919 0.504520 0.206144
0.055815 0.586843 0.203422
0.167430 0.590065 0.202738
0.277681 0.592078 0.203539
0.391571 0.593763 0.205224
0.490924 0.595232 0.206693
0.579274 0.596539 0.208000
0.689421 0.598153 0.210435
0.815239 0.600021 0.209333
0.947275 0.602363 0.211619
0.062586 0.702515 0.210147
0.174017 0.705812 0.209255
0.284005 0.707904 0.210048
0.397677 0.709668 0.211829
0.496852 0.711483 0.213900
0.585060 0.713362 0.216240
0.695275 0.716013 0.219735
0.819427 0.719313 0.225122
0.950507 0.723124 0.229583
0.069868 0.826880 0.217711
0.181200 0.830844 0.217848
0.290971 0.833973 0.220383
0.404528 0.837048 0.224571
0.503618 0.839931 0.228605
0.591756 0.842616 0.232421
0.701883 0.846082 0.237406
0.826124 0.850074 0.243194
0.956671 0.854251 0.250099
0.077755 0.960873 0.232866
0.189046 0.965957 0.235014
0.298426 0.970059 0.238818
0.411911 0.973772 0.244167
0.510936 0.977019 0.248856
0.599012 0.979878 0.252977
0.709050 0.983366 0.257976
0.833171 0.987122 0.263291
0.963732 0.990785 0.268352
0.000710 0.023098 0.343270
0.140520 0.046175 0.320632
0.250911 0.047379 0.320023
0.363768 0.048566 0.318809
0.461939 0.049613 0.317426
0.549213 0.050501 0.316146
0.658211 0.051578 0.314508
0.781125 0.052783 0.312695
0.910397 0.054084 0.310961
0.000335 0.157897 0.347922
0.128175 0.148540 0.345499
0.258310 0.163085 0.317482
0.372397 0.163797 0.314920
0.471090 0.164672 0.312812
0.558675 0.165506 0.311291
0.667954 0.166629 0.309799
0.791106 0.168024 0.308685
0.920580 0.169675 0.308262
0.008025 0.293767 0.342495
0.131399 0.292578 0.342438
0.253895 0.275901 0.341322
0.378427 0.275366 0.309294
0.478131 0.276170 0.308182
0.566321 0.277099 0.307763
0.676194 0.278479 0.307941
0.800311 0.280207 0.309031
0.930912 0.282217 0.310984
0.045022 0.391143 0.308677
0.157029 0.393403 0.307978
0.267108 0.395044 0.307190
0.382511 0.396126 0.307165
0.484701 0.396917 0.306560
0.575210 0.397617 0.307517
0.687952 0.398585 0.308710
0.814850 0.399751 0.310054
0.948147 0.401029 0.311466
0.050846 0.491031 0.309782
0.162580 0.494020 0.310435
0.271851 0.496381 0.310673
0.386398 0.497957 0.311505
0.486895 0.499117 0.312665
0.576128 0.500154 0.314040
0.690615 0.500994 0.311373
0.817654 0.502104 0.312858
0.951058 0.503339 0.314377
0.056496 0.587524 0.315170
0.168029 0.590664 0.315535
0.276769 0.593218 0.315427
0.390764 0.594960 0.316235
0.490882 0.596223 0.317499
0.579910 0.597347 0.318622
0.690796 0.598748 0.320991
0.820190 0.600082 0.316253
0.953891 0.602051 0.319186
0.063269 0.703198 0.321863
0.174632 0.706427 0.321847
0.282928 0.709143 0.321449
0.396466 0.711118 0.322417
0.496282 0.712888 0.324567
0.585060 0.714715 0.326958
0.695983 0.717281 0.330491
0.820831 0.720468 0.336107
0.955342 0.723867 0.335452
0.070564 0.827723 0.329706
0.181847 0.831764 0.330851
0.289868 0.835654 0.332300
0.403007 0.839055 0.335595
0.502636 0.841853 0.339628
0.591252 0.844448 0.343422
0.701973 0.847786 0.348348
0.826879 0.851609 0.354026
0.958042 0.855583 0.361001
0.078479 0.962105 0.345592
0.189724 0.967194 0.348491
0.297523 0.971911 0.351247
0.410136 0.976033 0.355262
0.509622 0.979146 0.359844
0.598106 0.981872 0.363844
0.708653 0.985177 0.368657
0.833343 0.988704 0.373714
0.964500 0.992099 0.378448
0.000000 0.021341 0.448379
0.141053 0.046672 0.427714
0.251301 0.047872 0.426983
0.364193 0.048996 0.425827
0.462547 0.049958 0.424474
0.549825 0.050841 0.423080
0.658827 0.051917 0.421360
0.781745 0.053131 0.419518
0.911022 0.054454 0.417820
0.000000 0.149897 0.454698
0.121342 0.139873 0.448910
0.258414 0.163501 0.425080
0.372513 0.164158 0.423068
0.471610 0.164918 0.421049
0.559215 0.165789 0.419325
0.668514 0.166959 0.417711
0.791683 0.168412 0.416582
0.921174 0.170132 0.416247
0.000000 0.276550 0.449611
0.118078 0.269506 0.450383
0.242268 0.257538 0.445171
0.378562 0.275642 0.419329
0.478573 0.276433 0.417995
0.566800 0.277439 0.417288
0.676660 0.278924 0.417317
0.800301 0.280895 0.418509
0.930165 0.283141 0.420436
0.013987 0.411359 0.439326
0.129315 0.414775 0.442777
0.242367 0.416842 0.447540
0.365344 0.397071 0.448788
0.484142 0.397421 0.419610
0.573348 0.398510 0.420559
0.684082 0.400052 0.421980
0.808811 0.401826 0.423687
0.939931 0.403708 0.425527
0.051498 0.491651 0.417640
0.163140 0.494580 0.419639
0.272321 0.496851 0.421043
0.386204 0.498618 0.421923
0.487286 0.499647 0.422675
0.578359 0.500316 0.422273
0.691658 0.501130 0.423355
0.818997 0.502174 0.424610
0.952628 0.503359 0.425956
0.057153 0.588182 0.423122
0.168608 0.591243 0.424502
0.277272 0.593722 0.425367
0.390285 0.595794 0.425787
0.490687 0.597028 0.426506
0.580372 0.597974 0.427452
0.692925 0.599126 0.427577
0.821418 0.600416 0.427836
0.955238 0.602482 0.431163
0.063929 0.703858 0.429784
0.175226 0.707021 0.430615
0.283459 0.709674 0.431030
0.395757 0.712215 0.431485
0.495603 0.714162 0.433208
0.584930 0.715931 0.435642
0.696535 0.718409 0.439200
0.822114 0.721497 0.444691
0.958484 0.724462 0.443643
0.071240 0.828583 0.437986
0.182474 0.832690 0.440090
0.290448 0.836626 0.442422
0.402255 0.840591 0.445020
0.501575 0.843620 0.448326
0.590651 0.846124 0.452088
0.701945 0.849331 0.456943
0.827493 0.852984 0.462498
0.959263 0.856766 0.469360
0.079181 0.963315 0.454527
0.190380 0.968401 0.458137
0.298133 0.973098 0.461537
0.409526 0.977660 0.464837
0.508256 0.981100 0.468262
0.597134 0.983694 0.472133
0.708171 0.986815 0.476749
0.833411 0.990113 0.481539
0.965143 0.993243 0.485937
0.000000 0.020780 0.533079
0.141516 0.047050 0.513370
0.251693 0.048238 0.512539
0.364513 0.049357 0.511311
0.462920 0.050278 0.510019
0.550315 0.051110 0.508675
0.659321 0.052188 0.506899
0.782242 0.053413 0.505045
0.911523 0.054756 0.503386
0.000000 0.146051 0.540130
0.116901 0.134624 0.532910
0.258667 0.163816 0.510896
0.372481 0.164554 0.508980
0.471773 0.165225 0.507416
0.559648 0.166022 0.505833
0.668963 0.167231 0.504132
0.792147 0.168733 0.503001
0.921651 0.170511 0.502747
0.000000 0.268723 0.535046
0.108421 0.255699 0.536412
0.237340 0.251197 0.528703
0.378531 0.276021 0.506406
0.478712 0.276746 0.505695
0.567184 0.277726 0.505022
0.677073 0.279286 0.504934
0.800738 0.281332 0.506090
0.930616 0.283592 0.507831
0.000000 0.403489 0.531714
0.114856 0.400404 0.533613
0.231023 0.394079 0.535565
0.354763 0.374439 0.535431
0.484310 0.397760 0.508953
0.573675 0.398836 0.509548
0.684431 0.400417 0.510519
0.808771 0.402335 0.511953
0.939156 0.404445 0.513696
0.021691 0.509396 0.522571
0.135513 0.512988 0.526695
0.245990 0.516423 0.531086
0.358827 0.520285 0.537974
0.461817 0.502089 0.542360
0.577780 0.500727 0.513101
0.689525 0.501992 0.514286
0.815158 0.503520 0.515772
0.946931 0.505224 0.517445
0.057229 0.588950 0.509684
0.169071 0.591706 0.511736
0.277675 0.594124 0.513381
0.390626 0.596135 0.514599
0.490586 0.597504 0.515276
0.580634 0.598368 0.515970
0.694395 0.599249 0.515805
0.822232 0.600685 0.518028
0.956276 0.602813 0.521381
0.064458 0.704387 0.516182
0.175702 0.707497 0.517691
0.283884 0.710111 0.518779
0.396138 0.712717 0.520130
0.495266 0.715007 0.521655
0.584733 0.716841 0.523869
0.696884 0.719244 0.527440
0.823881 0.722184 0.530979
0.959294 0.725074 0.534042
0.071783 0.829301 0.524729
0.182979 0.833458 0.527591
0.290914 0.837425 0.530621
0.402679 0.841406 0.533901
0.501181 0.844765 0.536822
0.590091 0.847398 0.540092
0.701842 0.850495 0.544879
0.827903 0.854007 0.550324
0.960172 0.857638 0.556963
0.079743 0.964296 0.541761
0.190905 0.969376 0.545930
0.298621 0.974051 0.549835
0.409975 0.978575 0.553619
0.507966 0.982258 0.556651
0.596287 0.985076 0.559661
0.707716 0.988047 0.564109
0.833397 0.991157 0.568670
0.965590 0.994068 0.572785
0.000000 0.020300 0.628630
0.142056 0.047460 0.609637
0.252177 0.048630 0.608697
0.364941 0.049740 0.607391
0.463300 0.050660 0.606061
0.550757 0.051458 0.604796
0.659876 0.052495 0.603092
0.782801 0.053734 0.601236
0.912087 0.055103 0.599633
0.000000 0.143005 0.636168
0.112282 0.129354 0.627950
0.259044 0.164161 0.607228
0.372638 0.164965 0.605401
0.471736 0.165703 0.603943
0.559861 0.166406 0.602821
0.669469 0.167547 0.601350
0.792670 0.169107 0.600230
0.922189 0.170954 0.600080
0.000000 0.262663 0.631107
0.098114 0.242310 0.632962
0.232359 0.245402 0.624041
0.378695 0.276452 0.603848
0.478535 0.277311 0.603388
0.567327 0.278185 0.603400
0.677538 0.279712 0.603534
0.801228 0.281823 0.604580
0.931123 0.284099 0.606110
0.000000 0.393528 0.628209
0.104613 0.384353 0.630895
0.219569 0.376056 0.633732
0.350263 0.367149 0.629760
0.484312 0.398309 0.608306
0.573798 0.399308 0.609306
0.684838 0.400825 0.610082
0.809209 0.402774 0.611113
0.939619 0.404907 0.612549
0.000000 0.506348 0.631192
0.109509 0.504126 0.634908
0.223737 0.500879 0.638029
0.342480 0.491627 0.640774
0.452164 0.470669 0.639567
0.577954 0.501093 0.613751
0.689821 0.502364 0.614525
0.814935 0.504085 0.615629
0.945909 0.506066 0.617163
0.020003 0.606704 0.625963
0.132735 0.610200 0.630093
0.241884 0.613368 0.634239
0.353785 0.616472 0.639421
0.450877 0.617328 0.645515
0.544438 0.595085 0.646900
0.693641 0.599835 0.618133
0.819648 0.601935 0.620748
0.951601 0.604773 0.624624
0.064092 0.705406 0.613567
0.176237 0.708032 0.615612
0.284366 0.710641 0.617533
0.396568 0.713317 0.619882
0.495649 0.715652 0.622248
0.584686 0.717695 0.624540
0.697176 0.720107 0.627954
0.825542 0.722764 0.631061
0.960155 0.725729 0.636285
0.072396 0.830140 0.622336
0.183548 0.834347 0.626041
0.291438 0.838344 0.629844
0.403157 0.842338 0.633881
0.501615 0.845694 0.637430
0.589944 0.848544 0.640543
0.701641 0.851725 0.644827
0.828278 0.855074 0.650135
0.961851 0.858483 0.654782
0.080376 0.965411 0.639882
0.191497 0.970479 0.644670
0.299171 0.975124 0.649132
0.410480 0.979600 0.653451
0.508431 0.983226 0.656917
0.596192 0.986199 0.659696
0.707131 0.989345 0.663220
0.833307 0.992238 0.667511
0.966018 0.994898 0.671291
0.000000 0.019854 0.738377
0.141750 0.046734 0.720432
0.252766 0.049061 0.718870
0.365484 0.050159 0.717484
0.463804 0.051077 0.716116
0.551228 0.051879 0.714842
0.660424 0.052886 0.713264
0.783444 0.054108 0.711521
0.912736 0.055510 0.709996
0.000000 0.140470 0.746225
0.107216 0.123702 0.737276
0.259546 0.164550 0.717529
0.372963 0.165415 0.715794
0.471906 0.166214 0.714451
0.559893 0.166978 0.713457
0.669806 0.168025 0.712568
0.793271 0.169553 0.711749
0.922809 0.171483 0.711733
0.000000 0.257752 0.741222
0.086721 0.228464 0.743509
0.226960 0.239407 0.733971
0.379032 0.276959 0.715217
0.478601 0.277941 0.715019
0.567151 0.278931 0.715291
0.677773 0.280348 0.716311
0.801791 0.282385 0.717480
0.931704 0.284681 0.718769
0.000000 0.385609 0.738853
0.093254 0.368552 0.742250
0.207231 0.359378 0.745883
0.345083 0.360887 0.740161
0.484525 0.398957 0.721380
0.573658 0.400053 0.722475
0.684996 0.401421 0.723843
0.809712 0.403277 0.724780
0.940149 0.405437 0.725866
0.000000 0.495590 0.742504
0.098212 0.486660 0.746802
0.211596 0.481076 0.750555
0.329173 0.469818 0.754021
0.448867 0.464275 0.748455
0.578046 0.501672 0.727879
0.689975 0.502880 0.729087
0.815388 0.504538 0.729938
0.946402 0.506628 0.731175
0.000000 0.602619 0.748056
0.102884 0.599645 0.751816
0.215758 0.597404 0.755052
0.332820 0.591705 0.757989
0.436155 0.580509 0.760238
0.532260 0.559022 0.760238
0.693848 0.600407 0.733813
0.820068 0.602637 0.736258
0.951817 0.605710 0.739905
0.020711 0.722673 0.743572
0.132812 0.726028 0.747463
0.241146 0.729194 0.751552
0.352134 0.732677 0.757004
0.448063 0.735646 0.763316
0.532662 0.736301 0.770241
0.648103 0.711105 0.774711
0.824758 0.723894 0.749302
0.957514 0.727447 0.754706
0.070063 0.832271 0.734896
0.183513 0.835666 0.739082
0.292042 0.839423 0.743632
0.403706 0.843426 0.748521
0.502115 0.846773 0.752779
0.590398 0.849601 0.756495
0.701689 0.852896 0.760955
0.828595 0.856185 0.765903
0.963674 0.859183 0.769701
0.081103 0.966703 0.752385
0.192175 0.971750 0.757869
0.299801 0.976355 0.762957
0.411059 0.980769 0.767873
0.508964 0.984325 0.771826
0.596683 0.987221 0.775009
0.707122 0.990443 0.778456
0.833109 0.993355 0.781923
0.966415 0.995720 0.785300
0.000000 0.019459 0.850648
0.139882 0.044204 0.834096
0.253390 0.049486 0.831403
0.366073 0.050572 0.829945
0.464365 0.051488 0.828548
0.551764 0.052296 0.827276
0.660932 0.053318 0.825732
0.784044 0.054521 0.824180
0.913400 0.055938 0.822815
0.000000 0.138511 0.858640
0.102167 0.118147 0.849217
0.259220 0.163840 0.830593
0.373393 0.165862 0.828524
0.472223 0.166715 0.827298
0.560109 0.167534 0.826434
0.669896 0.168659 0.825743
0.793723 0.170097 0.825605
0.923444 0.172047 0.825920
0.000000 0.254076 0.853759
0.075364 0.215278 0.856406
0.221625 0.233627 0.846599
0.379474 0.277493 0.828832
0.478847 0.278582 0.828893
0.567221 0.279676 0.829421
0.677624 0.281226 0.830777
0.802139 0.283052 0.832603
0.932298 0.285275 0.833890
0.000000 0.379806 0.851972
0.081904 0.354034 0.855973
0.195150 0.344483 0.860280
0.339734 0.355017 0.853720
0.484882 0.399633 0.836389
0.573756 0.400798 0.837554
0.684771 0.402254 0.839009
0.809971 0.403895 0.840650
0.940691 0.405979 0.841660
0.000000 0.487767 0.856220
0.086903 0.470973 0.860946
0.199662 0.464152 0.865163
0.316385 0.452410 0.869157
0.444135 0.458561 0.861967
0.578313 0.502296 0.843661
0.689835 0.503615 0.844979
0.815606 0.505102 0.846466
0.946908 0.507254 0.847784
0.000000 0.592531 0.861786
0.091644 0.582777 0.866051
0.203969 0.578515 0.869824
0.320252 0.570599 0.873365
0.422726 0.558318 0.876185
0.529821 0.552466 0.872080
0.693927 0.601202 0.850925
0.820279 0.603488 0.854110
0.952299 0.606628 0.857722
0.000000 0.719796 0.868456
0.097320 0.716891 0.872192
0.209080 0.715990 0.876056
0.324716 0.713306 0.880479
0.426558 0.708141 0.884633
0.517870 0.698922 0.888496
0.633787 0.671219 0.893077
0.824986 0.724928 0.868486
0.957948 0.728499 0.873560
0.023764 0.848616 0.866652
0.134935 0.853221 0.872947
0.242157 0.857660 0.879458
0.352136 0.862172 0.886665
0.447680 0.865968 0.893567
0.531675 0.868907 0.900444
0.635851 0.869446 0.909802
0.765441 0.840368 0.915531
0.962856 0.860326 0.890562
0.075424 0.970075 0.868450
0.189383 0.974196 0.874103
0.299394 0.977966 0.879415
0.411651 0.981954 0.884776
0.509508 0.985431 0.889212
0.597184 0.988244 0.892798
0.707569 0.991344 0.896709
0.833207 0.994222 0.900230
0.966717 0.996416 0.902996
0.000000 0.019081 0.967856
0.136930 0.040545 0.952688
0.254055 0.049917 0.948774
0.366712 0.050992 0.947254
0.464981 0.051908 0.945839
0.552362 0.052722 0.944577
0.661508 0.053761 0.943083
0.784598 0.054997 0.941634
0.914062 0.056412 0.940545
0.000000 0.136828 0.975424
0.096976 0.112486 0.966156
0.257024 0.160943 0.949116
0.373908 0.166325 0.946105
0.472650 0.167230 0.945006
0.560459 0.168101 0.944283
0.670150 0.169302 0.943804
0.793869 0.170838 0.943953
0.924011 0.172704 0.945063
0.000000 0.251147 0.971202
0.064242 0.202585 0.974009
0.216175 0.227807 0.964280
0.379635 0.277606 0.947442
0.479224 0.279261 0.947610
0.567464 0.280452 0.948404
0.677697 0.282099 0.949996
0.802016 0.283978 0.951874
0.932771 0.285954 0.953851
0.000000 0.375291 0.970070
0.070235 0.339954 0.974626
0.182908 0.330219 0.979467
0.334182 0.349152 0.972432
0.485023 0.399938 0.956171
0.574020 0.401567 0.957243
0.684783 0.403090 0.958766
0.809699 0.404808 0.960484
0.941081 0.406615 0.962291
0.000000 0.481714 0.974849
0.075267 0.456002 0.979908
0.187536 0.448427 0.984485
0.303591 0.436607 0.988890
0.438788 0.452727 0.980944
0.578700 0.502958 0.963902
0.689914 0.504374 0.965302
0.815328 0.505967 0.966904
0.947253 0.508037 0.969359
0.000000 0.584726 0.980426
0.080059 0.566906 0.985083
0.191953 0.561378 0.989275
0.307628 0.552413 0.993285
0.409431 0.540162 0.996558
0.525802 0.547040 0.990652
0.694182 0.602114 0.972401
0.820117 0.604651 0.975966
0.952585 0.607708 0.980473
0.000000 0.709663 0.987109
0.085788 0.699988 0.991444
0.197166 0.697345 0.996087
0.311841 0.691685 1.000000
0.410946 0.681356 1.000000
0.498837 0.668204 1.000000
0.623496 0.655349 1.000000
0.825096 0.726177 0.991718
0.958163 0.729703 0.997293
0.000000 0.847345 0.998063
0.091093 0.841991 1.000000
0.200072 0.837687 1.000000
0.311289 0.832011 1.000000
0.408009 0.825460 1.000000
0.493826 0.817561 1.000000
0.600860 0.802396 1.000000
0.721676 0.766057 1.000000
0.948956 0.848716 1.000000
0.024822 0.980676 1.000000
0.133747 0.978538 1.000000
0.237321 0.976355 1.000000
0.342267 0.973953 1.000000
0.432647 0.971630 1.000000
0.511765 0.969214 1.000000
0.608161 0.965123 1.000000
0.714776 0.956458 1.000000
0.841679 0.920799 1.000000
