ai-pipeline/luts/cinematic.cube
TITLE "ClipVibe Cinematic"
LUT_3D_SIZE 33
DOMAIN_MIN 0.0 0.0 0.0
DOMAIN_MAX 1.0 1.0 1.0
0.000000 0.009666 0.058085
0.004148 0.010296 0.060416
0.025380 0.010785 0.061369
0.046936 0.011295 0.061791
0.068683 0.011826 0.062127
0.090547 0.012405 0.062388
0.112689 0.012980 0.062678
0.135143 0.013555 0.062966
0.157944 0.014129 0.063241
0.187532 0.014861 0.063558
0.217854 0.015598 0.063834
0.249057 0.016342 0.064063
0.281346 0.017097 0.064242
0.315048 0.017872 0.064369
0.350740 0.018677 0.064439
0.389726 0.019539 0.064444
0.439628 0.020621 0.064350
0.489568 0.021681 0.064156
0.528634 0.022496 0.063941
0.564439 0.023234 0.063702
0.598283 0.023923 0.063443
0.630739 0.024579 0.063169
0.662131 0.025208 0.062882
0.692665 0.025817 0.062586
0.722482 0.026408 0.062284
0.745476 0.026862 0.062043
0.768132 0.027308 0.061802
0.790480 0.027748 0.061560
0.812548 0.028181 0.061318
0.834358 0.028609 0.061079
0.855931 0.029033 0.060842
0.877281 0.029452 0.060608
0.898425 0.029868 0.060378
0.000000 0.032680 0.060339
0.006292 0.033491 0.062013
0.027245 0.033996 0.063359
0.049369 0.034310 0.063795
0.071682 0.034682 0.063777
0.093845 0.035181 0.063704
0.116186 0.035698 0.063744
0.138789 0.036224 0.063827
0.161709 0.036758 0.063922
0.191420 0.037444 0.064035
0.221847 0.038140 0.064125
0.253140 0.038846 0.064182
0.285511 0.039566 0.064199
0.319287 0.040307 0.064171
0.355050 0.041079 0.064092
0.394103 0.041910 0.063949
0.444081 0.042956 0.063688
0.494085 0.043985 0.063349
0.533194 0.044779 0.063036
0.569034 0.045500 0.062719
0.602905 0.046176 0.062396
0.635385 0.046820 0.062069
0.666796 0.047441 0.061740
0.697345 0.048042 0.061411
0.727175 0.048627 0.061083
0.750177 0.049078 0.060828
0.772838 0.049522 0.060576
0.795190 0.049961 0.060328
0.817261 0.050393 0.060084
0.839072 0.050822 0.059846
0.860644 0.051246 0.059615
0.881993 0.051667 0.059390
0.903134 0.052086 0.059172
0.000000 0.055834 0.062169
0.008605 0.056833 0.063175
0.029075 0.057528 0.063834
0.050960 0.057902 0.064131
0.073910 0.058077 0.063970
0.096603 0.058401 0.063834
0.119285 0.058803 0.063794
0.142331 0.059189 0.063748
0.165868 0.059537 0.063651
0.196443 0.059969 0.063474
0.227413 0.060501 0.063336
0.258876 0.061145 0.063254
0.291159 0.061875 0.063200
0.324700 0.062666 0.063144
0.360093 0.063525 0.063076
0.398712 0.064459 0.062966
0.448349 0.065582 0.062703
0.498276 0.066618 0.062306
0.537345 0.067414 0.061953
0.573140 0.068141 0.061610
0.606963 0.068825 0.061272
0.639390 0.069480 0.060939
0.670746 0.070112 0.060613
0.701237 0.070727 0.060293
0.731007 0.071328 0.059983
0.753961 0.071792 0.059745
0.776572 0.072249 0.059515
0.798874 0.072702 0.059292
0.820894 0.073150 0.059077
0.842653 0.073594 0.058871
0.864173 0.074034 0.058675
0.885468 0.074472 0.058488
0.906556 0.074907 0.058312
0.000000 0.079285 0.063629
0.011138 0.080333 0.063914
0.031388 0.081138 0.063907
0.052802 0.081693 0.063595
0.075489 0.081947 0.063203
0.099194 0.082035 0.062230
0.123197 0.082059 0.061846
0.147458 0.082102 0.061429
0.172045 0.082155 0.060977
0.203782 0.082258 0.060409
0.234725 0.082758 0.060450
0.265265 0.083603 0.060893
0.296301 0.084623 0.061434
0.328697 0.085684 0.061876
0.363293 0.086728 0.062140
0.401521 0.087745 0.062188
0.451121 0.088859 0.061926
0.501129 0.089862 0.061471
0.540223 0.090645 0.061092
0.576037 0.091361 0.060733
0.609874 0.092038 0.060388
0.642310 0.092688 0.060057
0.673672 0.093318 0.059738
0.704167 0.093932 0.059432
0.733938 0.094533 0.059141
0.756890 0.094998 0.058924
0.779499 0.095458 0.058716
0.801797 0.095914 0.058520
0.823811 0.096366 0.058335
0.845564 0.096814 0.058161
0.867076 0.097260 0.058001
0.888363 0.097704 0.057853
0.909440 0.098146 0.057719
0.000000 0.102988 0.064510
0.013855 0.104020 0.064303
0.034048 0.104867 0.063857
0.055190 0.105522 0.063165
0.077597 0.105849 0.062701
0.100546 0.106072 0.062437
0.123708 0.106300 0.062333
0.148907 0.106283 0.059588
0.173552 0.106307 0.059088
0.205138 0.106422 0.058662
0.235963 0.106895 0.059124
0.266688 0.107637 0.059873
0.298066 0.108522 0.060582
0.330781 0.109464 0.061113
0.365645 0.110411 0.061406
0.404125 0.111343 0.061418
0.454018 0.112368 0.061049
0.504058 0.113355 0.060574
0.543169 0.114129 0.060190
0.578994 0.114840 0.059836
0.612836 0.115514 0.059504
0.645276 0.116163 0.059191
0.676638 0.116794 0.058898
0.707130 0.117411 0.058624
0.736895 0.118016 0.058370
0.759841 0.118486 0.058186
0.782442 0.118951 0.058015
0.804731 0.119413 0.057858
0.826736 0.119871 0.057716
0.848478 0.120328 0.057588
0.869977 0.120782 0.057476
0.891251 0.121235 0.057380
0.912313 0.121686 0.057300
0.000000 0.126918 0.064916
0.016724 0.127935 0.064365
0.036893 0.128803 0.063612
0.057873 0.129517 0.062651
0.080193 0.129851 0.062218
0.102967 0.130111 0.061947
0.126020 0.130375 0.061659
0.149270 0.130639 0.061729
0.174330 0.130791 0.058611
0.206586 0.130815 0.056953
0.237399 0.131227 0.057913
0.268285 0.131874 0.058982
0.299910 0.132657 0.059856
0.332918 0.133496 0.060431
0.368100 0.134344 0.060676
0.406920 0.135179 0.060570
0.456993 0.136151 0.060126
0.507051 0.137129 0.059660
0.546170 0.137899 0.059294
0.581998 0.138610 0.058966
0.615840 0.139286 0.058665
0.648275 0.139938 0.058391
0.679629 0.140575 0.058141
0.710112 0.141198 0.057917
0.739864 0.141812 0.057719
0.762799 0.142289 0.057581
0.785388 0.142763 0.057460
0.807664 0.143233 0.057356
0.829654 0.143702 0.057270
0.851380 0.144168 0.057201
0.872862 0.144634 0.057151
0.894118 0.145098 0.057119
0.915162 0.145562 0.057107
0.000260 0.151110 0.064941
0.019734 0.152114 0.064132
0.039894 0.152993 0.063148
0.060771 0.153745 0.061983
0.083115 0.154047 0.061660
0.105770 0.154331 0.061377
0.128702 0.154620 0.061082
0.151937 0.154915 0.060773
0.175417 0.155207 0.060823
0.206779 0.155553 0.058484
0.239094 0.155763 0.056907
0.270171 0.156318 0.058238
0.302048 0.157008 0.059200
0.335342 0.157758 0.059746
0.370828 0.158521 0.059881
0.409933 0.159283 0.059634
0.460034 0.160245 0.059205
0.510098 0.161220 0.058776
0.549216 0.161993 0.058452
0.585038 0.162708 0.058170
0.618871 0.163391 0.057922
0.651294 0.164052 0.057705
0.682634 0.164698 0.057519
0.713100 0.165332 0.057363
0.742834 0.165959 0.057238
0.765752 0.166447 0.057162
0.788324 0.166932 0.057105
0.810581 0.167415 0.057068
0.832551 0.167896 0.057052
0.854256 0.168376 0.057056
0.875717 0.168856 0.057081
0.896950 0.169335 0.057128
0.917970 0.169814 0.057197
0.003336 0.175607 0.064649
0.022876 0.176599 0.063640
0.043033 0.177485 0.062477
0.063967 0.178211 0.061288
0.086280 0.178507 0.061006
0.108847 0.178809 0.060714
0.131690 0.179116 0.060412
0.154834 0.179430 0.060102
0.178313 0.179751 0.059784
0.208623 0.180162 0.059813
0.240008 0.180601 0.058640
0.272295 0.181011 0.057787
0.304493 0.181615 0.058607
0.338053 0.182296 0.059041
0.373818 0.182993 0.059004
0.413026 0.183730 0.058712
0.463129 0.184692 0.058336
0.513187 0.185674 0.057974
0.552293 0.186455 0.057714
0.588101 0.187180 0.057500
0.621916 0.187874 0.057326
0.654320 0.188548 0.057187
0.685638 0.189208 0.057084
0.716079 0.189859 0.057016
0.745787 0.190502 0.056984
0.768684 0.191005 0.056984
0.791233 0.191504 0.057006
0.813466 0.192003 0.057051
0.835411 0.192500 0.057119
0.857090 0.192997 0.057211
0.878524 0.193494 0.057327
0.899729 0.193991 0.057466
0.920720 0.194489 0.057630
0.006548 0.200456 0.064097
0.026140 0.201438 0.062931
0.046297 0.202330 0.061628
0.067392 0.202987 0.060554
0.089637 0.203297 0.060265
0.112134 0.203613 0.059970
0.134906 0.203935 0.059669
0.157978 0.204265 0.059363
0.181383 0.204602 0.059053
0.211704 0.205039 0.058752
0.242619 0.205498 0.058734
0.274446 0.206001 0.058298
0.307195 0.206543 0.058121
0.341031 0.207170 0.058285
0.376970 0.207835 0.058105
0.416175 0.208575 0.057866
0.466266 0.209546 0.057571
0.516303 0.210542 0.057308
0.555388 0.211337 0.057137
0.591172 0.212077 0.057014
0.624961 0.212788 0.056935
0.657336 0.213481 0.056896
0.688624 0.214160 0.056897
0.719034 0.214832 0.056938
0.748708 0.215497 0.057018
0.771577 0.216017 0.057110
0.794098 0.216535 0.057227
0.816301 0.217052 0.057369
0.838215 0.217569 0.057537
0.859863 0.218086 0.057732
0.881265 0.218604 0.057952
0.902436 0.219123 0.058200
0.923393 0.219643 0.058474
0.010475 0.230157 0.063190
0.030114 0.231132 0.061884
0.050271 0.232029 0.060459
0.071599 0.232589 0.059607
0.093777 0.232913 0.059321
0.116205 0.233245 0.059034
0.138906 0.233583 0.058745
0.161907 0.233930 0.058456
0.185239 0.234286 0.058168
0.215475 0.234754 0.057804
0.246398 0.235234 0.057577
0.278084 0.235743 0.057536
0.310770 0.236302 0.057438
0.344787 0.236912 0.057329
0.380736 0.237581 0.057191
0.419923 0.238334 0.057045
0.469980 0.239326 0.056885
0.519975 0.240349 0.056779
0.559021 0.241169 0.056746
0.594764 0.241935 0.056762
0.628511 0.242674 0.056824
0.660842 0.243394 0.056931
0.692084 0.244103 0.057082
0.722446 0.244805 0.057278
0.752070 0.245502 0.057519
0.774899 0.246047 0.057740
0.797378 0.246592 0.057989
0.819539 0.247136 0.058266
0.841410 0.247681 0.058572
0.863014 0.248226 0.058908
0.884369 0.248773 0.059272
0.905495 0.249321 0.059667
0.926404 0.249872 0.060091
0.014555 0.260548 0.062090
0.034227 0.261519 0.060685
0.054379 0.262423 0.059176
0.075972 0.262872 0.058624
0.098089 0.263212 0.058357
0.120455 0.263560 0.058093
0.143093 0.263916 0.057832
0.166029 0.264281 0.057576
0.189294 0.264657 0.057326
0.219444 0.265151 0.057019
0.250296 0.265667 0.056725
0.281971 0.266199 0.056594
0.314634 0.266769 0.056586
0.348632 0.267393 0.056557
0.384552 0.268080 0.056526
0.423702 0.268855 0.056506
0.473705 0.269882 0.056529
0.523636 0.270944 0.056627
0.562627 0.271799 0.056771
0.598315 0.272600 0.056962
0.632005 0.273373 0.057200
0.664279 0.274130 0.057486
0.695463 0.274876 0.057821
0.725765 0.275616 0.058204
0.755328 0.276352 0.058636
0.778107 0.276929 0.059011
0.800536 0.277505 0.059417
0.822646 0.278082 0.059854
0.844464 0.278660 0.060322
0.866015 0.279239 0.060823
0.887316 0.279820 0.061356
0.908386 0.280404 0.061921
0.929242 0.280988 0.062512
0.018771 0.291790 0.060895
0.038464 0.292762 0.059430
0.058650 0.293659 0.057919
0.080480 0.294009 0.057683
0.102538 0.294366 0.057453
0.124844 0.294733 0.057230
0.147420 0.295109 0.057016
0.170293 0.295495 0.056812
0.193494 0.295892 0.056620
0.223560 0.296417 0.056393
0.254324 0.296964 0.056191
0.285929 0.297539 0.056016
0.318560 0.298138 0.056021
0.352516 0.298787 0.056113
0.388390 0.299501 0.056221
0.427484 0.300311 0.056367
0.477409 0.301385 0.056623
0.527254 0.302501 0.056979
0.566172 0.303400 0.057342
0.601789 0.304246 0.057747
0.635410 0.305064 0.058200
0.667612 0.305865 0.058702
0.698724 0.306657 0.059256
0.728952 0.307443 0.059862
0.758441 0.308226 0.060521
0.781161 0.308840 0.061077
0.803529 0.309455 0.061666
0.825579 0.310069 0.062287
0.847348 0.310679 0.062909
0.868862 0.311281 0.063523
0.890140 0.311877 0.064130
0.911200 0.312467 0.064731
0.932056 0.313052 0.065325
0.023111 0.324114 0.059719
0.042813 0.325092 0.058229
0.063323 0.325864 0.057065
0.085094 0.326234 0.056881
0.107092 0.326613 0.056709
0.129336 0.327002 0.056549
0.151848 0.327402 0.056403
0.174656 0.327813 0.056273
0.197790 0.328237 0.056160
0.227769 0.328796 0.056044
0.258444 0.329381 0.055963
0.289956 0.329996 0.055922
0.322511 0.330647 0.055928
0.356410 0.331334 0.056126
0.392218 0.332088 0.056411
0.431236 0.332943 0.056767
0.481058 0.334080 0.057314
0.530793 0.335264 0.057988
0.569619 0.336220 0.058617
0.605149 0.337121 0.059281
0.638682 0.337993 0.059991
0.670798 0.338849 0.060751
0.701822 0.339695 0.061565
0.731966 0.340534 0.062423
0.761393 0.341355 0.063269
0.784083 0.341989 0.063920
0.806435 0.342614 0.064560
0.828483 0.343230 0.065192
0.850253 0.343839 0.065815
0.871768 0.344441 0.066430
0.893047 0.345037 0.067038
0.914108 0.345627 0.067639
0.934965 0.346211 0.068234
0.027568 0.357873 0.058696
0.047265 0.358862 0.057220
0.068087 0.359514 0.056451
0.089794 0.359910 0.056344
0.111726 0.360315 0.056253
0.133903 0.360732 0.056181
0.156347 0.361160 0.056129
0.179084 0.361601 0.056099
0.202146 0.362057 0.056092
0.232030 0.362659 0.056121
0.262607 0.363289 0.056197
0.294018 0.363951 0.056327
0.326467 0.364653 0.056519
0.360277 0.365403 0.056786
0.395999 0.366210 0.057269
0.434920 0.367124 0.057885
0.484612 0.368341 0.058791
0.534209 0.369609 0.059852
0.572923 0.370636 0.060804
0.608344 0.371603 0.061779
0.641788 0.372531 0.062751
0.673848 0.373422 0.063681
0.704846 0.374285 0.064577
0.734989 0.375125 0.065447
0.764419 0.375945 0.066294
0.787110 0.376579 0.066947
0.809463 0.377203 0.067589
0.831513 0.377819 0.068221
0.853284 0.378427 0.068845
0.874800 0.379029 0.069461
0.896080 0.379624 0.070070
0.917141 0.380213 0.070672
0.937999 0.380797 0.071268
0.032154 0.393680 0.058003
0.051831 0.394688 0.056583
0.072936 0.395232 0.056244
0.094571 0.395659 0.056242
0.116429 0.396098 0.056263
0.138530 0.396549 0.056309
0.160896 0.397013 0.056381
0.183554 0.397491 0.056482
0.206534 0.397985 0.056614
0.236312 0.398639 0.056830
0.266778 0.399324 0.057108
0.298075 0.400044 0.057455
0.330404 0.400808 0.057882
0.364088 0.401624 0.058404
0.399696 0.402511 0.059046
0.438495 0.403500 0.059975
0.488024 0.404816 0.061324
0.537478 0.406172 0.062790
0.576129 0.407238 0.063929
0.611533 0.408217 0.064967
0.644980 0.409144 0.065943
0.677043 0.410034 0.066876
0.708044 0.410896 0.067775
0.738189 0.411734 0.068647
0.767621 0.412554 0.069496
0.790313 0.413187 0.070150
0.812668 0.413811 0.070793
0.834719 0.414426 0.071427
0.856491 0.415034 0.072052
0.878008 0.415635 0.072670
0.899289 0.416230 0.073280
0.920352 0.416819 0.073883
0.941211 0.417402 0.074480
0.036937 0.432896 0.057906
0.056575 0.433932 0.056593
0.077917 0.434388 0.056707
0.099466 0.434855 0.056850
0.121236 0.435336 0.057023
0.143247 0.435831 0.057228
0.165520 0.436341 0.057466
0.188084 0.436867 0.057741
0.210968 0.437410 0.058056
0.240618 0.438129 0.058518
0.270954 0.438882 0.059058
0.302114 0.439675 0.059685
0.334301 0.440516 0.060413
0.367835 0.441415 0.061261
0.403297 0.442383 0.062228
0.442004 0.443441 0.063286
0.491488 0.444787 0.064781
0.540948 0.446141 0.066260
0.579605 0.447205 0.067405
0.615014 0.448182 0.068448
0.648464 0.449107 0.069428
0.680530 0.449996 0.070363
0.711534 0.450857 0.071265
0.741682 0.451694 0.072139
0.771116 0.452513 0.072991
0.793810 0.453145 0.073647
0.816167 0.453768 0.074292
0.838218 0.454383 0.074927
0.859992 0.454991 0.075553
0.881510 0.455591 0.076172
0.902793 0.456186 0.076783
0.923856 0.456774 0.077387
0.944716 0.457357 0.077985
0.042596 0.483326 0.059136
0.062441 0.484296 0.058312
0.083664 0.484812 0.058649
0.105089 0.485342 0.059023
0.126734 0.485887 0.059436
0.148616 0.486448 0.059891
0.170758 0.487027 0.060390
0.193187 0.487624 0.060937
0.215933 0.488240 0.061535
0.245418 0.489049 0.062343
0.275615 0.489877 0.063170
0.306668 0.490728 0.064022
0.338781 0.491608 0.064902
0.372276 0.492526 0.065820
0.407727 0.493498 0.066792
0.446421 0.494559 0.067853
0.495916 0.495916 0.069210
0.545387 0.497266 0.070699
0.584051 0.498326 0.071852
0.619465 0.499301 0.072900
0.652921 0.500225 0.073884
0.684991 0.501112 0.074824
0.715999 0.501971 0.075729
0.746150 0.502807 0.076607
0.775586 0.503625 0.077462
0.798282 0.504256 0.078119
0.820641 0.504879 0.078766
0.842695 0.505493 0.079403
0.864470 0.506100 0.080031
0.885990 0.506700 0.080651
0.907274 0.507293 0.081264
0.928339 0.507881 0.081870
0.949200 0.508464 0.082469
0.047593 0.534143 0.062322
0.067437 0.535131 0.061876
0.088538 0.535711 0.062456
0.109857 0.536297 0.063042
0.131412 0.536890 0.063634
0.153222 0.537489 0.064234
0.175309 0.538096 0.064841
0.197701 0.538712 0.065456
0.220430 0.539337 0.066081
0.249908 0.540147 0.066891
0.280098 0.540977 0.067721
0.311143 0.541830 0.068574
0.343248 0.542712 0.069457
0.376735 0.543633 0.070377
0.412177 0.544607 0.071351
0.450862 0.545670 0.072414
0.500344 0.547030 0.073774
0.549826 0.548390 0.075138
0.588497 0.549448 0.076298
0.623917 0.550420 0.077351
0.657378 0.551342 0.078341
0.689452 0.552227 0.079285
0.720463 0.553085 0.080194
0.750617 0.553920 0.081075
0.780057 0.554737 0.081932
0.802755 0.555367 0.082592
0.825116 0.555989 0.083241
0.847171 0.556602 0.083879
0.868948 0.557208 0.084509
0.890469 0.557808 0.085131
0.911755 0.558401 0.085745
0.932840 0.558996 0.086341
0.953769 0.559603 0.086905
0.051145 0.574079 0.065862
0.070983 0.575070 0.065423
0.092080 0.575651 0.066004
0.113396 0.576238 0.066590
0.134947 0.576831 0.067184
0.156754 0.577432 0.067784
0.178838 0.578040 0.068392
0.201226 0.578656 0.069009
0.223951 0.579282 0.069634
0.253424 0.580093 0.070446
0.283609 0.580925 0.071277
0.314649 0.581779 0.072132
0.346749 0.582663 0.073015
0.380231 0.583585 0.073937
0.415667 0.584561 0.074913
0.454346 0.585626 0.075978
0.503821 0.586988 0.077340
0.553295 0.588350 0.078702
0.591973 0.589414 0.079774
0.627398 0.590385 0.080832
0.660862 0.591305 0.081825
0.692939 0.592189 0.082772
0.723953 0.593046 0.083684
0.754110 0.593880 0.084568
0.783552 0.594696 0.085427
0.806263 0.595330 0.086082
0.828689 0.595975 0.086698
0.850862 0.596631 0.087274
0.872804 0.597299 0.087815
0.894536 0.597977 0.088322
0.916075 0.598666 0.088798
0.937434 0.599364 0.089244
0.958627 0.600071 0.089662
0.054397 0.610668 0.069113
0.074232 0.611660 0.068672
0.095326 0.612242 0.069254
0.116639 0.612830 0.069842
0.138188 0.613424 0.070436
0.159991 0.614025 0.071037
0.182073 0.614634 0.071646
0.204458 0.615251 0.072263
0.227181 0.615877 0.072890
0.256649 0.616690 0.073702
0.286831 0.617522 0.074534
0.317867 0.618378 0.075390
0.349963 0.619263 0.076275
0.383440 0.620186 0.077198
0.418872 0.621163 0.078175
0.457546 0.622229 0.079241
0.507014 0.623593 0.080605
0.556482 0.624957 0.081969
0.595156 0.626023 0.083035
0.630587 0.626999 0.084021
0.664054 0.627918 0.085017
0.696150 0.628807 0.085959
0.727278 0.629704 0.086814
0.757644 0.630614 0.087588
0.787379 0.631538 0.088292
0.810364 0.632273 0.088800
0.833054 0.633016 0.089273
0.855479 0.633767 0.089712
0.877663 0.634525 0.090122
0.899626 0.635291 0.090502
0.921386 0.636063 0.090856
0.942958 0.636841 0.091186
0.964354 0.637625 0.091491
0.057469 0.645240 0.072185
0.077302 0.646233 0.071743
0.098394 0.646815 0.072325
0.119705 0.647403 0.072914
0.141251 0.647998 0.073508
0.163052 0.648600 0.074110
0.185131 0.649209 0.074720
0.207514 0.649827 0.075338
0.230234 0.650454 0.075965
0.259700 0.651268 0.076778
0.289878 0.652101 0.077611
0.320910 0.652957 0.078468
0.353003 0.653843 0.079354
0.386477 0.654767 0.080278
0.421904 0.655745 0.081256
0.460574 0.656812 0.082323
0.510037 0.658178 0.083688
0.559499 0.659543 0.085054
0.598205 0.660623 0.086103
0.633801 0.661663 0.086992
0.667555 0.662689 0.087778
0.700014 0.663709 0.088531
0.731489 0.664733 0.089203
0.762178 0.665762 0.089805
0.792215 0.666798 0.090347
0.815423 0.667617 0.090734
0.838326 0.668440 0.091092
0.860953 0.669266 0.091421
0.883330 0.670097 0.091725
0.905477 0.670932 0.092005
0.927411 0.671770 0.092263
0.949149 0.672611 0.092501
0.970704 0.673455 0.092719
0.060414 0.678384 0.075130
0.080245 0.679378 0.074687
0.101336 0.679961 0.075270
0.122644 0.680549 0.075859
0.144188 0.681145 0.076454
0.165987 0.681747 0.077057
0.188064 0.682357 0.077667
0.210445 0.682976 0.078285
0.233163 0.683603 0.078913
0.262626 0.684417 0.079727
0.292801 0.685251 0.080561
0.323831 0.686109 0.081418
0.355920 0.686995 0.082305
0.389391 0.687920 0.083230
0.424816 0.688899 0.084208
0.463482 0.689967 0.085277
0.513039 0.691369 0.086592
0.562860 0.692866 0.087768
0.601984 0.694100 0.088596
0.637954 0.695278 0.089288
0.672044 0.696430 0.089887
0.704815 0.697568 0.090427
0.736576 0.698697 0.090946
0.767528 0.699825 0.091407
0.797810 0.700952 0.091816
0.821198 0.701839 0.092106
0.844271 0.702725 0.092370
0.867059 0.703613 0.092611
0.889587 0.704501 0.092832
0.911877 0.705390 0.093032
0.933947 0.706280 0.093215
0.955813 0.707170 0.093381
0.977488 0.708061 0.093533
0.063262 0.710434 0.077978
0.083092 0.711429 0.077534
0.104180 0.712012 0.078118
0.125487 0.712601 0.078707
0.147030 0.713197 0.079303
0.168827 0.713800 0.079905
0.190902 0.714410 0.080516
0.213281 0.715029 0.081135
0.235997 0.715657 0.081763
0.265457 0.716472 0.082578
0.295630 0.717307 0.083412
0.326658 0.718165 0.084270
0.358744 0.719052 0.085158
0.392234 0.719985 0.086072
0.427805 0.721017 0.086974
0.466787 0.722199 0.087877
0.516870 0.723791 0.088916
0.567185 0.725469 0.089833
0.606669 0.726836 0.090471
0.642949 0.728130 0.090999
0.677315 0.729386 0.091451
0.710337 0.730621 0.091845
0.742330 0.731839 0.092206
0.773495 0.733047 0.092551
0.803971 0.734248 0.092853
0.827501 0.735188 0.093065
0.850706 0.736125 0.093255
0.873619 0.737061 0.093427
0.896263 0.737994 0.093582
0.918662 0.738925 0.093722
0.940833 0.739853 0.093848
0.962793 0.740780 0.093961
0.984554 0.741704 0.094062
0.066031 0.741602 0.080748
0.085860 0.742597 0.080303
0.106947 0.743180 0.080887
0.128252 0.743770 0.081476
0.149793 0.744366 0.082073
0.171589 0.744970 0.082676
0.193662 0.745580 0.083287
0.216040 0.746200 0.083906
0.238754 0.746829 0.084535
0.268212 0.747644 0.085350
0.298409 0.748488 0.086172
0.329566 0.749392 0.086962
0.361897 0.750366 0.087722
0.395735 0.751422 0.088455
0.431669 0.752584 0.089167
0.471025 0.753901 0.089874
0.521556 0.755656 0.090677
0.572283 0.757486 0.091377
0.612064 0.758965 0.091858
0.648598 0.760355 0.092252
0.683188 0.761697 0.092585
0.716410 0.763009 0.092873
0.748584 0.764299 0.093123
0.779915 0.765571 0.093357
0.810541 0.766830 0.093575
0.834178 0.767812 0.093726
0.857483 0.768788 0.093860
0.880486 0.769759 0.093979
0.903215 0.770725 0.094086
0.925690 0.771687 0.094181
0.947932 0.772643 0.094266
0.969955 0.773595 0.094341
0.991774 0.774543 0.094409
0.068736 0.772034 0.083452
0.088563 0.773029 0.083006
0.109648 0.773613 0.083590
0.130952 0.774203 0.084180
0.152492 0.774800 0.084777
0.174286 0.775403 0.085381
0.196367 0.776018 0.085987
0.218806 0.776659 0.086575
0.241640 0.777329 0.087141
0.271338 0.778228 0.087832
0.301849 0.779182 0.088490
0.333319 0.780196 0.089118
0.365960 0.781280 0.089716
0.400105 0.782446 0.090289
0.436346 0.783719 0.090840
0.476017 0.785151 0.091381
0.526921 0.787044 0.091989
0.577985 0.789000 0.092511
0.618008 0.790570 0.092864
0.654744 0.792038 0.093150
0.689510 0.793449 0.093390
0.722886 0.794821 0.093595
0.755197 0.796165 0.093773
0.786650 0.797487 0.093928
0.817385 0.798790 0.094075
0.841098 0.799802 0.094180
0.864471 0.800806 0.094273
0.887535 0.801803 0.094356
0.910318 0.802791 0.094429
0.932841 0.803772 0.094494
0.955124 0.804747 0.094553
0.977183 0.805714 0.094606
0.999032 0.806674 0.094654
0.070995 0.797457 0.085711
0.090821 0.798453 0.085265
0.111908 0.799038 0.085848
0.133253 0.799643 0.086417
0.154888 0.800272 0.086964
0.176831 0.800927 0.087490
0.199106 0.801608 0.087996
0.221741 0.802317 0.088482
0.244768 0.803055 0.088949
0.274706 0.804038 0.089515
0.305452 0.805074 0.090051
0.337153 0.806171 0.090558
0.370020 0.807335 0.091039
0.404387 0.808582 0.091494
0.440850 0.809936 0.091929
0.480747 0.811451 0.092353
0.531912 0.813442 0.092822
0.583211 0.815487 0.093220
0.623397 0.817121 0.093486
0.660269 0.818642 0.093700
0.695150 0.820098 0.093879
0.728624 0.821510 0.094032
0.761020 0.822888 0.094164
0.792544 0.824240 0.094281
0.823341 0.825570 0.094384
0.847095 0.826600 0.094462
0.870504 0.827620 0.094532
0.893598 0.828629 0.094594
0.916406 0.829629 0.094650
0.938949 0.830620 0.094702
0.961246 0.831601 0.094749
0.983314 0.832574 0.094794
1.000000 0.833538 0.094836
0.073317 0.822517 0.087866
0.093284 0.823552 0.087364
0.114548 0.824198 0.087856
0.136080 0.824866 0.088328
0.157898 0.825558 0.088780
0.180020 0.826275 0.089214
0.202472 0.827018 0.089629
0.225279 0.827786 0.090026
0.248474 0.828583 0.090404
0.278623 0.829641 0.090861
0.309573 0.830750 0.091290
0.341472 0.831918 0.091694
0.374533 0.833153 0.092073
0.409090 0.834470 0.092429
0.445740 0.835892 0.092766
0.485824 0.837477 0.093090
0.537204 0.839550 0.093447
0.588691 0.841668 0.093745
0.629005 0.843352 0.093943
0.665980 0.844914 0.094102
0.700945 0.846405 0.094236
0.734489 0.847846 0.094351
0.766942 0.849249 0.094452
0.798512 0.850621 0.094544
0.829343 0.851967 0.094629
0.853119 0.853008 0.094692
0.876544 0.854036 0.094748
