ai-pipeline/luts/cinematic.cube
TITLE "ClipVibe Cinematic"
LUT_3D_SIZE 9
DOMAIN_MIN 0.0 0.0 0.0
DOMAIN_MAX 1.0 1.0 1.0
0.000000 0.009666 0.058085
0.068683 0.011826 0.062127
0.157944 0.014129 0.063241
0.281346 0.017097 0.064242
0.439628 0.020621 0.064350
0.598283 0.023923 0.063443
0.722482 0.026408 0.062284
0.812548 0.028181 0.061318
0.898425 0.029868 0.060378
0.000000 0.102988 0.064510
0.077597 0.105849 0.062701
0.173552 0.106307 0.059088
0.298066 0.108522 0.060582
0.454018 0.112368 0.061049
0.612836 0.115514 0.059504
0.736895 0.118016 0.058370
0.826736 0.119871 0.057716
0.912313 0.121686 0.057300
0.006548 0.200456 0.064097
0.089637 0.203297 0.060265
0.181383 0.204602 0.059053
0.307195 0.206543 0.058121
0.466266 0.209546 0.057571
0.624961 0.212788 0.056935
0.748708 0.215497 0.057018
0.838215 0.217569 0.057537
0.923393 0.219643 0.058474
0.023111 0.324114 0.059719
0.107092 0.326613 0.056709
0.197790 0.328237 0.056160
0.322511 0.330647 0.055928
0.481058 0.334080 0.057314
0.638682 0.337993 0.059991
0.761393 0.341355 0.063269
0.850253 0.343839 0.065815
0.934965 0.346211 0.068234
0.042596 0.483326 0.059136
0.126734 0.485887 0.059436
0.215933 0.488240 0.061535
0.338781 0.491608 0.064902
0.495916 0.495916 0.069210
0.652921 0.500225 0.073884
0.775586 0.503625 0.077462
0.864470 0.506100 0.080031
0.949200 0.508464 0.082469
0.057469 0.645240 0.072185
0.141251 0.647998 0.073508
0.230234 0.650454 0.075965
0.353003 0.653843 0.079354
0.510037 0.658178 0.083688
0.667555 0.662689 0.087778
0.792215 0.666798 0.090347
0.883330 0.670097 0.091725
0.970704 0.673455 0.092719
0.068736 0.772034 0.083452
0.152492 0.774800 0.084777
0.241640 0.777329 0.087141
0.365960 0.781280 0.089716
0.526921 0.787044 0.091989
0.689510 0.793449 0.093390
0.817385 0.798790 0.094075
0.910318 0.802791 0.094429
0.999032 0.806674 0.094654
0.079506 0.872275 0.090945
0.165563 0.875660 0.091426
0.257272 0.879086 0.092461
0.384597 0.884117 0.093467
0.548399 0.890947 0.094243
0.712739 0.898054 0.094709
0.841247 0.903684 0.095038
0.934252 0.907751 0.095313
1.000000 0.911582 0.095598
0.096845 0.970378 0.093538
0.185307 0.974009 0.093993
0.278344 0.977927 0.094332
0.406948 0.983456 0.094661
0.571473 0.990612 0.095042
0.735538 0.997688 0.095633
0.863153 1.000000 0.096414
0.955144 1.000000 0.097234
1.000000 1.000000 0.098205
0.000000 0.010698 0.153438
0.069375 0.012773 0.157517
0.159029 0.014911 0.158659
0.282542 0.017843 0.159170
0.440926 0.021321 0.158913
0.599644 0.024592 0.157784
0.723871 0.027064 0.156528
0.813944 0.028835 0.155532
0.899819 0.030525 0.154591
0.000000 0.103992 0.158171
0.078780 0.106171 0.161555
0.172462 0.106989 0.160806
0.298624 0.109113 0.158085
0.458477 0.112075 0.155654
0.617900 0.115100 0.153517
0.742399 0.117511 0.152117
0.832416 0.119339 0.151371
0.918142 0.121133 0.150921
0.007939 0.201184 0.157758
0.089559 0.204226 0.156165
0.181961 0.205529 0.152984
0.315937 0.205528 0.147256
0.486090 0.205657 0.142720
0.643513 0.209108 0.144113
0.762491 0.213015 0.146776
0.849026 0.215858 0.148769
0.932248 0.218452 0.150703
0.024485 0.324806 0.153739
0.105700 0.328232 0.149829
0.196254 0.330155 0.146936
0.323955 0.331802 0.145856
0.492835 0.333363 0.135999
0.651005 0.336568 0.144879
0.771644 0.340208 0.151873
0.858989 0.342966 0.156169
0.942540 0.345568 0.159723
0.043680 0.484168 0.154140
0.123788 0.488273 0.151462
0.212763 0.490901 0.151938
0.337625 0.493725 0.154761
0.497337 0.497337 0.158373
0.657118 0.500944 0.161821
0.782951 0.503624 0.163212
0.871197 0.506026 0.168377
0.955297 0.508409 0.172480
0.058399 0.646170 0.167648
0.137986 0.650544 0.165323
0.226395 0.653357 0.165940
0.350672 0.656338 0.168922
0.509635 0.660152 0.172736
0.669476 0.664280 0.176141
0.795658 0.668104 0.179295
0.887812 0.671251 0.180487
0.975949 0.674483 0.181590
0.069666 0.772964 0.178915
0.149122 0.777397 0.176397
0.237758 0.780445 0.176755
0.363756 0.784193 0.178746
0.526770 0.789665 0.180293
0.691299 0.795742 0.181001
0.820589 0.800787 0.181375
0.914313 0.804547 0.182209
1.000000 0.808237 0.182812
0.081099 0.873484 0.185977
0.162638 0.878812 0.181873
0.254169 0.882568 0.181366
0.382866 0.887375 0.181879
0.548321 0.893885 0.182065
0.714196 0.900636 0.181994
0.843820 0.905961 0.181943
0.937560 0.909775 0.182229
1.000000 0.913348 0.183033
0.098806 0.971930 0.188003
0.181814 0.977825 0.182767
0.275631 0.981598 0.182747
0.405330 0.986875 0.182692
0.571148 0.993676 0.182636
0.736387 1.000000 0.182855
0.864836 1.000000 0.183395
0.957386 1.000000 0.184069
1.000000 1.000000 0.185214
0.000000 0.011677 0.254632
0.070419 0.013698 0.258511
0.160005 0.015829 0.259465
0.283838 0.018621 0.259895
0.442321 0.022056 0.259273
0.601101 0.025298 0.257932
0.725351 0.027759 0.256591
0.815427 0.029530 0.255573
0.901294 0.031225 0.254643
0.000000 0.104917 0.258386
0.080430 0.106699 0.263408
0.172656 0.107813 0.263771
0.299862 0.109584 0.261217
0.459822 0.112620 0.257589
0.619258 0.115697 0.254946
0.743675 0.118164 0.253390
0.833719 0.120008 0.252594
0.919446 0.121825 0.252152
0.009195 0.202003 0.257376
0.091579 0.204465 0.259171
0.183071 0.205682 0.259489
0.313679 0.206460 0.256008
0.475893 0.208859 0.252592
0.636044 0.211839 0.251038
0.760920 0.214327 0.250843
0.851481 0.216173 0.251264
0.937334 0.218123 0.252273
0.025933 0.325544 0.253638
0.106938 0.328777 0.252418
0.195830 0.331151 0.250194
0.325017 0.332562 0.247497
0.495701 0.333130 0.242866
0.664526 0.334123 0.243188
0.795788 0.335202 0.244446
0.888295 0.336650 0.246512
0.973735 0.338746 0.249516
0.044799 0.485080 0.255127
0.124686 0.489100 0.254445
0.210913 0.492712 0.253519
0.336076 0.495651 0.254310
0.498524 0.498524 0.257183
0.666444 0.500766 0.250196
0.799758 0.501542 0.248416
0.893055 0.502676 0.251272
0.979661 0.504308 0.255434
0.059388 0.647159 0.269022
0.138873 0.651431 0.268000
0.224191 0.655386 0.266403
0.347956 0.658748 0.267125
0.508969 0.662009 0.270385
0.671404 0.665773 0.272955
0.799224 0.669327 0.276212
0.898582 0.671763 0.264603
0.994104 0.673713 0.257752
0.070655 0.773953 0.280289
0.150099 0.778330 0.278811
0.235740 0.782753 0.276362
0.361338 0.787121 0.275779
0.526511 0.792274 0.276548
0.693078 0.797994 0.276517
0.823853 0.802722 0.276512
0.918419 0.806243 0.277591
1.000000 0.809737 0.277672
0.082882 0.874807 0.286846
0.164571 0.880142 0.283577
0.252276 0.885532 0.279364
0.380933 0.890674 0.277961
0.548117 0.896836 0.277522
0.715595 0.903200 0.276886
0.846384 0.908196 0.276440
0.940892 0.911741 0.276687
1.000000 0.915050 0.277851
0.101183 0.973498 0.288562
0.184243 0.979359 0.284145
0.272973 0.985211 0.278945
0.403484 0.990345 0.278163
0.570649 0.996761 0.277652
0.737106 1.000000 0.277490
0.866417 1.000000 0.277787
0.959543 1.000000 0.278318
1.000000 1.000000 0.279598
0.000000 0.012624 0.356428
0.071563 0.014595 0.360079
0.161165 0.016699 0.360832
0.285056 0.019441 0.361078
0.443742 0.022787 0.360271
0.602576 0.026004 0.358738
0.726843 0.028459 0.357329
0.816918 0.030232 0.356303
0.902774 0.031934 0.355395
0.000000 0.105757 0.359392
0.081957 0.107353 0.365041
0.173505 0.108615 0.365703
0.300346 0.110402 0.363857
0.461179 0.113170 0.360205
0.620638 0.116297 0.357076
0.745037 0.118805 0.355368
0.835051 0.120682 0.354547
0.920739 0.122534 0.354134
0.010473 0.202791 0.357948
0.093762 0.204828 0.361220
0.184689 0.206003 0.363600
0.314132 0.206983 0.361636
0.477052 0.209298 0.357253
0.637188 0.212406 0.354927
0.761553 0.215110 0.354588
0.851322 0.217223 0.355127
0.936629 0.219367 0.356287
0.027344 0.326299 0.354300
0.108537 0.329238 0.355641
0.197249 0.331404 0.356259
0.325697 0.332843 0.355923
0.491655 0.334531 0.354872
0.653045 0.337635 0.357061
0.778981 0.340176 0.359524
0.870234 0.342022 0.361336
0.957198 0.343792 0.363081
0.045891 0.486019 0.356917
0.125553 0.489954 0.358247
0.211628 0.493428 0.359185
0.334762 0.497039 0.359297
0.499386 0.499386 0.360968
0.669292 0.500677 0.357555
0.801173 0.501569 0.358845
0.896568 0.502275 0.359764
0.987416 0.502978 0.360633
0.060383 0.648154 0.371095
0.139766 0.652324 0.371386
0.224977 0.656172 0.371165
0.345819 0.660596 0.369976
0.508142 0.663661 0.371867
0.673226 0.667070 0.373526
0.804201 0.670307 0.372786
0.908042 0.671766 0.358940
1.000000 0.673514 0.356803
0.071650 0.774948 0.382362
0.151212 0.779323 0.381849
0.237075 0.783778 0.380354
0.359515 0.789621 0.376725
0.526144 0.794718 0.376048
0.694738 0.800070 0.375270
0.826993 0.804478 0.374821
0.922408 0.807777 0.375873
1.000000 0.810908 0.369487
0.084768 0.876176 0.388369
0.166596 0.881513 0.385953
0.254418 0.886888 0.382655
0.378881 0.893826 0.376987
0.547781 0.899629 0.375922
0.716845 0.905595 0.374723
0.848783 0.910252 0.373887
0.944051 0.913528 0.374037
1.000000 0.916584 0.375366
0.103619 0.975093 0.389813
0.186718 0.980913 0.386231
0.275456 0.986710 0.381927
0.401489 0.993671 0.376360
0.569980 0.999689 0.375403
0.737631 1.000000 0.374873
0.867787 1.000000 0.374941
0.961474 1.000000 0.375340
1.000000 1.000000 0.376700
0.000000 0.013796 0.486498
0.073103 0.015708 0.489852
0.162757 0.017769 0.490354
0.286701 0.020464 0.490317
0.445541 0.023728 0.489337
0.604473 0.026903 0.487641
0.728753 0.029354 0.486171
0.818821 0.031133 0.485154
0.904657 0.032849 0.484293
0.000000 0.106777 0.488578
0.083866 0.108235 0.494579
0.174989 0.109588 0.495342
0.301151 0.111545 0.493578
0.462609 0.114001 0.491098
0.622392 0.117073 0.487730
0.746759 0.119637 0.485856
0.836730 0.121560 0.485021
0.922360 0.123461 0.484664
0.012254 0.203740 0.486690
0.096135 0.205500 0.490918
0.186690 0.206652 0.494636
0.314628 0.208020 0.493407
0.478308 0.209956 0.490948
0.638617 0.213153 0.487896
0.762901 0.215976 0.487292
0.852587 0.218176 0.487801
0.937797 0.220406 0.489030
0.029083 0.327279 0.483228
0.111379 0.329734 0.486387
0.200193 0.331677 0.489283
0.326924 0.333310 0.492717
0.492469 0.335095 0.492950
0.653453 0.338559 0.493621
0.777976 0.341586 0.495428
0.867859 0.343860 0.497044
0.953359 0.346069 0.498748
0.047233 0.487251 0.487277
0.126652 0.491052 0.491052
0.212544 0.494343 0.494343
0.335425 0.497701 0.497701
0.500000 0.500000 0.500000
0.667347 0.501550 0.501550
0.796128 0.503316 0.503316
0.888850 0.504763 0.504763
0.976978 0.506242 0.506201
0.061656 0.649427 0.501656
0.140908 0.653466 0.503626
0.225982 0.657177 0.505167
0.346635 0.661412 0.506408
0.506931 0.665479 0.506239
0.675382 0.668424 0.506663
0.812519 0.670707 0.499796
0.911740 0.672421 0.498541
1.000000 0.674262 0.497089
0.072979 0.776245 0.512887
0.152815 0.780667 0.513536
0.238943 0.785151 0.513282
0.361692 0.791001 0.511414
0.525514 0.797573 0.507084
0.696664 0.802442 0.505347
0.830786 0.806440 0.504227
0.927605 0.809472 0.504005
1.000000 0.811594 0.490275
0.087303 0.877977 0.518178
0.169292 0.883307 0.516869
0.257244 0.888655 0.514759
0.381737 0.895555 0.510691
0.547152 0.902939 0.505124
0.718202 0.908383 0.503219
0.851576 0.912598 0.501899
0.947798 0.915531 0.501825
1.000000 0.918281 0.503083
0.106789 0.977153 0.519331
0.189920 0.982914 0.516829
0.278648 0.988630 0.513685
0.403474 0.995901 0.508579
0.568869 1.000000 0.503481
0.738003 1.000000 0.502506
0.869201 1.000000 0.502306
0.963582 1.000000 0.502557
1.000000 1.000000 0.503934
0.000000 0.014930 0.616421
0.074707 0.016789 0.619480
0.164424 0.018806 0.619746
0.288436 0.021454 0.619448
0.447329 0.024678 0.618241
0.606373 0.027801 0.616504
0.730662 0.030251 0.615009
0.820715 0.032041 0.614021
0.906523 0.033774 0.613229
0.000924 0.107762 0.617713
0.085769 0.109130 0.623870
0.176664 0.110530 0.624615
0.302448 0.112579 0.622874
0.463371 0.115180 0.620535
0.624130 0.117860 0.618414
0.748455 0.120486 0.616406
0.838374 0.122459 0.615581
0.923940 0.124412 0.615301
0.014105 0.204661 0.615469
0.098320 0.206264 0.620248
0.188653 0.207410 0.624742
0.315727 0.209013 0.623937
0.478215 0.211296 0.622032
0.640003 0.213925 0.620971
0.764197 0.216873 0.620135
0.853791 0.219163 0.620638
0.938901 0.221481 0.621950
0.030850 0.328252 0.612277
0.113730 0.330456 0.616524
0.202559 0.332299 0.620774
0.328275 0.334078 0.626437
0.491777 0.336467 0.627809
0.654266 0.339372 0.630100
0.778865 0.342476 0.630916
0.868790 0.344791 0.632000
0.954322 0.347032 0.633292
0.048517 0.488517 0.617805
0.128986 0.491867 0.623024
0.215400 0.494837 0.627954
0.338007 0.498022 0.633843
0.500551 0.500551 0.639832
0.666223 0.502590 0.641482
0.793181 0.504995 0.642280
0.884375 0.506934 0.643353
0.971182 0.508991 0.644455
0.062929 0.650700 0.632217
0.142050 0.654608 0.635867
0.226988 0.658182 0.639169
0.347451 0.662228 0.642840
0.508035 0.666250 0.645430
0.677336 0.669434 0.644811
0.815069 0.671356 0.642130
0.914840 0.673097 0.640365
1.000000 0.675084 0.638706
0.074510 0.777626 0.643288
0.154609 0.782087 0.645117
0.240982 0.786591 0.646128
0.364009 0.792433 0.646048
0.527629 0.799120 0.643588
0.698358 0.804492 0.639638
0.834321 0.808082 0.637710
0.935895 0.810404 0.630582
1.000000 0.812307 0.627575
0.089965 0.879829 0.647944
0.172094 0.885142 0.647759
0.260154 0.890453 0.646853
0.384728 0.897270 0.644491
0.548928 0.904990 0.639791
0.719275 0.910859 0.635474
0.854046 0.914620 0.633689
0.951202 0.917213 0.633270
1.000000 0.919636 0.632036
0.110010 0.979231 0.648866
0.193151 0.984924 0.647459
0.281846 0.990549 0.645488
0.406548 0.997666 0.642046
0.569600 1.000000 0.636669
0.738024 1.000000 0.633594
0.870223 1.000000 0.633157
0.965265 1.000000 0.633285
1.000000 1.000000 0.634577
0.000000 0.015794 0.717897
0.075999 0.017614 0.720731
0.165767 0.019599 0.720825
0.289831 0.022211 0.720340
0.448766 0.025406 0.718978
0.607822 0.028519 0.717179
0.732150 0.030956 0.715738
0.822186 0.032757 0.714789
0.907968 0.034506 0.714063
0.002326 0.108515 0.718629
0.087261 0.109830 0.724847
0.178043 0.111253 0.725544
0.303630 0.113351 0.723812
0.464265 0.116032 0.721570
0.624751 0.118793 0.719693
0.749761 0.121163 0.718520
0.839634 0.123177 0.717719
0.925145 0.125174 0.717513
0.015576 0.205371 0.716162
0.099961 0.206895 0.721239
0.190171 0.208041 0.726159
0.316779 0.209779 0.725595
0.478617 0.212260 0.724061
0.640000 0.214997 0.723740
0.765170 0.217596 0.724096
0.854689 0.219961 0.724610
0.939749 0.222329 0.725905
0.032230 0.329017 0.713236
0.115391 0.331103 0.718101
0.204201 0.332909 0.723116
0.329350 0.334789 0.730032
0.491738 0.337526 0.732147
0.653700 0.340530 0.735150
0.779561 0.343171 0.736841
0.869518 0.345519 0.737508
0.955075 0.347785 0.738479
0.049512 0.489512 0.719878
0.130526 0.492627 0.725820
0.217207 0.495433 0.731592
0.339674 0.498528 0.738780
0.501176 0.501176 0.746662
0.665782 0.503467 0.748953
0.793724 0.505539 0.750152
0.884997 0.507537 0.750580
0.972165 0.509748 0.750997
0.063924 0.651695 0.734289
0.143640 0.655326 0.738935
0.228961 0.658674 0.743346
0.349555 0.662519 0.748653
0.510155 0.666669 0.753209
0.678707 0.670153 0.754638
0.813309 0.673094 0.752791
0.909935 0.675844 0.751256
1.000000 0.678776 0.749951
0.075844 0.778763 0.745158
0.156136 0.783247 0.747925
0.242686 0.787759 0.749939
0.365910 0.793584 0.751275
0.529693 0.800208 0.750682
0.699966 0.805717 0.747734
0.837014 0.809136 0.744601
0.938902 0.811047 0.740570
1.000000 0.812965 0.738373
0.092127 0.881310 0.749372
0.174351 0.886602 0.750078
0.262481 0.891877 0.750126
0.387095 0.898620 0.749111
0.551247 0.906205 0.746192
0.720228 0.912452 0.741762
0.855743 0.915973 0.739358
0.953616 0.918304 0.738576
1.000000 0.920084 0.732131
0.112554 0.980866 0.750155
0.195689 0.986498 0.749613
0.284342 0.992046 0.748569
0.408924 0.999034 0.746440
0.571715 1.000000 0.742802
0.737798 1.000000 0.738503
0.870736 1.000000 0.737891
0.966275 1.000000 0.737943
1.000000 1.000000 0.739098
0.000000 0.016602 0.814701
0.077259 0.018387 0.817326
0.167075 0.020342 0.817267
0.291189 0.022923 0.816618
0.450159 0.026094 0.815127
0.609223 0.029201 0.813289
0.733543 0.031642 0.811886
0.823582 0.033446 0.811012
0.909336 0.035212 0.810362
0.003686 0.109222 0.814940
0.088692 0.110496 0.821191
0.179396 0.111937 0.821831
0.304839 0.114070 0.820108
0.465259 0.116814 0.817960
0.625495 0.119657 0.816269
0.750538 0.122006 0.815540
0.840815 0.123876 0.815290
0.926269 0.125917 0.815168
0.016990 0.206045 0.812302
0.101494 0.207514 0.817605
0.191608 0.208666 0.822849
0.317868 0.210509 0.822480
0.479218 0.213147 0.821281
0.640073 0.216061 0.821387
0.765380 0.218590 0.822654
0.855508 0.220744 0.823979
0.940560 0.223140 0.825152
0.033537 0.329755 0.809680
0.116882 0.331766 0.815026
0.205658 0.333558 0.820637
0.330370 0.335529 0.828524
0.491934 0.338532 0.831255
0.653239 0.341714 0.834437
0.779346 0.344202 0.836924
0.870212 0.346214 0.838237
0.955793 0.348504 0.838901
0.050462 0.490462 0.817327
0.131862 0.493411 0.823783
0.218733 0.496100 0.830151
0.341100 0.499132 0.838258
0.501864 0.501864 0.847483
0.665479 0.504422 0.850041
0.793393 0.506422 0.852040
0.885716 0.508158 0.852871
0.973224 0.510514 0.852638
0.064874 0.652645 0.831738
0.145139 0.656045 0.837060
0.230821 0.659208 0.842239
0.351650 0.662932 0.848644
0.512353 0.667240 0.854550
0.680214 0.671028 0.857535
0.814673 0.674116 0.856169
0.911872 0.676815 0.854294
1.000000 0.679832 0.852321
0.077232 0.779891 0.842356
0.158163 0.784271 0.845851
0.245196 0.788701 0.848699
0.368777 0.794457 0.851302
0.532543 0.801054 0.852517
0.702384 0.806574 0.851552
0.839089 0.810019 0.849342
0.938115 0.812583 0.847130
1.000000 0.815270 0.845469
0.094251 0.882747 0.846194
0.176555 0.888015 0.847760
0.264738 0.893249 0.848726
0.389373 0.899914 0.849010
0.553454 0.907362 0.847804
0.722247 0.913432 0.845150
0.857164 0.917077 0.842400
0.955970 0.919144 0.840589
1.000000 0.920489 0.837407
0.115001 0.982431 0.846874
0.198116 0.988000 0.847166
0.286716 0.993470 0.847014
0.411165 1.000000 0.846148
0.573680 1.000000 0.844182
0.739363 1.000000 0.841623
0.870985 1.000000 0.839883
0.966979 1.000000 0.839880
1.000000 1.000000 0.840845
0.000000 0.017348 0.905948
0.078471 0.019104 0.908382
0.168330 0.021032 0.908188
0.292487 0.023586 0.907397
0.451487 0.026737 0.905801
0.610553 0.029841 0.903945
0.734856 0.032292 0.902586
0.824875 0.034108 0.901780
0.910612 0.035887 0.901228
0.004985 0.109880 0.905758
0.090046 0.111122 0.912027
0.180693 0.112578 0.912609
0.306027 0.114739 0.910901
0.466278 0.117535 0.908850
0.626313 0.120448 0.907341
0.751176 0.122864 0.906815
0.841494 0.124718 0.906917
0.927303 0.126632 0.907350
0.018330 0.206679 0.902995
0.102917 0.208110 0.908479
0.192951 0.209270 0.913981
0.318941 0.211201 0.913780
0.479905 0.213968 0.912893
0.640342 0.217030 0.913396
0.765299 0.219687 0.915034
0.855575 0.221776 0.916991
0.941324 0.223904 0.918767
0.034757 0.330460 0.900702
0.118223 0.332424 0.906442
0.206956 0.334216 0.912537
0.331318 0.336269 0.921212
0.492275 0.339470 0.924397
0.653094 0.342783 0.927710
0.778822 0.345373 0.930300
0.869950 0.347250 0.932177
0.956471 0.349182 0.933624
0.051358 0.491358 0.909246
0.133042 0.494184 0.916080
0.220054 0.496787 0.922887
0.342347 0.499773 0.931673
0.502567 0.502567 0.941887
0.665452 0.505322 0.944642
0.792795 0.507476 0.946796
0.885547 0.509191 0.948094
0.974325 0.511273 0.948446
0.065770 0.653541 0.923657
0.146440 0.656770 0.929478
0.232388 0.659797 0.935222
0.353523 0.663483 0.942362
0.514392 0.667937 0.949220
0.681810 0.671974 0.953309
0.815706 0.675349 0.952069
0.913274 0.677943 0.950872
1.000000 0.680838 0.948855
0.078642 0.780991 0.933987
0.160308 0.785248 0.937954
0.247928 0.789576 0.941365
0.372000 0.795240 0.944869
0.535834 0.801807 0.947457
0.705084 0.807402 0.948128
0.840871 0.811004 0.947125
0.939993 0.813485 0.945250
1.000000 0.816185 0.943019
0.096356 0.884108 0.937498
0.179068 0.889258 0.939760
0.267513 0.894392 0.941520
0.392260 0.900948 0.942994
0.556142 0.908289 0.943444
0.724466 0.914255 0.942561
0.858840 0.917831 0.941164
0.957438 0.919819 0.939823
1.000000 0.921731 0.938796
0.117319 0.983911 0.938126
0.200405 0.989416 0.939209
0.288942 0.994806 0.939906
0.413250 1.000000 0.940239
0.575482 1.000000 0.939860
0.740764 1.000000 0.938952
0.871685 1.000000 0.938155
0.967405 1.000000 0.937848
1.000000 1.000000 0.937954
