ai-pipeline/luts/cinematic.cube
TITLE "ClipVibe Cinematic"
LUT_3D_SIZE 5
DOMAIN_MIN 0.0 0.0 0.0
DOMAIN_MAX 1.0 1.0 1.0
0.000000 0.009666 0.058085
0.157944 0.014129 0.063241
0.439628 0.020621 0.064350
0.722482 0.026408 0.062284
0.898425 0.029868 0.060378
0.006548 0.200456 0.064097
0.181383 0.204602 0.059053
0.466266 0.209546 0.057571
0.748708 0.215497 0.057018
0.923393 0.219643 0.058474
0.042596 0.483326 0.059136
0.215933 0.488240 0.061535
0.495916 0.495916 0.069210
0.775586 0.503625 0.077462
0.949200 0.508464 0.082469
0.068736 0.772034 0.083452
0.241640 0.777329 0.087141
0.526921 0.787044 0.091989
0.817385 0.798790 0.094075
0.999032 0.806674 0.094654
0.096845 0.970378 0.093538
0.278344 0.977927 0.094332
0.571473 0.990612 0.095042
0.863153 1.000000 0.096414
1.000000 1.000000 0.098205
0.000000 0.011677 0.254632
0.160005 0.015829 0.259465
0.442321 0.022056 0.259273
0.725351 0.027759 0.256591
0.901294 0.031225 0.254643
0.009195 0.202003 0.257376
0.183071 0.205682 0.259489
0.475893 0.208859 0.252592
0.760920 0.214327 0.250843
0.937334 0.218123 0.252273
0.044799 0.485080 0.255127
0.210913 0.492712 0.253519
0.498524 0.498524 0.257183
0.799758 0.501542 0.248416
0.979661 0.504308 0.255434
0.070655 0.773953 0.280289
0.235740 0.782753 0.276362
0.526511 0.792274 0.276548
0.823853 0.802722 0.276512
1.000000 0.809737 0.277672
0.101183 0.973498 0.288562
0.272973 0.985211 0.278945
0.570649 0.996761 0.277652
0.866417 1.000000 0.277787
1.000000 1.000000 0.279598
0.000000 0.013796 0.486498
0.162757 0.017769 0.490354
0.445541 0.023728 0.489337
0.728753 0.029354 0.486171
0.904657 0.032849 0.484293
0.012254 0.203740 0.486690
0.186690 0.206652 0.494636
0.478308 0.209956 0.490948
0.762901 0.215976 0.487292
0.937797 0.220406 0.489030
0.047233 0.487251 0.487277
0.212544 0.494343 0.494343
0.500000 0.500000 0.500000
0.796128 0.503316 0.503316
0.976978 0.506242 0.506201
0.072979 0.776245 0.512887
0.238943 0.785151 0.513282
0.525514 0.797573 0.507084
0.830786 0.806440 0.504227
1.000000 0.811594 0.490275
0.106789 0.977153 0.519331
0.278648 0.988630 0.513685
0.568869 1.000000 0.503481
0.869201 1.000000 0.502306
1.000000 1.000000 0.503934
0.000000 0.015794 0.717897
0.165767 0.019599 0.720825
0.448766 0.025406 0.718978
0.732150 0.030956 0.715738
0.907968 0.034506 0.714063
0.015576 0.205371 0.716162
0.190171 0.208041 0.726159
0.478617 0.212260 0.724061
0.765170 0.217596 0.724096
0.939749 0.222329 0.725905
0.049512 0.489512 0.719878
0.217207 0.495433 0.731592
0.501176 0.501176 0.746662
0.793724 0.505539 0.750152
0.972165 0.509748 0.750997
0.075844 0.778763 0.745158
0.242686 0.787759 0.749939
0.529693 0.800208 0.750682
0.837014 0.809136 0.744601
1.000000 0.812965 0.738373
0.112554 0.980866 0.750155
0.284342 0.992046 0.748569
0.571715 1.000000 0.742802
0.870736 1.000000 0.737891
1.000000 1.000000 0.739098
0.000000 0.017348 0.905948
0.168330 0.021032 0.908188
0.451487 0.026737 0.905801
0.734856 0.032292 0.902586
0.910612 0.035887 0.901228
0.018330 0.206679 0.902995
0.192951 0.209270 0.913981
0.479905 0.213968 0.912893
0.765299 0.219687 0.915034
0.941324 0.223904 0.918767
0.051358 0.491358 0.909246
0.220054 0.496787 0.922887
0.502567 0.502567 0.941887
0.792795 0.507476 0.946796
0.974325 0.511273 0.948446
0.078642 0.780991 0.933987
0.247928 0.789576 0.941365
0.535834 0.801807 0.947457
0.840871 0.811004 0.947125
1.000000 0.816185 0.943019
0.117319 0.983911 0.938126
0.288942 0.994806 0.939906
0.575482 1.000000 0.939860
0.871685 1.000000 0.938155
1.000000 1.000000 0.937954
