ai-pipeline/luts/dreamy.cube
TITLE "ClipVibe Dreamy"
LUT_3D_SIZE 9
DOMAIN_MIN 0.0 0.0 0.0
DOMAIN_MAX 1.0 1.0 1.0
0.129333 0.104169 0.146975
0.249463 0.107739 0.147272
0.353712 0.110906 0.147842
0.434633 0.113248 0.148181
0.486853 0.114716 0.148349
0.559905 0.116725 0.148540
0.648599 0.119180 0.148806
0.738526 0.121761 0.149235
0.835747 0.124694 0.149999
0.131941 0.229008 0.146619
0.252209 0.231029 0.145777
0.372457 0.230295 0.131466
0.458902 0.230899 0.132872
0.509492 0.232729 0.136752
0.577995 0.236204 0.142490
0.661713 0.240881 0.148518
0.749287 0.245609 0.153506
0.847269 0.250614 0.158220
0.135825 0.338650 0.147558
0.255147 0.341982 0.148106
0.362158 0.345270 0.150277
0.448867 0.348129 0.146754
0.508241 0.349556 0.142693
0.582619 0.353173 0.152094
0.672841 0.358603 0.161993
0.765088 0.364252 0.169915
0.865804 0.370130 0.176738
0.143461 0.432624 0.153552
0.264585 0.437975 0.157369
0.373834 0.443376 0.162629
0.459483 0.447758 0.167202
0.514724 0.450592 0.170766
0.593266 0.454551 0.172384
0.687998 0.459304 0.177201
0.780972 0.464667 0.185798
0.881981 0.470429 0.192915
0.151949 0.494379 0.161663
0.274468 0.500996 0.167507
0.383800 0.506677 0.173188
0.469290 0.511119 0.177630
0.524612 0.513984 0.180654
0.601833 0.518001 0.185579
0.696333 0.522918 0.189453
0.790976 0.528009 0.195840
0.892186 0.533695 0.203119
0.166262 0.580453 0.175951
0.288508 0.587151 0.181850
0.397609 0.592895 0.187594
0.482917 0.597386 0.192085
0.538138 0.600293 0.194992
0.615453 0.604354 0.199200
0.709193 0.609292 0.205111
0.804409 0.614391 0.210889
0.906964 0.619992 0.218409
0.184329 0.688791 0.193997
0.306325 0.695559 0.199941
0.415224 0.701360 0.205754
0.500571 0.705918 0.210662
0.555960 0.708883 0.214093
0.633705 0.713049 0.219195
0.728488 0.718121 0.225920
0.824643 0.723260 0.233926
0.928352 0.728880 0.242665
0.203222 0.800258 0.213140
0.325774 0.807187 0.220582
0.435562 0.813155 0.228388
0.521626 0.817834 0.234831
0.577427 0.820866 0.239129
0.655673 0.825112 0.245280
0.750949 0.830271 0.252907
0.847671 0.835483 0.260864
0.951769 0.841068 0.270302
0.226794 0.921352 0.239983
0.349965 0.928513 0.249027
0.460301 0.934573 0.258001
0.546654 0.939303 0.265069
0.602573 0.942358 0.269638
0.680891 0.946626 0.275992
0.776097 0.951796 0.283591
0.872578 0.957014 0.291081
0.976423 0.962595 0.298967
0.129582 0.105578 0.259571
0.249744 0.108773 0.260526
0.354067 0.111857 0.259859
0.434935 0.114182 0.259573
0.487136 0.115648 0.259459
0.560136 0.117679 0.259379
0.648860 0.120172 0.259443
0.738938 0.122800 0.259772
0.836314 0.125838 0.260556
0.132544 0.229535 0.260684
0.252760 0.231463 0.260986
0.360187 0.233318 0.259617
0.442745 0.235347 0.259531
0.495981 0.236853 0.259824
0.571337 0.238974 0.260510
0.665102 0.241423 0.261603
0.760551 0.244439 0.263547
0.862457 0.248799 0.267138
0.136363 0.339629 0.260163
0.253565 0.344028 0.259185
0.363908 0.346733 0.260581
0.460718 0.347563 0.250483
0.521958 0.348204 0.250939
0.608079 0.349497 0.252210
0.713127 0.351448 0.254349
0.818438 0.353738 0.257065
0.923453 0.358353 0.263749
0.144838 0.434203 0.266239
0.262776 0.441286 0.267354
0.374595 0.446245 0.272072
0.462168 0.450099 0.276203
0.518784 0.452623 0.278796
0.613785 0.453937 0.258146
0.719069 0.455822 0.260291
0.824689 0.457990 0.263317
0.931203 0.462007 0.271499
0.154036 0.496467 0.274876
0.272418 0.504699 0.276953
0.383739 0.509865 0.281885
0.470916 0.513852 0.285872
0.527319 0.516416 0.288689
0.606196 0.520049 0.292541
0.722245 0.521737 0.264951
0.828633 0.523748 0.267260
0.936092 0.527390 0.276388
0.168374 0.582565 0.288912
0.285973 0.591082 0.290479
0.396717 0.596406 0.295539
0.483460 0.600510 0.299643
0.539609 0.603166 0.302300
0.618213 0.606870 0.306258
0.713241 0.611413 0.312519
0.828783 0.614037 0.283782
0.944490 0.616473 0.284694
0.186459 0.690921 0.306726
0.303354 0.699693 0.307833
0.413645 0.705168 0.313139
0.500325 0.709411 0.317969
0.556573 0.712169 0.321342
0.635516 0.716043 0.326353
0.731732 0.720747 0.333052
0.829054 0.725524 0.341655
0.944971 0.729902 0.327115
0.205566 0.802425 0.326101
0.322890 0.811481 0.328727
0.433830 0.817209 0.336143
0.521012 0.821605 0.342483
0.577529 0.824452 0.346702
0.656771 0.828437 0.352727
0.753243 0.833276 0.360175
0.851148 0.838153 0.368031
0.956253 0.843385 0.377940
0.229481 0.923565 0.353511
0.347323 0.932840 0.357641
0.458314 0.938791 0.365897
0.545588 0.943266 0.372787
0.602096 0.946156 0.377225
0.681226 0.950191 0.383376
0.777402 0.955076 0.390694
0.874846 0.960005 0.397858
0.979690 0.965267 0.405458
0.130162 0.106791 0.358353
0.249160 0.110094 0.359280
0.354280 0.112706 0.359510
0.435183 0.115002 0.358755
0.487377 0.116471 0.358404
0.560391 0.118520 0.358094
0.649170 0.121056 0.357999
0.739347 0.123753 0.358275
0.836882 0.126897 0.359102
0.133747 0.230022 0.360087
0.252374 0.232169 0.363222
0.360225 0.233925 0.362559
0.443024 0.236104 0.361503
0.496394 0.237712 0.361390
0.571121 0.240211 0.361874
0.662222 0.243660 0.363403
0.755122 0.247671 0.366013
0.856073 0.252652 0.370098
0.137197 0.340475 0.360380
0.254315 0.344775 0.363371
0.364997 0.347637 0.365349
0.452347 0.350380 0.367061
0.508378 0.352639 0.368927
0.586953 0.356244 0.372333
0.683711 0.360456 0.376541
0.782223 0.364620 0.380721
0.888494 0.369084 0.385200
0.146183 0.435694 0.366744
0.264320 0.442854 0.371288
0.374861 0.448389 0.374861
0.464162 0.451786 0.378431
0.528340 0.453013 0.371600
0.615449 0.454419 0.373280
0.720990 0.456237 0.375340
0.827756 0.458157 0.377440
0.942646 0.460282 0.379712
0.155899 0.498330 0.375738
0.274083 0.506364 0.380367
0.383325 0.512347 0.383325
0.472006 0.515928 0.386905
0.529381 0.518234 0.389424
0.617269 0.520594 0.379347
0.724484 0.522174 0.378834
0.831350 0.524055 0.381034
0.946330 0.526148 0.383406
0.170255 0.584446 0.389545
0.287686 0.592794 0.393280
0.395618 0.599229 0.395618
0.483639 0.602988 0.399377
0.540616 0.605421 0.401810
0.620374 0.608813 0.405458
0.721675 0.612659 0.400659
0.836917 0.613898 0.387223
0.952932 0.615970 0.391479
0.188357 0.692818 0.407153
0.305110 0.701449 0.410084
0.412039 0.708306 0.412207
0.499898 0.712269 0.416963
0.556909 0.714841 0.420285
0.636914 0.718451 0.425214
0.734406 0.722830 0.431830
0.833124 0.727313 0.439603
0.961843 0.729390 0.410439
0.207696 0.804359 0.426822
0.325024 0.813303 0.431275
0.432214 0.820551 0.435175
0.520272 0.824739 0.441304
0.577426 0.827421 0.445450
0.657550 0.831172 0.451356
0.755081 0.835725 0.458633
0.854035 0.840307 0.466340
0.960055 0.845253 0.476295
0.231891 0.925538 0.454697
0.349677 0.934705 0.460299
0.456709 0.942214 0.464866
0.544451 0.946599 0.471248
0.601479 0.949340 0.475562
0.681327 0.953167 0.481519
0.778361 0.957800 0.488570
0.876654 0.962471 0.495428
0.982383 0.967451 0.502712
0.130673 0.107748 0.438675
0.249075 0.111059 0.439508
0.353721 0.113712 0.439718
0.435329 0.115684 0.439686
0.487572 0.117143 0.439198
0.560608 0.119213 0.438714
0.649444 0.121792 0.438507
0.739716 0.124554 0.438756
0.837394 0.127793 0.439637
0.134436 0.230584 0.440525
0.252381 0.232846 0.444957
0.359334 0.234928 0.444670
0.443269 0.236761 0.444811
0.496783 0.238448 0.444400
0.571685 0.241074 0.444601
0.663022 0.244688 0.445973
0.756192 0.248883 0.448574
0.857473 0.254084 0.452776
0.138589 0.341082 0.441483
0.255816 0.345356 0.446840
0.365432 0.348581 0.451075
0.453249 0.351385 0.453309
0.509503 0.353806 0.454701
0.587971 0.357626 0.457596
0.682707 0.362456 0.461630
0.778281 0.367469 0.466049
0.880936 0.372955 0.471051
0.147510 0.436935 0.448881
0.265861 0.444118 0.456173
0.376155 0.449510 0.461886
0.465486 0.452895 0.465486
0.523383 0.455092 0.467545
0.603276 0.458484 0.470793
0.700687 0.462522 0.474800
0.799994 0.466472 0.478761
0.906955 0.470751 0.483043
0.157422 0.499853 0.458120
0.275443 0.507724 0.464833
0.384541 0.513563 0.469642
0.472647 0.517373 0.472647
0.530821 0.519474 0.474840
0.619766 0.520828 0.471620
0.725775 0.522525 0.473503
0.832890 0.524355 0.475472
0.946934 0.526711 0.478220
0.171792 0.585983 0.471740
0.289085 0.594193 0.477246
0.396894 0.600506 0.481157
0.483572 0.604799 0.483572
0.541225 0.607050 0.485823
0.621936 0.610192 0.489167
0.730522 0.612524 0.478503
0.838439 0.614300 0.481864
0.954786 0.616319 0.486157
0.189907 0.694368 0.489179
0.306547 0.702883 0.493607
0.413491 0.709647 0.497286
0.499421 0.714416 0.500216
0.557035 0.716843 0.503476
0.637906 0.720238 0.508337
0.736440 0.724353 0.514839
0.841049 0.728202 0.511810
0.965733 0.729573 0.501713
0.209463 0.805942 0.509150
0.326789 0.814793 0.515085
0.433961 0.821955 0.520272
0.519668 0.827088 0.524191
0.577203 0.829687 0.528140
0.658045 0.833248 0.533944
0.756436 0.837566 0.541075
0.856246 0.841909 0.548612
0.964306 0.846597 0.555014
0.233869 0.927150 0.537373
0.351604 0.936229 0.544167
0.458572 0.943657 0.549757
0.543738 0.949044 0.553747
0.600839 0.951802 0.557618
0.681270 0.955459 0.563409
0.778999 0.959884 0.570231
0.877980 0.964345 0.576825
0.984428 0.969100 0.583804
0.131002 0.108353 0.490567
0.249107 0.111652 0.491330
0.353526 0.114316 0.491515
0.434981 0.116312 0.491491
0.487664 0.117593 0.491452
0.560754 0.119666 0.490898
0.649633 0.122276 0.490626
0.739973 0.125084 0.490867
0.837750 0.128389 0.491792
0.134815 0.230986 0.492420
0.252465 0.233312 0.497466
0.359038 0.235558 0.497373
0.442693 0.237535 0.497695
0.497043 0.238949 0.498142
0.572081 0.241653 0.498184
0.663577 0.245378 0.499462
0.756929 0.249697 0.502065
0.858429 0.255043 0.506351
0.139363 0.341561 0.493772
0.256690 0.345859 0.500249
0.365889 0.349285 0.505558
0.453294 0.352347 0.508135
0.510281 0.354595 0.510281
0.588814 0.358468 0.512754
0.683581 0.363330 0.516385
0.779178 0.368366 0.520505
0.881853 0.373871 0.525263
0.148854 0.437666 0.501818
0.267582 0.444783 0.510504
0.377475 0.450171 0.517432
0.466120 0.453667 0.521958
0.524116 0.455825 0.524116
0.604056 0.459264 0.526765
0.700058 0.463743 0.530551
0.796575 0.468494 0.534786
0.899999 0.473767 0.539637
0.158520 0.500808 0.511412
0.276522 0.508552 0.519444
0.385497 0.514306 0.525453
0.473435 0.518069 0.529416
0.531617 0.520167 0.531617
0.612625 0.523259 0.534558
0.710092 0.527287 0.538496
0.809758 0.531140 0.542361
0.917132 0.535340 0.546745
0.172787 0.586978 0.524945
0.289990 0.595099 0.531598
0.397721 0.601332 0.536527
0.484337 0.605563 0.539739
0.541517 0.608002 0.541517
0.622865 0.610986 0.544667
0.731237 0.612792 0.540225
0.839410 0.614531 0.543535
0.955974 0.616519 0.547801
0.190910 0.695371 0.542275
0.307493 0.703813 0.547702
0.414446 0.710517 0.552392
0.500378 0.715236 0.556099
0.557070 0.718043 0.558491
0.638475 0.721307 0.563282
0.737683 0.725252 0.569685
0.848144 0.728073 0.559767
0.966860 0.729841 0.563433
0.210619 0.806968 0.562468
0.327942 0.815758 0.569360
0.435100 0.822864 0.575375
0.520789 0.827952 0.579928
0.577130 0.831024 0.582775
0.658297 0.834515 0.588376
0.757243 0.838681 0.595408
0.857606 0.842871 0.602812
0.969774 0.847119 0.601401
0.235154 0.928194 0.590903
0.352853 0.937215 0.598463
0.459777 0.944591 0.604710
0.544900 0.949936 0.609198
0.600694 0.953198 0.611884
0.681166 0.956876 0.617244
0.779342 0.961167 0.623912
0.878766 0.965492 0.630329
0.985677 0.970102 0.637087
0.131452 0.109180 0.563141
0.249215 0.112452 0.563800
0.353384 0.115124 0.563950
0.434678 0.117144 0.563934
0.487273 0.118451 0.563918
0.560944 0.120316 0.563951
0.649917 0.122966 0.563625
0.740359 0.125844 0.563864
0.838285 0.129247 0.564862
0.135296 0.231584 0.564958
0.252653 0.233991 0.570688
0.358856 0.236431 0.570837
0.442250 0.238582 0.571385
0.496443 0.240118 0.571997
0.572671 0.242497 0.573259
0.664407 0.246379 0.574425
0.758021 0.250875 0.577042
0.859780 0.256394 0.581392
0.140363 0.342311 0.566850
0.257858 0.346677 0.574582
0.366688 0.350360 0.581102
0.453725 0.353732 0.584110
0.510458 0.356173 0.586519
0.589994 0.359649 0.589994
0.684805 0.364554 0.593063
0.780435 0.369623 0.596764
0.883136 0.375155 0.601179
0.150631 0.438802 0.575800
0.269754 0.445850 0.585944
0.379228 0.451235 0.594144
0.467155 0.454846 0.599638
0.524643 0.457141 0.601933
0.605147 0.460355 0.605147
0.701207 0.464892 0.608197
0.797766 0.469686 0.611883
0.901226 0.474993 0.616287
0.160562 0.502030 0.585700
0.278938 0.509522 0.595129
0.387629 0.515219 0.602545
0.474943 0.519045 0.607717
0.532545 0.521246 0.610611
0.613660 0.524294 0.613660
0.710667 0.528535 0.616856
0.807931 0.533108 0.620652
0.912145 0.538249 0.625498
0.174283 0.588343 0.599421
0.291458 0.596314 0.607648
0.399081 0.602435 0.613997
0.485560 0.606594 0.618334
0.542627 0.608992 0.620847
0.624040 0.611974 0.624114
0.722939 0.615758 0.628500
0.822269 0.619956 0.633945
0.929775 0.624454 0.640425
0.192315 0.696776 0.616629
0.308840 0.705118 0.623502
0.415804 0.711736 0.629602
0.501736 0.716386 0.634395
0.558423 0.719147 0.637483
0.639198 0.722679 0.641752
0.739328 0.726399 0.647960
0.850658 0.728311 0.644694
0.968410 0.730182 0.650312
0.212254 0.808406 0.637170
0.329568 0.817111 0.645394
0.436704 0.824138 0.652564
0.522365 0.829162 0.658001
0.578683 0.832193 0.661409
0.658681 0.836140 0.666000
0.758279 0.840141 0.672773
0.859415 0.844119 0.679954
0.979370 0.846991 0.669113
0.236959 0.929655 0.665881
0.354603 0.938595 0.674508
0.461463 0.945897 0.681668
0.546524 0.951184 0.686848
0.602272 0.954407 0.689971
0.681225 0.958656 0.693999
0.779728 0.962875 0.700168
0.879769 0.967011 0.706329
0.987326 0.971419 0.712746
0.131974 0.110158 0.651270
0.249407 0.113389 0.651806
0.353344 0.116063 0.651915
0.434500 0.118109 0.651913
0.487026 0.119444 0.651926
0.560627 0.121363 0.652028
0.650278 0.123831 0.652389
0.740872 0.126796 0.652659
0.838994 0.130328 0.653765
0.135836 0.232348 0.653026
0.252966 0.234851 0.659419
0.358888 0.237495 0.659835
0.442099 0.239831 0.660639
0.496192 0.241500 0.661439
0.572301 0.244079 0.662992
0.665499 0.247652 0.665664
0.759448 0.252371 0.668317
0.861423 0.258037 0.672632
0.141516 0.343316 0.655587
0.259252 0.347803 0.664537
0.367855 0.351778 0.672244
0.454656 0.355482 0.675733
0.511111 0.358056 0.678307
0.590169 0.361660 0.681911
0.686294 0.366042 0.686294
0.781963 0.371151 0.689485
0.884696 0.376715 0.693485
0.152723 0.440322 0.665650
0.272157 0.447283 0.677031
0.381262 0.452665 0.686348
0.468560 0.456377 0.692693
0.525601 0.458793 0.695108
0.605480 0.462175 0.698491
0.702604 0.466288 0.702604
0.799215 0.471134 0.705623
0.902717 0.476484 0.709483
0.162852 0.503599 0.675774
0.281556 0.510869 0.686430
0.389997 0.516515 0.695083
0.476762 0.520398 0.701316
0.533855 0.522688 0.704820
0.614252 0.525931 0.708063
0.712006 0.529874 0.712006
0.809341 0.534507 0.715058
0.913731 0.539708 0.719525
0.176683 0.589868 0.689605
0.294368 0.597545 0.699242
0.401905 0.603551 0.706990
0.487962 0.607715 0.712516
0.544595 0.610162 0.715853
0.625284 0.613287 0.720349
0.724403 0.617035 0.725058
0.823654 0.621377 0.729831
0.929783 0.626358 0.736054
0.194093 0.698466 0.707015
0.310660 0.706667 0.715693
0.417675 0.713170 0.723485
0.503611 0.717734 0.729587
0.560276 0.720443 0.733515
0.640975 0.723911 0.738954
0.741146 0.727627 0.745395
0.842664 0.731494 0.751873
0.950629 0.736092 0.759456
0.214265 0.810157 0.728054
0.331563 0.818757 0.737889
0.438667 0.825687 0.746454
0.524290 0.830634 0.752957
0.580579 0.833613 0.757043
0.660525 0.837488 0.762567
0.759462 0.841730 0.768907
0.861463 0.845482 0.775698
0.981662 0.847358 0.773807
0.239159 0.931432 0.757069
0.356732 0.940273 0.766980
0.463507 0.947485 0.775241
0.548489 0.952700 0.781253
0.604178 0.955876 0.784901
0.683041 0.960059 0.789647
0.780268 0.964729 0.794777
0.880834 0.968719 0.800418
0.989173 0.972886 0.806370
0.132524 0.111219 0.749868
0.249664 0.114405 0.750280
0.353411 0.117080 0.750354
0.434465 0.119155 0.750375
0.486947 0.120521 0.750427
0.560515 0.122501 0.750615
0.650173 0.125069 0.751130
0.741449 0.127929 0.752110
0.839870 0.131591 0.753426
0.136413 0.233243 0.751573
0.253404 0.235855 0.758580
0.359157 0.238706 0.759285
0.442278 0.241233 0.760368
0.496333 0.243038 0.761373
0.572416 0.245825 0.763244
0.665626 0.249679 0.766354
0.761056 0.254183 0.770580
0.863264 0.259878 0.774828
0.142792 0.344541 0.754925
0.260834 0.349200 0.765004
0.369369 0.353489 0.773816
0.456013 0.357485 0.777737
0.512191 0.360134 0.780386
0.590862 0.363843 0.784095
0.686516 0.368353 0.788604
0.783517 0.372926 0.793178
0.886444 0.378463 0.796875
0.155049 0.442160 0.766251
0.274657 0.448997 0.778541
0.383464 0.454376 0.788763
0.470250 0.458171 0.795799
0.526930 0.460684 0.798312
0.606302 0.464203 0.801832
0.702809 0.468483 0.806111
0.800675 0.472822 0.810450
0.904387 0.478154 0.813870
0.165261 0.505422 0.776463
0.284230 0.512514 0.788114
0.392470 0.518118 0.797770
0.478789 0.522046 0.804864
0.535469 0.524409 0.808862
0.615284 0.527809 0.812262
0.712329 0.531943 0.816396
0.810812 0.536142 0.820729
0.915549 0.541344 0.824924
0.179180 0.591657 0.790382
0.297280 0.599094 0.801164
0.404746 0.605007 0.810046
0.490461 0.609175 0.816536
0.546788 0.611665 0.820630
0.626922 0.614910 0.826177
0.725320 0.618893 0.831318
0.825361 0.622958 0.837069
0.931793 0.627948 0.842797
0.196702 0.700210 0.807905
0.314020 0.708111 0.818207
0.421259 0.714466 0.827551
0.507065 0.718991 0.834905
0.563504 0.721711 0.839660
0.643699 0.725244 0.846278
0.742983 0.729124 0.854010
0.844511 0.732987 0.860718
0.952703 0.737608 0.867521
0.216675 0.812086 0.829879
0.334135 0.820517 0.841444
0.441318 0.827307 0.851512
0.526939 0.832156 0.859170
0.583187 0.835080 0.863997
0.663014 0.838892 0.870548
0.761692 0.843082 0.878126
0.863485 0.846852 0.885232
0.972972 0.851007 0.892053
0.241629 0.933423 0.859232
0.359115 0.942152 0.870569
0.465790 0.949262 0.880048
0.550677 0.954396 0.886982
0.606297 0.957519 0.891210
0.685052 0.961628 0.896748
0.782133 0.966208 0.902807
0.882011 0.970385 0.908104
0.991033 0.974355 0.913354
0.133080 0.112335 0.856628
0.249970 0.115476 0.856923
0.353572 0.118157 0.856980
0.434561 0.120268 0.857041
0.487025 0.121670 0.857145
0.560599 0.123720 0.857440
0.650314 0.126401 0.858138
0.741702 0.129409 0.859364
0.840821 0.133069 0.861442
0.137034 0.234253 0.858328
0.253970 0.236991 0.865912
0.359657 0.240056 0.866935
0.442774 0.242780 0.868322
0.496849 0.244728 0.869549
0.572990 0.247733 0.871768
0.666315 0.251882 0.875355
0.761840 0.256669 0.880038
0.865019 0.261969 0.885338
0.144205 0.345973 0.862604
0.262617 0.350852 0.873738
0.371228 0.355477 0.883592
0.457666 0.359656 0.887767
0.513623 0.362364 0.890475
0.591984 0.366156 0.894267
0.687261 0.370768 0.898879
0.783880 0.375444 0.903555
0.888022 0.380484 0.908595
0.157491 0.444207 0.875176
0.277225 0.450935 0.888175
0.385792 0.456312 0.899122
0.472170 0.460173 0.906709
0.528560 0.462764 0.909300
0.607527 0.466393 0.912929
0.703541 0.470805 0.917342
0.800907 0.475280 0.921816
0.905856 0.480103 0.926644
0.167755 0.507449 0.885440
0.286937 0.514397 0.897888
0.395015 0.519968 0.908345
0.480978 0.523933 0.916128
0.537328 0.526354 0.920521
0.616677 0.529880 0.924047
0.713156 0.534167 0.928334
0.811186 0.538530 0.933055
0.917214 0.543267 0.938864
0.181745 0.593655 0.899430
0.300176 0.600902 0.911127
0.407586 0.606739 0.920916
0.493053 0.610913 0.928226
0.549181 0.613440 0.933014
0.628895 0.616784 0.939443
0.726742 0.620958 0.944975
0.826208 0.625214 0.951081
0.933628 0.629827 0.958120
0.199392 0.702176 0.917114
0.317366 0.709842 0.928827
0.424814 0.716080 0.939467
0.510534 0.720576 0.947859
0.566802 0.723306 0.953295
0.646604 0.726890 0.960878
0.745187 0.730904 0.969650
0.845957 0.734988 0.976597
0.954591 0.739405 0.984205
0.219857 0.814053 0.939986
0.338039 0.822183 0.952946
0.445479 0.828801 0.964283
0.531052 0.833578 0.972949
0.587152 0.836485 0.978435
0.666624 0.840309 0.985918
0.764637 0.844575 0.994640
0.865517 0.848498 1.000000
0.974770 0.852672 1.000000
0.244543 0.935519 0.969910
0.362232 0.944046 0.982662
0.468983 0.950995 0.993361
0.553842 0.956023 1.000000
0.609397 0.959087 1.000000
0.687990 0.963130 1.000000
0.784755 0.967655 1.000000
0.884173 0.971810 1.000000
0.992704 0.975814 1.000000
