ai-pipeline/luts/dreamy.cube
TITLE "ClipVibe Dreamy"
LUT_3D_SIZE 33
DOMAIN_MIN 0.0 0.0 0.0
DOMAIN_MAX 1.0 1.0 1.0
0.129333 0.104169 0.146975
0.161086 0.104994 0.147039
0.191516 0.105928 0.147028
0.220958 0.106848 0.147128
0.249463 0.107739 0.147272
0.277034 0.108593 0.147427
0.303640 0.109407 0.147578
0.329227 0.110178 0.147717
0.353712 0.110906 0.147842
0.376077 0.111563 0.147947
0.397178 0.112176 0.148038
0.416809 0.112740 0.148116
0.434633 0.113248 0.148181
0.450017 0.113683 0.148234
0.460755 0.113986 0.148269
0.471489 0.114287 0.148303
0.486853 0.114716 0.148349
0.503077 0.115168 0.148395
0.520825 0.115659 0.148444
0.539831 0.116179 0.148491
0.559905 0.116725 0.148540
0.580908 0.117298 0.148593
0.602739 0.117899 0.148654
0.625321 0.118527 0.148724
0.648599 0.119180 0.148806
0.670328 0.119796 0.148893
0.692571 0.120432 0.148992
0.715309 0.121087 0.149106
0.738526 0.121761 0.149235
0.762195 0.122456 0.149385
0.786298 0.123175 0.149560
0.810819 0.123921 0.149763
0.835747 0.124694 0.149999
0.130287 0.136976 0.147661
0.162482 0.137483 0.147514
0.193301 0.138124 0.147400
0.222966 0.138820 0.147390
0.251735 0.139496 0.147401
0.280167 0.139989 0.147290
0.307941 0.140376 0.147088
0.334825 0.140703 0.146833
0.360654 0.140989 0.146548
0.384308 0.141234 0.146260
0.406610 0.141472 0.145986
0.427101 0.141763 0.145790
0.445479 0.142091 0.145670
0.461178 0.142419 0.145608
0.472057 0.142670 0.145588
0.482871 0.142939 0.145584
0.498254 0.143350 0.145606
0.514394 0.143815 0.145661
0.531942 0.144354 0.145756
0.550622 0.144961 0.145890
0.570262 0.145630 0.146065
0.590729 0.146360 0.146286
0.611830 0.147177 0.146580
0.633651 0.148039 0.146910
0.656161 0.148937 0.147270
0.677207 0.149780 0.147620
0.698796 0.150643 0.147989
0.720920 0.151524 0.148377
0.743574 0.152419 0.148781
0.766751 0.153327 0.149201
0.790446 0.154247 0.149639
0.814655 0.155178 0.150096
0.839373 0.156120 0.150575
0.130697 0.168783 0.147189
0.162485 0.169285 0.146780
0.195996 0.169295 0.143667
0.228876 0.169014 0.142724
0.260760 0.168761 0.141791
0.291639 0.168525 0.140873
0.321474 0.168303 0.139973
0.350198 0.168092 0.139097
0.377711 0.167893 0.138254
0.402673 0.167763 0.137561
0.425886 0.167735 0.137048
0.446345 0.168009 0.137020
0.464057 0.168489 0.137321
0.478854 0.169037 0.137754
0.488981 0.169477 0.138125
0.498974 0.169953 0.138539
0.513106 0.170685 0.139184
0.527879 0.171505 0.139911
0.543931 0.172440 0.140733
0.561057 0.173464 0.141622
0.579151 0.174557 0.142553
0.598153 0.175699 0.143503
0.618032 0.176874 0.144455
0.638768 0.178068 0.145396
0.660345 0.179271 0.146316
0.680682 0.180364 0.147130
0.701694 0.181454 0.147921
0.723373 0.182537 0.148689
0.745706 0.183613 0.149436
0.768681 0.184683 0.150166
0.792285 0.185746 0.150885
0.816502 0.186806 0.151599
0.841319 0.187867 0.152314
0.131290 0.199403 0.146849
0.162493 0.199995 0.146281
0.193395 0.200412 0.146004
0.223647 0.200811 0.145409
0.257994 0.200408 0.138212
0.288880 0.200132 0.137307
0.318726 0.199882 0.136425
0.347464 0.199654 0.135572
0.375000 0.199446 0.134756
0.400180 0.199266 0.134015
0.423427 0.199230 0.133643
0.444010 0.199463 0.133885
0.462006 0.199858 0.134446
0.477119 0.200316 0.135113
0.487483 0.200689 0.135650
0.497718 0.201099 0.136233
0.512192 0.201742 0.137122
0.527307 0.202478 0.138109
0.543702 0.203334 0.139217
0.561150 0.204295 0.140410
0.579535 0.205342 0.141658
0.598792 0.206459 0.142934
0.618890 0.207631 0.144216
0.639813 0.208844 0.145486
0.661551 0.210085 0.146733
0.682007 0.211234 0.147844
0.703130 0.212393 0.148927
0.724928 0.213556 0.149977
0.747400 0.214720 0.150994
0.770543 0.215881 0.151982
0.794347 0.217042 0.152947
0.818799 0.218204 0.153898
0.843884 0.219369 0.154844
0.131941 0.229008 0.146619
0.162765 0.229670 0.145980
0.193385 0.230131 0.145752
0.223255 0.230586 0.145537
0.252209 0.231029 0.145777
0.283494 0.231212 0.139238
0.316074 0.230709 0.132998
0.344865 0.230488 0.132211
0.372457 0.230295 0.131466
0.397623 0.230148 0.130861
0.420496 0.230216 0.131054
0.440922 0.230493 0.131837
0.458902 0.230899 0.132872
0.474074 0.231351 0.133924
0.484513 0.231714 0.134716
0.494845 0.232110 0.135540
0.509492 0.232729 0.136752
0.524824 0.233437 0.138051
0.541488 0.234261 0.139469
0.559253 0.235188 0.140960
0.577995 0.236204 0.142490
0.597643 0.237293 0.144029
0.618159 0.238443 0.145556
0.639520 0.239642 0.147056
0.661713 0.240881 0.148518
0.682602 0.242034 0.149813
0.704165 0.243208 0.151073
0.726396 0.244401 0.152303
0.749287 0.245609 0.153506
0.772831 0.246833 0.154690
0.797017 0.248074 0.155864
0.821834 0.249333 0.157037
0.847269 0.250614 0.158220
0.132669 0.257697 0.146515
0.163255 0.258426 0.145874
0.193700 0.258941 0.145723
0.223413 0.259458 0.145596
0.252350 0.259977 0.145496
0.280369 0.260483 0.145844
0.307866 0.261014 0.144898
0.339812 0.260912 0.134293
0.370198 0.260467 0.128555
0.395247 0.260391 0.128346
0.417970 0.260516 0.129196
0.438411 0.260811 0.130556
0.456497 0.261215 0.132073
0.471816 0.261657 0.133507
0.482381 0.262010 0.134547
0.492856 0.262395 0.135602
0.507730 0.262997 0.137122
0.523326 0.263686 0.138715
0.540300 0.264493 0.140423
0.558414 0.265405 0.142193
0.577536 0.266410 0.143987
0.597591 0.267497 0.145777
0.618532 0.268653 0.147541
0.640330 0.269869 0.149269
0.662967 0.271138 0.150954
0.684262 0.272331 0.152449
0.706227 0.273557 0.153912
0.728856 0.274816 0.155350
0.752136 0.276105 0.156769
0.776059 0.277425 0.158181
0.800611 0.278778 0.159596
0.825780 0.280165 0.161027
0.851553 0.281591 0.162487
0.133523 0.285527 0.146595
0.163975 0.286328 0.146008
0.194326 0.286912 0.145963
0.223961 0.287504 0.145952
0.252836 0.288103 0.145978
0.280899 0.288708 0.146041
0.308015 0.289302 0.146522
0.334047 0.289927 0.147125
0.361644 0.290404 0.141509
0.390186 0.290293 0.132403
0.415700 0.290153 0.128715
0.436651 0.290403 0.130070
0.454938 0.290802 0.132052
0.470468 0.291235 0.133848
0.481198 0.291582 0.135120
0.491848 0.291961 0.136393
0.506987 0.292556 0.138197
0.522878 0.293241 0.140064
0.540185 0.294047 0.142042
0.558665 0.294964 0.144075
0.578179 0.295981 0.146122
0.598643 0.297090 0.148155
0.620005 0.298280 0.150157
0.642231 0.299542 0.152120
0.665297 0.300871 0.154042
0.686980 0.302132 0.155757
0.709329 0.303441 0.157447
0.732333 0.304795 0.159122
0.755980 0.306195 0.160792
0.780258 0.307640 0.162470
0.805136 0.309125 0.164152
0.830537 0.310613 0.165789
0.856444 0.312101 0.167378
0.134559 0.312516 0.146924
0.164957 0.313400 0.146438
0.195277 0.314068 0.146526
0.224897 0.314749 0.146657
0.253770 0.315443 0.146834
0.281845 0.316147 0.147054
0.309055 0.316859 0.147317
0.335264 0.317558 0.147963
0.360328 0.318277 0.148729
0.383568 0.318977 0.148507
0.408455 0.319425 0.142137
0.432424 0.319597 0.136634
0.453255 0.319776 0.134515
0.469998 0.320088 0.135018
0.481003 0.320423 0.136371
0.491849 0.320804 0.137843
0.507278 0.321404 0.139911
0.523481 0.322098 0.142032
0.541136 0.322921 0.144266
0.559989 0.323862 0.146551
0.579894 0.324914 0.148846
0.600763 0.326068 0.151125
0.622537 0.327316 0.153375
0.645179 0.328651 0.155588
0.668659 0.330067 0.157769
0.690713 0.331420 0.159728
0.713427 0.332834 0.161674
0.736728 0.334279 0.163571
0.760578 0.335739 0.165404
0.784963 0.337209 0.167176
0.809872 0.338687 0.168888
0.835291 0.340168 0.170543
0.861210 0.341650 0.172144
0.135825 0.338650 0.147558
0.166229 0.339629 0.147211
0.196572 0.340396 0.147457
0.226226 0.341181 0.147756
0.255147 0.341982 0.148106
0.283279 0.342797 0.148506
0.310558 0.343623 0.148953
0.336900 0.344455 0.149443
0.362158 0.345270 0.150277
0.385230 0.346059 0.151182
0.407017 0.346850 0.152052
0.428132 0.347593 0.150764
0.448867 0.348129 0.146754
0.466973 0.348505 0.143842
0.479401 0.348766 0.142621
0.491521 0.349054 0.142150
0.508241 0.349556 0.142693
0.525090 0.350231 0.144534
0.543097 0.351085 0.147014
0.562324 0.352068 0.149548
0.582619 0.353173 0.152094
0.603886 0.354393 0.154629
0.626063 0.355720 0.157141
0.649080 0.357135 0.159609
0.672841 0.358603 0.161993
0.695062 0.359977 0.164084
0.717854 0.361380 0.166101
0.741200 0.362807 0.168044
0.765088 0.364252 0.169915
0.789504 0.365710 0.171716
0.814436 0.367179 0.173452
0.839873 0.368653 0.175124
0.865804 0.370130 0.176738
0.137351 0.363874 0.148537
0.167811 0.364959 0.148359
0.198218 0.365839 0.148787
0.227948 0.366740 0.149273
0.256956 0.367661 0.149818
0.285185 0.368599 0.150416
0.312568 0.369549 0.151065
0.339022 0.370507 0.151758
0.364442 0.371464 0.152487
0.387710 0.372359 0.153477
0.409680 0.373244 0.154551
0.430144 0.374110 0.155575
0.448755 0.374932 0.156519
0.465534 0.375640 0.155565
0.477731 0.376097 0.154042
0.490080 0.376523 0.152517
0.507723 0.377109 0.150932
0.526025 0.377751 0.150364
0.545461 0.378537 0.151051
0.565545 0.379509 0.153008
0.586179 0.380647 0.155740
0.607690 0.381879 0.158459
0.630026 0.383190 0.161104
0.653132 0.384570 0.163662
0.676971 0.386008 0.166124
0.699253 0.387358 0.168275
0.722097 0.388740 0.170344
0.745487 0.390149 0.172330
0.769411 0.391580 0.174237
0.793856 0.393027 0.176068
0.818810 0.394486 0.177826
0.844264 0.395954 0.179516
0.870207 0.397427 0.181140
0.139149 0.388082 0.149878
0.169702 0.389284 0.149893
0.200208 0.390286 0.150519
0.230047 0.391315 0.151210
0.259172 0.392366 0.151964
0.287527 0.393435 0.152777
0.315042 0.394518 0.153641
0.341635 0.395609 0.154550
0.367197 0.396699 0.155494
0.390640 0.397735 0.156423
0.412810 0.398734 0.157590
0.433457 0.399701 0.158816
0.452235 0.400617 0.159957
0.468466 0.401436 0.160966
0.479809 0.402022 0.161682
0.491299 0.402610 0.161980
0.508358 0.403414 0.160982
0.526717 0.404201 0.159570
0.546740 0.405020 0.158620
0.567770 0.405907 0.158688
0.589378 0.406907 0.159919
0.611353 0.408050 0.162149
0.633796 0.409322 0.164874
0.656988 0.410668 0.167517
0.680900 0.412077 0.170052
0.703240 0.413403 0.172262
0.726133 0.414766 0.174380
0.749565 0.416158 0.176408
0.773523 0.417575 0.178349
0.797995 0.419012 0.180208
0.822971 0.420462 0.181988
0.848441 0.421924 0.183693
0.874395 0.423392 0.185328
0.141203 0.411094 0.151568
0.171877 0.412422 0.151789
0.202506 0.413556 0.152627
0.232478 0.414718 0.153535
0.261744 0.415905 0.154509
0.290247 0.417113 0.155545
0.317916 0.418335 0.156634
0.344667 0.419564 0.157768
0.370389 0.420791 0.158935
0.393985 0.421956 0.160073
0.416330 0.423091 0.161205
0.437123 0.424139 0.162472
0.455985 0.425094 0.163704
0.472256 0.425926 0.164756
0.483610 0.426511 0.165483
0.494956 0.427098 0.166206
0.511191 0.427943 0.167233
0.528569 0.428835 0.167664
0.548162 0.429767 0.166858
0.569301 0.430713 0.166026
0.591414 0.431696 0.165932
0.614113 0.432758 0.166839
0.637193 0.433931 0.168665
0.660615 0.435225 0.171144
0.684597 0.436606 0.173749
0.706991 0.437911 0.176013
0.729930 0.439255 0.178177
0.753401 0.440632 0.180245
0.777392 0.442036 0.182219
0.801890 0.443462 0.184103
0.826887 0.444905 0.185903
0.852372 0.446360 0.187623
0.878335 0.447825 0.189269
0.143461 0.432624 0.153552
0.174271 0.434082 0.153986
0.205042 0.435350 0.155040
0.235163 0.436649 0.156170
0.264585 0.437975 0.157369
0.293249 0.439323 0.158631
0.321084 0.440685 0.159947
0.348000 0.442051 0.161304
0.373834 0.443376 0.162629
0.397470 0.444588 0.163841
0.419802 0.445734 0.164986
0.440600 0.446800 0.166053
0.459483 0.447758 0.167202
0.475765 0.448585 0.168264
0.487126 0.449167 0.168999
0.498480 0.449751 0.169729
0.514724 0.450592 0.170766
0.531874 0.451486 0.171851
0.550653 0.452469 0.172939
0.571237 0.453504 0.172857
0.593266 0.454551 0.172384
0.616225 0.455623 0.172416
0.639765 0.456757 0.173284
0.663703 0.457980 0.174952
0.687998 0.459304 0.177201
0.710462 0.460585 0.179484
0.733444 0.461912 0.181691
0.756951 0.463275 0.183795
0.780972 0.464667 0.185798
0.805494 0.466084 0.187707
0.830509 0.467519 0.189526
0.856008 0.468969 0.191260
0.881981 0.470429 0.192915
0.145813 0.452173 0.155717
0.176766 0.453758 0.156359
0.207686 0.455158 0.157626
0.237961 0.456591 0.158971
0.267543 0.458052 0.160389
0.296362 0.459528 0.161859
0.324278 0.460967 0.163297
0.351196 0.462353 0.164684
0.377011 0.463683 0.166014
0.400629 0.464900 0.167231
0.422945 0.466050 0.168381
0.443728 0.467121 0.169452
0.462617 0.468094 0.170425
0.478914 0.468924 0.171414
0.490282 0.469503 0.172156
0.501642 0.470085 0.172892
0.517896 0.470923 0.173937
0.535053 0.471814 0.175031
0.553810 0.472794 0.176216
0.573873 0.473848 0.177470
0.595400 0.474956 0.177874
0.618233 0.476079 0.177775
0.641919 0.477227 0.178068
0.666155 0.478429 0.179067
0.690796 0.479708 0.180741
0.713522 0.480946 0.182686
0.736598 0.482250 0.184845
0.760138 0.483600 0.186981
0.784185 0.484981 0.189012
0.808729 0.486389 0.190942
0.833761 0.487817 0.192777
0.859272 0.489262 0.194524
0.885254 0.490719 0.196188
0.148037 0.468691 0.157832
0.179125 0.470393 0.158660
0.210183 0.471911 0.160117
0.240600 0.473462 0.161653
0.270262 0.474995 0.163187
0.299078 0.476485 0.164677
0.326979 0.477928 0.166120
0.353881 0.479319 0.167511
0.379681 0.480653 0.168845
0.403286 0.481874 0.170065
0.425589 0.483027 0.171219
0.446361 0.484101 0.172293
0.465239 0.485077 0.173269
0.481543 0.485920 0.174112
0.492921 0.486502 0.174794
0.504286 0.487082 0.175535
0.520546 0.487917 0.176588
0.537711 0.488804 0.177688
0.556475 0.489782 0.178881
0.576543 0.490834 0.180146
0.597728 0.491951 0.181458
0.620211 0.493114 0.181997
0.643813 0.494295 0.182203
0.668153 0.495506 0.182814
0.692993 0.496770 0.184046
0.715923 0.497982 0.185650
0.739179 0.499257 0.187570
0.762801 0.500588 0.189645
0.786871 0.501961 0.191698
0.811433 0.503361 0.193646
0.836479 0.504784 0.195495
0.862001 0.506225 0.197252
0.887989 0.507679 0.198923
0.149570 0.479201 0.159318
0.180748 0.480980 0.160269
0.211898 0.482574 0.161849
0.242338 0.484151 0.163427
0.271990 0.485688 0.164963
0.300796 0.487180 0.166456
0.328687 0.488625 0.167901
0.355581 0.490019 0.169294
0.381372 0.491355 0.170631
0.404969 0.492578 0.171853
0.427265 0.493733 0.173009
0.448029 0.494809 0.174084
0.466900 0.495787 0.175062
0.483199 0.496631 0.175907
0.494582 0.497221 0.176497
0.505954 0.497803 0.177203
0.522218 0.498636 0.178260
0.539387 0.499522 0.179365
0.558156 0.500497 0.180562
0.578228 0.501548 0.181831
0.599413 0.502663 0.183160
0.621654 0.503836 0.184320
0.645112 0.505039 0.184736
0.669442 0.506263 0.185233
0.694358 0.507528 0.186239
0.717390 0.508730 0.187636
0.740751 0.509991 0.189391
0.764460 0.511307 0.191358
0.788565 0.512671 0.193392
0.813138 0.514067 0.195351
0.838193 0.515487 0.197210
0.863722 0.516925 0.198973
0.889715 0.518377 0.200649
0.151949 0.494379 0.161663
0.183238 0.496255 0.162766
0.214404 0.497874 0.164386
0.244830 0.499455 0.165967
0.274468 0.500996 0.167507
0.303261 0.502492 0.169003
0.331140 0.503940 0.170452
0.358021 0.505337 0.171849
0.383800 0.506677 0.173188
0.407387 0.507902 0.174414
0.429672 0.509060 0.175572
0.450427 0.510139 0.176650
0.469290 0.511119 0.177630
0.485581 0.511965 0.178477
0.496959 0.512557 0.179068
0.508337 0.513148 0.179659
0.524612 0.513984 0.180654
0.541788 0.514867 0.181765
0.560563 0.515840 0.182969
0.580642 0.516888 0.184245
0.601833 0.518001 0.185579
0.624000 0.519173 0.186964
0.647162 0.520394 0.188069
0.671382 0.521643 0.188655
0.696333 0.522918 0.189453
0.719469 0.524116 0.190591
0.742956 0.525362 0.192112
0.766783 0.526661 0.193906
0.790976 0.528009 0.195840
0.815580 0.529396 0.197793
0.840648 0.530811 0.199664
0.866186 0.532245 0.201437
0.892186 0.533695 0.203119
0.155009 0.512822 0.164716
0.186282 0.514708 0.165825
0.217431 0.516332 0.167448
0.247842 0.517917 0.169034
0.277465 0.519461 0.170578
0.306243 0.520961 0.172078
0.334108 0.522414 0.173530
0.360975 0.523814 0.174931
0.386741 0.525157 0.176274
0.410315 0.526386 0.177503
0.432589 0.527547 0.178664
0.453333 0.528629 0.179745
0.472187 0.529611 0.180728
0.488469 0.530460 0.181577
0.499841 0.531053 0.182170
0.511213 0.531646 0.182763
0.527496 0.532495 0.183611
0.544684 0.533381 0.184661
0.563466 0.534350 0.185872
0.583553 0.535395 0.187156
0.604751 0.536505 0.188498
0.626926 0.537674 0.189890
0.649975 0.538896 0.191326
0.673930 0.540163 0.192500
0.698808 0.541459 0.193315
0.721993 0.542662 0.194250
0.745586 0.543902 0.195522
0.769534 0.545187 0.197101
0.793834 0.546518 0.198886
0.818513 0.547891 0.200761
0.843610 0.549298 0.202626
0.869159 0.550727 0.204410
0.895166 0.552174 0.206100
0.158470 0.533642 0.168172
0.189722 0.535535 0.169279
0.220855 0.537163 0.170908
0.251249 0.538753 0.172497
0.280856 0.540301 0.174046
0.309619 0.541805 0.175550
0.337468 0.543262 0.177007
0.364321 0.544666 0.178411
0.390073 0.546013 0.179758
0.413635 0.547245 0.180990
0.435897 0.548410 0.182155
0.456630 0.549494 0.183239
0.475473 0.550480 0.184225
0.491747 0.551331 0.185076
0.503113 0.551925 0.185670
0.514479 0.552520 0.186265
0.530753 0.553371 0.187116
0.547947 0.554270 0.188015
0.566744 0.555243 0.189150
0.586839 0.556285 0.190442
0.608046 0.557392 0.191792
0.630229 0.558557 0.193193
0.653285 0.559776 0.194636
0.677136 0.561043 0.196118
0.701797 0.562354 0.197416
0.724933 0.563572 0.198355
0.748574 0.564816 0.199449
0.772617 0.566094 0.200815
0.797020 0.567412 0.202422
0.821786 0.568771 0.204180
0.846943 0.570166 0.205992
0.872545 0.571591 0.207813
0.898620 0.573038 0.209606
0.162239 0.556291 0.171934
0.193469 0.558190 0.173041
0.224585 0.559823 0.174674
0.254963 0.561417 0.176268
0.284554 0.562970 0.177821
0.313301 0.564478 0.179329
0.341135 0.565939 0.180790
0.367974 0.567347 0.182198
0.393712 0.568698 0.183549
0.417261 0.569934 0.184785
0.439511 0.571101 0.185952
0.460233 0.572188 0.187040
0.479066 0.573177 0.188028
0.495331 0.574030 0.188881
0.506691 0.574626 0.189478
0.518050 0.575222 0.190074
0.534316 0.576076 0.190927
0.551501 0.576978 0.191829
0.570303 0.577964 0.192816
0.590414 0.579010 0.194017
0.611630 0.580113 0.195376
0.633821 0.581275 0.196786
0.656886 0.582491 0.198237
0.680745 0.583755 0.199727
0.705333 0.585065 0.201252
0.728312 0.586292 0.202561
0.751911 0.587546 0.203678
0.775994 0.588826 0.204906
0.800494 0.590140 0.206369
0.825390 0.591491 0.208056
0.850688 0.592880 0.209891
0.876405 0.594301 0.211797
0.902564 0.595749 0.213716
0.166262 0.580453 0.175951
0.197471 0.582358 0.177058
0.228571 0.583996 0.178695
0.258933 0.585594 0.180293
0.288508 0.587151 0.181850
0.317240 0.588664 0.183363
0.345059 0.590128 0.184828
0.371884 0.591541 0.186240
0.397609 0.592895 0.187594
0.421145 0.594134 0.188833
0.443383 0.595305 0.190004
0.464094 0.596395 0.191094
0.482917 0.597386 0.192085
0.499174 0.598242 0.192941
0.510527 0.598839 0.193539
0.521881 0.599437 0.194137
0.538138 0.600293 0.194992
0.555313 0.601197 0.195897
0.574106 0.602187 0.196886
0.594221 0.603246 0.197945
0.615453 0.604354 0.199200
0.637654 0.605513 0.200618
0.660728 0.606724 0.202079
0.684596 0.607985 0.203578
0.709193 0.609292 0.205111
0.732157 0.610518 0.206560
0.755683 0.611780 0.208040
0.779798 0.613071 0.209414
0.804409 0.614391 0.210889
0.829446 0.615742 0.212560
0.854881 0.617127 0.214409
0.880716 0.618545 0.216380
0.906964 0.619992 0.218409
0.170505 0.605918 0.180188
0.201694 0.607830 0.181294
0.232777 0.609471 0.182936
0.263124 0.611074 0.184539
0.292684 0.612635 0.186100
0.321401 0.614152 0.187616
0.349207 0.615620 0.189085
0.376017 0.617036 0.190501
0.401729 0.618394 0.191858
0.425253 0.619636 0.193101
0.447480 0.620810 0.194275
0.468180 0.621903 0.195368
0.486994 0.622897 0.196361
0.503242 0.623755 0.197219
0.514590 0.624354 0.197819
0.525938 0.624953 0.198418
0.542186 0.625811 0.199276
0.559353 0.626718 0.200183
0.578136 0.627710 0.201175
0.598241 0.628772 0.202236
0.619476 0.629893 0.203358
0.641696 0.631058 0.204662
0.664801 0.632268 0.206169
0.688722 0.633530 0.207756
0.713398 0.634839 0.209420
0.736441 0.636069 0.211000
0.760032 0.637333 0.212643
0.784145 0.638631 0.214344
0.808799 0.639959 0.215985
0.833936 0.641314 0.217689
0.859492 0.642699 0.219547
0.885443 0.644115 0.221553
0.911784 0.645561 0.223662
0.174943 0.632536 0.184620
0.206112 0.634453 0.185726
0.237180 0.636099 0.187372
0.267512 0.637705 0.188978
0.297058 0.639270 0.190543
0.325761 0.640791 0.192064
0.353552 0.642263 0.193536
0.380350 0.643682 0.194955
0.406049 0.645044 0.196316
0.429562 0.646289 0.197562
0.451778 0.647466 0.198739
0.472468 0.648562 0.199835
0.491272 0.649558 0.200831
0.507512 0.650418 0.201691
0.518855 0.651019 0.202292
0.530197 0.651620 0.202892
0.546437 0.652480 0.203753
0.563597 0.653389 0.204664
0.582384 0.654385 0.205681
0.602508 0.655452 0.206799
0.623783 0.656581 0.208010
0.646073 0.657765 0.209310
0.669269 0.658989 0.210816
0.693273 0.660253 0.212540
0.718031 0.661565 0.214341
0.741149 0.662797 0.216044
0.764814 0.664064 0.217809
0.788998 0.665364 0.219634
0.813674 0.666696 0.221519
0.838849 0.668057 0.223391
0.864492 0.669445 0.225291
0.890546 0.670860 0.227314
0.916985 0.672304 0.229464
0.179556 0.660190 0.189228
0.210706 0.662113 0.190333
0.241760 0.663763 0.191983
0.272078 0.665373 0.193593
0.301610 0.666942 0.195162
0.330299 0.668466 0.196686
0.358078 0.669942 0.198162
0.384863 0.671364 0.199585
0.410550 0.672729 0.200949
0.434052 0.673977 0.202197
0.456258 0.675157 0.203377
0.476938 0.676255 0.204476
0.495740 0.677254 0.205486
0.511990 0.678119 0.206380
0.523345 0.678723 0.207015
0.534705 0.679328 0.207659
0.550980 0.680194 0.208597
0.568186 0.681111 0.209608
0.587024 0.682115 0.210735
0.607203 0.683192 0.211967
0.628533 0.684329 0.213295
0.650880 0.685522 0.214714
0.674144 0.686764 0.216220
0.698235 0.688042 0.217925
0.723070 0.689356 0.219853
0.746258 0.690589 0.221669
0.769991 0.691858 0.223545
0.794241 0.693159 0.225479
0.818983 0.694493 0.227470
0.844194 0.695856 0.229516
0.869867 0.697248 0.231579
0.895994 0.698665 0.233644
0.922521 0.700108 0.235807
0.184329 0.688791 0.193997
0.215462 0.690719 0.195101
0.246503 0.692373 0.196755
0.276807 0.693987 0.198369
0.306325 0.695559 0.199941
0.335002 0.697086 0.201469
0.362769 0.698565 0.202947
0.389542 0.699991 0.204373
0.415224 0.701360 0.205754
0.438744 0.702614 0.207058
0.460985 0.703802 0.208326
0.481716 0.704910 0.209537
0.500571 0.705918 0.210662
0.516866 0.706790 0.211653
0.528252 0.707399 0.212354
0.539642 0.708009 0.213064
0.555960 0.708883 0.214093
0.573210 0.709807 0.215197
0.592096 0.710819 0.216425
0.612325 0.711903 0.217761
0.633705 0.713049 0.219195
0.656104 0.714250 0.220721
0.679420 0.715499 0.222334
0.703573 0.716794 0.224029
0.728488 0.718121 0.225920
0.751739 0.719355 0.227838
0.775534 0.720624 0.229813
0.799844 0.721926 0.231842
0.824643 0.723260 0.233926
0.849910 0.724624 0.236061
0.875623 0.726016 0.238246
0.901769 0.727435 0.240463
0.928352 0.728880 0.242665
0.188817 0.715668 0.198480
0.219935 0.717601 0.199585
0.250963 0.719258 0.201241
0.281256 0.720875 0.202858
0.310763 0.722450 0.204434
0.339436 0.723982 0.205978
0.367226 0.725468 0.207526
0.394050 0.726904 0.209072
0.419799 0.728285 0.210599
0.443379 0.729550 0.212034
0.465676 0.730747 0.213422
0.486457 0.731864 0.214742
0.505356 0.732880 0.215963
0.521689 0.733758 0.217033
0.533100 0.734371 0.217790
0.544516 0.734985 0.218553
0.560870 0.735865 0.219658
0.578157 0.736795 0.220839
0.597082 0.737813 0.222149
0.617351 0.738903 0.223569
0.638773 0.740056 0.225089
0.661213 0.741263 0.226701
0.684570 0.742519 0.228399
0.708764 0.743820 0.230179
0.733729 0.745162 0.232036
0.757039 0.746406 0.233906
0.780884 0.747675 0.235959
0.805242 0.748976 0.238064
0.830088 0.750310 0.240218
0.855398 0.751673 0.242421
0.881152 0.753064 0.244670
0.907331 0.754483 0.246963
0.933921 0.755928 0.249288
0.193421 0.743226 0.203080
0.224524 0.745163 0.204183
0.255544 0.746823 0.205849
0.285857 0.748448 0.207533
0.315417 0.750035 0.209235
0.344164 0.751580 0.210946
0.372027 0.753079 0.212654
0.398917 0.754528 0.214346
0.424729 0.755919 0.216009
0.448363 0.757194 0.217563
0.470711 0.758400 0.219060
0.491537 0.759524 0.220477
0.510477 0.760546 0.221783
0.526844 0.761430 0.222925
0.538279 0.762047 0.223730
0.549717 0.762665 0.224541
0.566102 0.763550 0.225712
0.583422 0.764485 0.226962
0.602381 0.765509 0.228343
0.622685 0.766605 0.229836
0.644143 0.767763 0.231430
0.666619 0.768975 0.233116
0.690011 0.770237 0.234887
0.714238 0.771543 0.236737
0.739236 0.772890 0.238663
0.762585 0.774148 0.240475
0.786481 0.775426 0.242463
