ai-pipeline/luts/dreamy.cube
TITLE "ClipVibe Dreamy"
LUT_3D_SIZE 5
DOMAIN_MIN 0.0 0.0 0.0
DOMAIN_MAX 1.0 1.0 1.0
0.129333 0.104169 0.146975
0.353712 0.110906 0.147842
0.486853 0.114716 0.148349
0.648599 0.119180 0.148806
0.835747 0.124694 0.149999
0.135825 0.338650 0.147558
0.362158 0.345270 0.150277
0.508241 0.349556 0.142693
0.672841 0.358603 0.161993
0.865804 0.370130 0.176738
0.151949 0.494379 0.161663
0.383800 0.506677 0.173188
0.524612 0.513984 0.180654
0.696333 0.522918 0.189453
0.892186 0.533695 0.203119
0.184329 0.688791 0.193997
0.415224 0.701360 0.205754
0.555960 0.708883 0.214093
0.728488 0.718121 0.225920
0.928352 0.728880 0.242665
0.226794 0.921352 0.239983
0.460301 0.934573 0.258001
0.602573 0.942358 0.269638
0.776097 0.951796 0.283591
0.976423 0.962595 0.298967
0.130162 0.106791 0.358353
0.354280 0.112706 0.359510
0.487377 0.116471 0.358404
0.649170 0.121056 0.357999
0.836882 0.126897 0.359102
0.137197 0.340475 0.360380
0.364997 0.347637 0.365349
0.508378 0.352639 0.368927
0.683711 0.360456 0.376541
0.888494 0.369084 0.385200
0.155899 0.498330 0.375738
0.383325 0.512347 0.383325
0.529381 0.518234 0.389424
0.724484 0.522174 0.378834
0.946330 0.526148 0.383406
0.188357 0.692818 0.407153
0.412039 0.708306 0.412207
0.556909 0.714841 0.420285
0.734406 0.722830 0.431830
0.961843 0.729390 0.410439
0.231891 0.925538 0.454697
0.456709 0.942214 0.464866
0.601479 0.949340 0.475562
0.778361 0.957800 0.488570
0.982383 0.967451 0.502712
0.131002 0.108353 0.490567
0.353526 0.114316 0.491515
0.487664 0.117593 0.491452
0.649633 0.122276 0.490626
0.837750 0.128389 0.491792
0.139363 0.341561 0.493772
0.365889 0.349285 0.505558
0.510281 0.354595 0.510281
0.683581 0.363330 0.516385
0.881853 0.373871 0.525263
0.158520 0.500808 0.511412
0.385497 0.514306 0.525453
0.531617 0.520167 0.531617
0.710092 0.527287 0.538496
0.917132 0.535340 0.546745
0.190910 0.695371 0.542275
0.414446 0.710517 0.552392
0.557070 0.718043 0.558491
0.737683 0.725252 0.569685
0.966860 0.729841 0.563433
0.235154 0.928194 0.590903
0.459777 0.944591 0.604710
0.600694 0.953198 0.611884
0.779342 0.961167 0.623912
0.985677 0.970102 0.637087
0.131974 0.110158 0.651270
0.353344 0.116063 0.651915
0.487026 0.119444 0.651926
0.650278 0.123831 0.652389
0.838994 0.130328 0.653765
0.141516 0.343316 0.655587
0.367855 0.351778 0.672244
0.511111 0.358056 0.678307
0.686294 0.366042 0.686294
0.884696 0.376715 0.693485
0.162852 0.503599 0.675774
0.389997 0.516515 0.695083
0.533855 0.522688 0.704820
0.712006 0.529874 0.712006
0.913731 0.539708 0.719525
0.194093 0.698466 0.707015
0.417675 0.713170 0.723485
0.560276 0.720443 0.733515
0.741146 0.727627 0.745395
0.950629 0.736092 0.759456
0.239159 0.931432 0.757069
0.463507 0.947485 0.775241
0.604178 0.955876 0.784901
0.780268 0.964729 0.794777
0.989173 0.972886 0.806370
0.133080 0.112335 0.856628
0.353572 0.118157 0.856980
0.487025 0.121670 0.857145
0.650314 0.126401 0.858138
0.840821 0.133069 0.861442
0.144205 0.345973 0.862604
0.371228 0.355477 0.883592
0.513623 0.362364 0.890475
0.687261 0.370768 0.898879
0.888022 0.380484 0.908595
0.167755 0.507449 0.885440
0.395015 0.519968 0.908345
0.537328 0.526354 0.920521
0.713156 0.534167 0.928334
0.917214 0.543267 0.938864
0.199392 0.702176 0.917114
0.424814 0.716080 0.939467
0.566802 0.723306 0.953295
0.745187 0.730904 0.969650
0.954591 0.739405 0.984205
0.244543 0.935519 0.969910
0.468983 0.950995 0.993361
0.609397 0.959087 1.000000
0.784755 0.967655 1.000000
0.992704 0.975814 1.000000
