ai-pipeline/luts/energetic.cube
TITLE "ClipVibe Energetic"
LUT_3D_SIZE 5
DOMAIN_MIN 0.0 0.0 0.0
DOMAIN_MAX 1.0 1.0 1.0
0.032897 0.011605 0.000000
0.270092 0.011878 0.000000
0.636753 0.010179 0.000000
1.000000 0.007371 0.000000
1.000000 0.004487 0.000000
0.053155 0.214348 0.000000
0.220123 0.204608 0.000000
0.584681 0.224956 0.000000
0.961244 0.228636 0.000000
1.000000 0.191860 0.000000
0.082005 0.542464 0.000000
0.283466 0.529913 0.000000
0.510830 0.510830 0.000000
0.892091 0.551757 0.000000
1.000000 0.500000 0.000000
0.124649 0.866954 0.000000
0.329033 0.854784 0.000000
0.641731 0.838417 0.000000
0.847821 0.829526 0.000000
1.000000 0.794145 0.000000
0.158553 1.000000 0.000000
0.360706 1.000000 0.000000
0.670071 1.000000 0.000000
0.905225 1.000000 0.000000
1.000000 0.967292 0.000000
0.029088 0.005080 0.219302
0.267176 0.000000 0.208196
0.633297 0.000000 0.206323
1.000000 0.000000 0.206090
1.000000 0.000000 0.168592
0.000000 0.211025 0.181078
0.214500 0.196554 0.167411
0.546264 0.183977 0.159296
0.937166 0.158835 0.134574
1.000000 0.118541 0.098372
0.000000 0.538999 0.180624
0.149118 0.532053 0.042748
0.508670 0.508670 0.061929
0.860756 0.491751 0.100910
1.000000 0.431049 0.059342
0.000000 0.863634 0.143883
0.153683 0.858573 0.000000
0.560639 0.840131 0.000000
0.849601 0.824917 0.000000
1.000000 0.752539 0.000000
0.000000 1.000000 0.070223
0.205420 1.000000 0.000000
0.579240 1.000000 0.000000
0.893591 1.000000 0.000000
1.000000 0.960241 0.000000
0.023611 0.000000 0.575712
0.266916 0.000000 0.563401
0.625622 0.000000 0.548675
1.000000 0.000000 0.549926
1.000000 0.000000 0.447230
0.000000 0.220288 0.536580
0.206928 0.187898 0.542252
0.589311 0.162125 0.517095
0.971412 0.140219 0.490096
1.000000 0.105350 0.393514
0.000000 0.532760 0.480790
0.112980 0.525374 0.459288
0.501649 0.501649 0.430864
0.838633 0.492379 0.438548
1.000000 0.460115 0.408334
0.000000 0.857577 0.481087
0.047543 0.853537 0.381985
0.448555 0.840846 0.268945
0.850703 0.820498 0.298893
1.000000 0.751949 0.317887
0.000000 1.000000 0.428150
0.021398 1.000000 0.275869
0.434677 1.000000 0.167417
0.875475 1.000000 0.147136
1.000000 0.952676 0.194065
0.023011 0.000000 0.959554
0.266623 0.000000 0.947347
0.630540 0.000000 0.928522
0.992725 0.000000 0.914282
1.000000 0.000000 0.747742
0.000000 0.223493 0.920909
0.197744 0.180264 0.932474
0.574593 0.156015 0.910765
0.963105 0.132397 0.886873
1.000000 0.099871 0.724151
0.000000 0.564782 0.854563
0.111446 0.515982 0.857050
0.492175 0.492175 0.852808
0.902889 0.464761 0.823123
1.000000 0.392010 0.697766
0.000000 0.851446 0.799995
0.042526 0.847202 0.777501
0.419782 0.835089 0.746379
0.849406 0.814152 0.701659
1.000000 0.765592 0.674525
0.000000 1.000000 0.730841
0.026521 1.000000 0.659921
0.379972 1.000000 0.624018
0.808670 1.000000 0.512995
1.000000 0.949606 0.553792
0.018283 0.000000 1.000000
0.217945 0.000000 1.000000
0.526673 0.000000 1.000000
0.843084 0.000000 1.000000
1.000000 0.000000 0.962345
0.000000 0.188215 1.000000
0.158521 0.144792 1.000000
0.476774 0.127645 1.000000
0.818675 0.110094 1.000000
1.000000 0.095944 0.962466
0.000000 0.513159 1.000000
0.096091 0.449327 1.000000
0.426782 0.426782 1.000000
0.801211 0.413252 1.000000
1.000000 0.388766 0.955967
0.000000 0.826951 1.000000
0.041078 0.796381 1.000000
0.406029 0.798612 1.000000
0.841573 0.804081 1.000000
1.000000 0.711462 0.874635
0.000000 1.000000 0.947546
0.025040 1.000000 0.924267
0.378949 1.000000 0.902726
0.781986 1.000000 0.883263
1.000000 0.949908 0.838584
