ai-pipeline/luts/energetic.cube
TITLE "ClipVibe Energetic"
LUT_3D_SIZE 33
DOMAIN_MIN 0.0 0.0 0.0
DOMAIN_MAX 1.0 1.0 1.0
0.032897 0.011605 0.000000
0.061441 0.011935 0.000000
0.090249 0.012046 0.000000
0.119343 0.012084 0.000000
0.148747 0.012084 0.000000
0.178488 0.012059 0.000000
0.208599 0.012015 0.000000
0.239118 0.011955 0.000000
0.270092 0.011878 0.000000
0.308813 0.011765 0.000000
0.348440 0.011630 0.000000
0.389159 0.011472 0.000000
0.431239 0.011291 0.000000
0.475099 0.011084 0.000000
0.521487 0.010846 0.000000
0.572083 0.010566 0.000000
0.636753 0.010179 0.000000
0.703359 0.009750 0.000000
0.755399 0.009397 0.000000
0.803054 0.009060 0.000000
0.848063 0.008732 0.000000
0.891200 0.008410 0.000000
0.932902 0.008092 0.000000
0.973447 0.007778 0.000000
1.000000 0.007371 0.000000
1.000000 0.006924 0.000000
1.000000 0.006506 0.000000
1.000000 0.006116 0.000000
1.000000 0.005750 0.000000
1.000000 0.005406 0.000000
1.000000 0.005082 0.000000
1.000000 0.004776 0.000000
1.000000 0.004487 0.000000
0.030897 0.033980 0.000000
0.056301 0.036167 0.000000
0.085047 0.037536 0.000000
0.114079 0.038224 0.000000
0.143421 0.038615 0.000000
0.173102 0.038847 0.000000
0.203154 0.038980 0.000000
0.233616 0.039048 0.000000
0.264534 0.039066 0.000000
0.303186 0.039038 0.000000
0.342747 0.038964 0.000000
0.383401 0.038851 0.000000
0.425417 0.038702 0.000000
0.469215 0.038518 0.000000
0.515541 0.038297 0.000000
0.566076 0.038029 0.000000
0.630674 0.037652 0.000000
0.697216 0.037229 0.000000
0.749212 0.036879 0.000000
0.796831 0.036545 0.000000
0.841812 0.036220 0.000000
0.884926 0.035901 0.000000
0.926609 0.035587 0.000000
0.967138 0.035278 0.000000
1.000000 0.034739 0.000000
1.000000 0.033488 0.000000
1.000000 0.032325 0.000000
1.000000 0.031240 0.000000
1.000000 0.030225 0.000000
1.000000 0.029272 0.000000
1.000000 0.028375 0.000000
1.000000 0.027530 0.000000
1.000000 0.026732 0.000000
0.037292 0.059067 0.000000
0.053700 0.057534 0.000000
0.079593 0.060079 0.000000
0.108568 0.062177 0.000000
0.137855 0.063428 0.000000
0.167481 0.064235 0.000000
0.197480 0.064778 0.000000
0.227890 0.065149 0.000000
0.258756 0.065402 0.000000
0.297348 0.065594 0.000000
0.336850 0.065689 0.000000
0.377447 0.065710 0.000000
0.419407 0.065669 0.000000
0.463151 0.065574 0.000000
0.509424 0.065428 0.000000
0.559907 0.065226 0.000000
0.624446 0.064915 0.000000
0.690936 0.064547 0.000000
0.742899 0.064233 0.000000
0.790492 0.063929 0.000000
0.835453 0.063630 0.000000
0.878552 0.063335 0.000000
0.920224 0.063043 0.000000
0.960747 0.062755 0.000000
1.000000 0.062450 0.000000
1.000000 0.060387 0.000000
1.000000 0.058470 0.000000
1.000000 0.056682 0.000000
1.000000 0.055010 0.000000
1.000000 0.053441 0.000000
1.000000 0.051966 0.000000
1.000000 0.050575 0.000000
1.000000 0.049262 0.000000
0.040415 0.084331 0.000000
0.063661 0.082775 0.000000
0.076698 0.081197 0.000000
0.102822 0.083862 0.000000
0.132059 0.086470 0.000000
0.161636 0.088188 0.000000
0.191587 0.089384 0.000000
0.221950 0.090244 0.000000
0.252772 0.090875 0.000000
0.291310 0.091429 0.000000
0.330760 0.091807 0.000000
0.371308 0.092055 0.000000
0.413220 0.092200 0.000000
0.456919 0.092261 0.000000
0.503148 0.092249 0.000000
0.553589 0.092167 0.000000
0.618081 0.091982 0.000000
0.684533 0.091719 0.000000
0.736473 0.091475 0.000000
0.784050 0.091229 0.000000
0.829000 0.090980 0.000000
0.872093 0.090730 0.000000
0.913762 0.090479 0.000000
0.954287 0.090229 0.000000
0.993857 0.089981 0.000000
1.000000 0.087651 0.000000
1.000000 0.084970 0.000000
1.000000 0.082470 0.000000
1.000000 0.080132 0.000000
1.000000 0.077940 0.000000
1.000000 0.075878 0.000000
1.000000 0.073935 0.000000
1.000000 0.072101 0.000000
0.043265 0.109797 0.000000
0.066811 0.108221 0.000000
0.089257 0.106623 0.000000
0.099816 0.105002 0.000000
0.126043 0.107669 0.000000
0.155577 0.110659 0.000000
0.185486 0.112765 0.000000
0.215808 0.114310 0.000000
0.246591 0.115473 0.000000
0.285083 0.116537 0.000000
0.324489 0.117315 0.000000
0.364995 0.117886 0.000000
0.406869 0.118298 0.000000
0.450530 0.118586 0.000000
0.496726 0.118771 0.000000
0.547134 0.118867 0.000000
0.611593 0.118867 0.000000
0.678021 0.118762 0.000000
0.729948 0.118624 0.000000
0.777519 0.118465 0.000000
0.822467 0.118291 0.000000
0.865563 0.118107 0.000000
0.907239 0.117917 0.000000
0.947773 0.117724 0.000000
0.987357 0.117528 0.000000
1.000000 0.115312 0.000000
1.000000 0.111856 0.000000
1.000000 0.108634 0.000000
1.000000 0.105621 0.000000
1.000000 0.102795 0.000000
1.000000 0.100139 0.000000
1.000000 0.097636 0.000000
1.000000 0.095273 0.000000
0.045925 0.135496 0.000000
0.069651 0.133901 0.000000
0.093064 0.132285 0.000000
0.113094 0.130648 0.000000
0.123051 0.128987 0.000000
0.149314 0.131584 0.000000
0.179187 0.134879 0.000000
0.209475 0.137315 0.000000
0.240225 0.139173 0.000000
0.278678 0.140904 0.000000
0.318049 0.142208 0.000000
0.358521 0.143204 0.000000
0.400365 0.143970 0.000000
0.443998 0.144558 0.000000
0.490169 0.145005 0.000000
0.540555 0.145338 0.000000
0.604995 0.145588 0.000000
0.671412 0.145695 0.000000
0.723338 0.145699 0.000000
0.770913 0.145656 0.000000
0.815870 0.145583 0.000000
0.858977 0.145489 0.000000
0.900670 0.145381 0.000000
0.941223 0.145262 0.000000
0.980828 0.145136 0.000000
1.000000 0.143403 0.000000
1.000000 0.139159 0.000000
1.000000 0.135204 0.000000
1.000000 0.131505 0.000000
1.000000 0.128037 0.000000
1.000000 0.124777 0.000000
1.000000 0.121705 0.000000
1.000000 0.118804 0.000000
0.048439 0.161460 0.000000
0.072284 0.159849 0.000000
0.095907 0.158219 0.000000
0.119309 0.156567 0.000000
0.136396 0.154892 0.000000
0.146438 0.153194 0.000000
0.172701 0.155670 0.000000
0.202961 0.159223 0.000000
0.233684 0.161950 0.000000
0.272107 0.164517 0.000000
0.311450 0.166479 0.000000
0.351898 0.168009 0.000000
0.393720 0.169218 0.000000
0.437335 0.170184 0.000000
0.483491 0.170962 0.000000
0.533866 0.171595 0.000000
0.598301 0.172162 0.000000
0.664722 0.172538 0.000000
0.716658 0.172723 0.000000
0.764247 0.172828 0.000000
0.809223 0.172883 0.000000
0.852352 0.172902 0.000000
0.894070 0.172897 0.000000
0.934651 0.172872 0.000000
0.974288 0.172834 0.000000
1.000000 0.171962 0.000000
1.000000 0.166916 0.000000
1.000000 0.162214 0.000000
1.000000 0.157818 0.000000
1.000000 0.153696 0.000000
1.000000 0.149822 0.000000
1.000000 0.146171 0.000000
1.000000 0.142724 0.000000
0.050840 0.187729 0.000000
0.074769 0.186105 0.000000
0.098543 0.184461 0.000000
0.122165 0.182797 0.000000
0.145630 0.181111 0.000000
0.159665 0.179402 0.000000
0.170027 0.177668 0.000000
0.196276 0.179989 0.000000
0.226980 0.183774 0.000000
0.265381 0.187357 0.000000
0.304705 0.190119 0.000000
0.345138 0.192298 0.000000
0.386947 0.194048 0.000000
0.430553 0.195475 0.000000
0.476705 0.196656 0.000000
0.527081 0.197656 0.000000
0.591524 0.198610 0.000000
0.657965 0.199315 0.000000
0.709923 0.199721 0.000000
0.757538 0.200008 0.000000
0.802542 0.200219 0.000000
0.845704 0.200377 0.000000
0.887457 0.200496 0.000000
0.928076 0.200586 0.000000
0.967754 0.200655 0.000000
0.998360 0.200697 0.000000
1.000000 0.195164 0.000000
1.000000 0.189701 0.000000
1.000000 0.184594 0.000000
1.000000 0.179807 0.000000
1.000000 0.175307 0.000000
1.000000 0.171067 0.000000
1.000000 0.167064 0.000000
0.053155 0.214348 0.000000
0.077149 0.212713 0.000000
0.101038 0.211059 0.000000
0.124829 0.209386 0.000000
0.148528 0.207691 0.000000
0.171265 0.205974 0.000000
0.183116 0.204233 0.000000
0.193878 0.202466 0.000000
0.220123 0.204608 0.000000
0.258512 0.209403 0.000000
0.297826 0.213119 0.000000
0.338252 0.216072 0.000000
0.380058 0.218466 0.000000
0.423666 0.220441 0.000000
0.469824 0.222103 0.000000
0.520212 0.223540 0.000000
0.584681 0.224956 0.000000
0.651157 0.226054 0.000000
0.703149 0.226725 0.000000
0.750802 0.227228 0.000000
0.795846 0.227625 0.000000
0.839050 0.227947 0.000000
0.880848 0.228215 0.000000
0.921516 0.228441 0.000000
0.961244 0.228636 0.000000
0.991891 0.228771 0.000000
1.000000 0.223945 0.000000
1.000000 0.217706 0.000000
1.000000 0.211875 0.000000
1.000000 0.206408 0.000000
1.000000 0.201270 0.000000
1.000000 0.196430 0.000000
1.000000 0.191860 0.000000
0.056021 0.248818 0.000000
0.080082 0.247174 0.000000
0.104088 0.245512 0.000000
0.128047 0.243830 0.000000
0.151969 0.242129 0.000000
0.175866 0.240406 0.000000
0.198664 0.238660 0.000000
0.211041 0.236889 0.000000
0.220796 0.235091 0.000000
0.249579 0.236277 0.000000
0.288894 0.241450 0.000000
0.329326 0.245583 0.000000
0.371143 0.248958 0.000000
0.414769 0.251770 0.000000
0.460951 0.254165 0.000000
0.511373 0.256268 0.000000
0.575896 0.258388 0.000000
0.642441 0.260086 0.000000
0.694497 0.261159 0.000000
0.742215 0.261991 0.000000
0.787327 0.262671 0.000000
0.830602 0.263244 0.000000
0.872473 0.263737 0.000000
0.913217 0.264169 0.000000
0.953025 0.264555 0.000000
0.983737 0.264831 0.000000
1.000000 0.261425 0.000000
1.000000 0.254174 0.000000
1.000000 0.247397 0.000000
1.000000 0.241044 0.000000
1.000000 0.235074 0.000000
1.000000 0.229451 0.000000
1.000000 0.224142 0.000000
0.058854 0.284085 0.000000
0.082974 0.282435 0.000000
0.107077 0.280769 0.000000
0.131175 0.279085 0.000000
0.155277 0.277382 0.000000
0.179398 0.275658 0.000000
0.203553 0.273913 0.000000
0.226526 0.272143 0.000000
0.239520 0.270347 0.000000
0.251624 0.268102 0.000000
0.279786 0.268708 0.000000
0.320240 0.274262 0.000000
0.362086 0.278819 0.000000
0.405747 0.282638 0.000000
0.451973 0.285913 0.000000
0.502452 0.288818 0.000000
0.567057 0.291784 0.000000
0.633701 0.294201 0.000000
0.685843 0.295757 0.000000
0.733647 0.296984 0.000000
0.778847 0.298003 0.000000
0.822212 0.298876 0.000000
0.864176 0.299639 0.000000
0.905015 0.300318 0.000000
0.944920 0.300930 0.000000
0.975711 0.301374 0.000000
1.000000 0.299971 0.000000
1.000000 0.291677 0.000000
1.000000 0.283925 0.000000
1.000000 0.276660 0.000000
1.000000 0.269833 0.000000
1.000000 0.263403 0.000000
1.000000 0.257334 0.000000
0.061723 0.320335 0.000000
0.085899 0.318686 0.000000
0.110091 0.317021 0.000000
0.134310 0.315339 0.000000
0.158568 0.313639 0.000000
0.182880 0.311920 0.000000
0.207264 0.310181 0.000000
0.231741 0.308418 0.000000
0.255011 0.306631 0.000000
0.270919 0.304398 0.000000
0.283354 0.302117 0.000000
0.311016 0.302130 0.000000
0.352910 0.308092 0.000000
0.396627 0.313107 0.000000
0.442918 0.317429 0.000000
0.493476 0.321284 0.000000
0.558194 0.325254 0.000000
0.624968 0.328525 0.000000
0.677221 0.330653 0.000000
0.725135 0.332347 0.000000
0.770445 0.333768 0.000000
0.813921 0.334995 0.000000
0.855999 0.336077 0.000000
0.896953 0.337046 0.000000
0.936976 0.337926 0.000000
0.967861 0.338567 0.000000
0.998311 0.339171 0.000000
1.000000 0.330371 0.000000
1.000000 0.321612 0.000000
1.000000 0.313402 0.000000
1.000000 0.305683 0.000000
1.000000 0.298409 0.000000
1.000000 0.291538 0.000000
0.064713 0.357835 0.000000
0.088948 0.356192 0.000000
0.113226 0.354533 0.000000
0.137559 0.352860 0.000000
0.161959 0.351169 0.000000
0.186443 0.349461 0.000000
0.211030 0.347733 0.000000
0.235743 0.345984 0.000000
0.260610 0.344211 0.000000
0.288405 0.342000 0.000000
0.303403 0.339741 0.000000
0.316266 0.337427 0.000000
0.343632 0.336854 0.000000
0.387427 0.343281 0.000000
0.433807 0.348836 0.000000
0.484470 0.353812 0.000000
0.549335 0.358964 0.000000
0.616274 0.363238 0.000000
0.668667 0.366039 0.000000
0.716716 0.368284 0.000000
0.762161 0.370176 0.000000
0.805773 0.371818 0.000000
0.847987 0.373273 0.000000
0.889080 0.374583 0.000000
0.929229 0.375770 0.000000
0.960187 0.376622 0.000000
0.990687 0.377413 0.000000
1.000000 0.370455 0.000000
1.000000 0.360635 0.000000
1.000000 0.351428 0.000000
1.000000 0.342772 0.000000
1.000000 0.334616 0.000000
1.000000 0.326911 0.000000
0.067931 0.396994 0.000000
0.092233 0.395362 0.000000
0.116600 0.393717 0.000000
0.141046 0.392058 0.000000
0.165584 0.390383 0.000000
0.190232 0.388692 0.000000
0.215009 0.386983 0.000000
0.239941 0.385255 0.000000
0.265056 0.383504 0.000000
0.296184 0.381322 0.000000
0.322785 0.379096 0.000000
0.337356 0.376817 0.000000
0.350758 0.374472 0.000000
0.378155 0.373336 0.000000
0.424652 0.380343 0.000000
0.475450 0.386638 0.000000
0.540500 0.393178 0.000000
0.607645 0.398633 0.000000
0.660210 0.402224 0.000000
0.708424 0.405113 0.000000
0.754027 0.407555 0.000000
0.797756 0.409662 0.000000
0.840041 0.411508 0.000000
0.881163 0.413147 0.000000
0.921313 0.414618 0.000000
0.952271 0.415673 0.000000
0.982770 0.416653 0.000000
1.000000 0.412266 0.000000
1.000000 0.401337 0.000000
1.000000 0.391091 0.000000
1.000000 0.381459 0.000000
1.000000 0.372381 0.000000
1.000000 0.363808 0.000000
0.071536 0.438523 0.000000
0.095916 0.436910 0.000000
0.120381 0.435286 0.000000
0.144946 0.433649 0.000000
0.169626 0.431998 0.000000
0.194438 0.430333 0.000000
0.219404 0.428651 0.000000
0.244549 0.426951 0.000000
0.269903 0.425231 0.000000
0.301364 0.423089 0.000000
0.333290 0.420907 0.000000
0.358824 0.418676 0.000000
0.373384 0.416382 0.000000
0.387462 0.414007 0.000000
0.415434 0.412346 0.000000
0.466403 0.420200 0.000000
0.531686 0.428383 0.000000
0.599071 0.435224 0.000000
0.651763 0.439706 0.000000
0.700037 0.443286 0.000000
0.745648 0.446286 0.000000
0.789378 0.448869 0.000000
0.831663 0.451133 0.000000
0.872784 0.453143 0.000000
0.912934 0.454946 0.000000
0.943892 0.456240 0.000000
0.974392 0.457441 0.000000
1.000000 0.456517 0.000000
1.000000 0.444415 0.000000
1.000000 0.433069 0.000000
1.000000 0.422403 0.000000
1.000000 0.412351 0.000000
1.000000 0.402857 0.000000
0.075816 0.483997 0.000000
0.100291 0.482414 0.000000
0.124871 0.480820 0.000000
0.149570 0.479216 0.000000
0.174404 0.477599 0.000000
0.199392 0.475969 0.000000
0.224556 0.474325 0.000000
0.249922 0.472665 0.000000
0.275523 0.470987 0.000000
0.307322 0.468900 0.000000
0.339629 0.466776 0.000000
0.372570 0.464608 0.000000
0.397644 0.462383 0.000000
0.412684 0.460081 0.000000
0.427618 0.457663 0.000000
0.457142 0.455478 0.000000
0.522528 0.465552 0.000000
0.589926 0.473925 0.000000
0.642617 0.479406 0.000000
0.690891 0.483782 0.000000
0.736503 0.487451 0.000000
0.780232 0.490610 0.000000
0.822518 0.493378 0.000000
0.863639 0.495836 0.000000
0.903789 0.498040 0.000000
0.934747 0.499623 0.000000
0.965247 0.501092 0.000000
0.995331 0.502460 0.000000
1.000000 0.491435 0.000000
1.000000 0.478889 0.000000
1.000000 0.467094 0.000000
1.000000 0.455979 0.000000
1.000000 0.445481 0.000000
0.082005 0.542464 0.000000
0.106621 0.540929 0.000000
0.131362 0.539387 0.000000
0.156244 0.537836 0.000000
0.181283 0.536275 0.000000
0.206499 0.534703 0.000000
0.231916 0.533120 0.000000
0.257560 0.531524 0.000000
0.283466 0.529913 0.000000
0.315658 0.527904 0.000000
0.348366 0.525845 0.000000
0.381723 0.523729 0.000000
0.415923 0.521540 0.000000
0.443588 0.519257 0.000000
0.460607 0.516841 0.000000
0.476141 0.514203 0.000000
0.510830 0.510830 0.000000
0.578228 0.521378 0.000000
0.630920 0.528282 0.000000
0.679194 0.533796 0.000000
0.724806 0.538418 0.000000
0.768535 0.542397 0.000000
0.810820 0.545884 0.000000
0.851941 0.548980 0.000000
0.892091 0.551757 0.000000
0.923049 0.553751 0.000000
0.953549 0.555601 0.000000
0.983634 0.557325 0.000000
1.000000 0.551579 0.000000
1.000000 0.537497 0.000000
1.000000 0.524259 0.000000
1.000000 0.511783 0.000000
1.000000 0.500000 0.000000
0.089002 0.599600 0.000000
0.113774 0.598125 0.000000
0.138672 0.596637 0.000000
0.163705 0.595133 0.000000
0.188892 0.593612 0.000000
0.214250 0.592072 0.000000
0.239804 0.590513 0.000000
0.265581 0.588931 0.000000
0.291613 0.587324 0.000000
0.323971 0.585315 0.000000
0.356875 0.583256 0.000000
0.390459 0.581140 0.000000
0.424924 0.578951 0.000000
0.460582 0.576668 0.000000
0.489916 0.574252 0.000000
0.508753 0.571615 0.000000
0.529020 0.568241 0.000000
0.566880 0.565216 0.000000
0.619571 0.573658 0.000000
0.667845 0.580400 0.000000
0.713457 0.586052 0.000000
0.757186 0.590917 0.000000
0.799472 0.595181 0.000000
0.840593 0.598967 0.000000
0.880743 0.602363 0.000000
0.911701 0.604801 0.000000
0.942200 0.607063 0.000000
0.972285 0.609171 0.000000
1.000000 0.609927 0.000000
1.000000 0.594355 0.000000
1.000000 0.579717 0.000000
1.000000 0.565923 0.000000
1.000000 0.552904 0.000000
0.094984 0.644483 0.000000
0.119767 0.643009 0.000000
0.144680 0.641521 0.000000
0.169739 0.640017 0.000000
0.194960 0.638496 0.000000
0.220363 0.636956 0.000000
0.245971 0.635396 0.000000
0.271813 0.633814 0.000000
0.297921 0.632208 0.000000
0.330389 0.630198 0.000000
0.363421 0.628140 0.000000
0.397156 0.626024 0.000000
0.431793 0.623835 0.000000
0.467653 0.621552 0.000000
0.504743 0.619136 0.000000
0.532537 0.616498 0.000000
0.553795 0.613125 0.000000
0.577391 0.609648 0.000000
0.610699 0.607733 0.000000
0.658973 0.615521 0.000000
0.704585 0.622050 0.000000
0.748314 0.627670 0.000000
0.790599 0.632596 0.000000
0.831720 0.636969 0.000000
0.871870 0.640892 0.000000
0.902835 0.643712 0.000000
0.933397 0.646366 0.000000
0.963607 0.648886 0.000000
0.993499 0.651288 0.000000
1.000000 0.638832 0.000000
1.000000 0.623131 0.000000
1.000000 0.608349 0.000000
1.000000 0.594404 0.000000
0.100467 0.685603 0.000000
0.125256 0.684130 0.000000
0.150182 0.682641 0.000000
0.175261 0.681137 0.000000
0.200510 0.679616 0.000000
0.225949 0.678077 0.000000
0.251600 0.676517 0.000000
0.277494 0.674935 0.000000
0.303663 0.673329 0.000000
0.336219 0.671319 0.000000
0.369354 0.669261 0.000000
0.403209 0.667144 0.000000
0.437985 0.664956 0.000000
0.474006 0.662673 0.000000
0.511848 0.660257 0.000000
0.549229 0.657619 0.000000
0.577380 0.654246 0.000000
0.597514 0.650768 0.000000
0.618539 0.648050 0.000000
0.650845 0.646685 0.000000
0.696456 0.654073 0.000000
0.740195 0.660438 0.000000
0.782595 0.666079 0.000000
0.823948 0.671170 0.000000
0.864435 0.675821 0.000000
0.895725 0.679222 0.000000
0.926609 0.682433 0.000000
0.957128 0.685480 0.000000
0.987315 0.688385 0.000000
1.000000 0.679479 0.000000
1.000000 0.662815 0.000000
1.000000 0.647133 0.000000
1.000000 0.632343 0.000000
0.105648 0.724456 0.000000
0.130442 0.722983 0.000000
0.155379 0.721495 0.000000
0.180475 0.719991 0.000000
0.205747 0.718469 0.000000
0.231215 0.716930 0.000000
0.256904 0.715370 0.000000
0.282841 0.713788 0.000000
0.309061 0.712182 0.000000
0.341691 0.710172 0.000000
0.374913 0.708114 0.000000
0.408868 0.705998 0.000000
0.443762 0.703809 0.000000
0.479918 0.701526 0.000000
0.517918 0.699110 0.000000
0.559064 0.696472 0.000000
0.597258 0.693099 0.000000
0.619799 0.689622 0.000000
0.636014 0.686915 0.000000
0.657090 0.684501 0.000000
0.689308 0.683782 0.000000
0.733476 0.691136 0.000000
0.776300 0.697681 0.000000
0.818047 0.703594 0.000000
0.858903 0.708999 0.000000
0.890465 0.712951 0.000000
0.921609 0.716682 0.000000
0.952375 0.720220 0.000000
0.982797 0.723590 0.000000
1.000000 0.717552 0.000000
1.000000 0.699997 0.000000
1.000000 0.683481 0.000000
1.000000 0.667907 0.000000
0.110615 0.761706 0.000000
0.135413 0.760232 0.000000
0.160360 0.758744 0.000000
0.185470 0.757240 0.000000
0.210762 0.755719 0.000000
0.236256 0.754179 0.000000
0.261977 0.752620 0.000000
0.287952 0.751038 0.000000
0.314216 0.749431 0.000000
0.346909 0.747422 0.000000
0.380206 0.745364 0.000000
0.414249 0.743247 0.000000
0.449243 0.741058 0.000000
0.485516 0.738775 0.000000
0.523653 0.736359 0.000000
0.564982 0.733722 0.000000
0.612559 0.730387 0.000000
0.641374 0.727082 0.000000
0.657334 0.724590 0.000000
0.673577 0.722375 0.000000
0.695414 0.720339 0.000000
0.728387 0.720563 0.000000
0.771559 0.727979 0.000000
0.813629 0.734680 0.000000
0.854782 0.740804 0.000000
0.886564 0.745280 0.000000
0.917915 0.749503 0.000000
0.948877 0.753505 0.000000
0.979484 0.757313 0.000000
1.000000 0.753588 0.000000
1.000000 0.735207 0.000000
1.000000 0.717914 0.000000
1.000000 0.701610 0.000000
0.115418 0.797725 0.000000
0.140220 0.796252 0.000000
0.165174 0.794764 0.000000
0.190298 0.793259 0.000000
0.215608 0.791738 0.000000
0.241124 0.790199 0.000000
0.266872 0.788639 0.000000
0.292881 0.787057 0.000000
0.319184 0.785451 0.000000
0.351933 0.783441 0.000000
0.385296 0.781383 0.000000
0.419415 0.779267 0.000000
0.454498 0.777078 0.000000
0.490900 0.774804 0.000000
0.529348 0.772457 0.000000
0.571221 0.769969 0.000000
0.624037 0.766896 0.000000
0.661310 0.763849 0.000000
0.679666 0.761548 0.000000
0.694413 0.759499 0.000000
0.711238 0.757613 0.000000
0.733974 0.755847 0.000000
0.768011 0.757149 0.000000
0.810338 0.764610 0.000000
0.851729 0.771427 0.000000
0.883683 0.776405 0.000000
0.915196 0.781098 0.000000
0.946309 0.785541 0.000000
0.977057 0.789763 0.000000
1.000000 0.787902 0.000000
1.000000 0.768753 0.000000
1.000000 0.750738 0.000000
1.000000 0.733751 0.000000
0.120088 0.832753 0.000000
0.144894 0.831280 0.000000
0.169856 0.829791 0.000000
0.194991 0.828287 0.000000
0.220316 0.826766 0.000000
0.245853 0.825227 0.000000
0.271626 0.823667 0.000000
0.297663 0.822085 0.000000
0.324001 0.820479 0.000000
0.356800 0.818469 0.000000
0.390267 0.816425 0.000000
0.424648 0.814373 0.000000
0.460157 0.812303 0.000000
0.497127 0.810199 0.000000
0.536163 0.808031 0.000000
0.578639 0.805730 0.000000
0.632736 0.802884 0.000000
0.679007 0.800055 0.000000
0.701376 0.797914 0.000000
0.716826 0.796003 0.000000
0.731390 0.794239 0.000000
0.749017 0.792585 0.000000
0.772692 0.791016 0.000000
0.807907 0.793494 0.000000
0.849479 0.800977 0.000000
0.881564 0.806437 0.000000
0.913197 0.811580 0.000000
0.944421 0.816445 0.000000
0.975272 0.821062 0.000000
1.000000 0.820716 0.000000
1.000000 0.800853 0.000000
1.000000 0.782164 0.000000
1.000000 0.764541 0.000000
0.124649 0.866954 0.000000
0.149457 0.865480 0.000000
0.174426 0.863992 0.000000
0.199571 0.862488 0.000000
0.224910 0.860967 0.000000
0.250465 0.859427 0.000000
0.276283 0.857874 0.000000
0.302460 0.856327 0.000000
0.329033 0.854784 0.000000
0.362248 0.852893 0.000000
0.396226 0.851001 0.000000
0.431108 0.849101 0.000000
0.467108 0.847182 0.000000
0.504561 0.845230 0.000000
0.544078 0.843215 0.000000
0.587048 0.841073 0.000000
0.641731 0.838417 0.000000
0.694332 0.835771 0.000000
0.721675 0.833761 0.000000
0.739274 0.831962 0.000000
0.753474 0.830297 0.000000
0.768325 0.828729 0.000000
0.786842 0.827239 0.000000
0.811439 0.825811 0.000000
0.847821 0.829526 0.000000
0.879998 0.835450 0.000000
0.911713 0.841026 0.000000
0.943011 0.846293 0.000000
0.973927 0.851287 0.000000
1.000000 0.852208 0.000000
1.000000 0.831681 0.000000
1.000000 0.812364 0.000000
1.000000 0.794145 0.000000
0.128294 0.894294 0.000000
0.153105 0.892820 0.000000
0.178081 0.891332 0.000000
0.203302 0.889848 0.000000
0.228808 0.888372 0.000000
0.254619 0.886905 0.000000
0.280756 0.885444 0.000000
0.307246 0.883989 0.000000
0.334124 0.882537 0.000000
0.367702 0.880758 0.000000
0.402031 0.878975 0.000000
0.437254 0.877183 0.000000
0.473586 0.875372 0.000000
0.511365 0.873526 0.000000
0.551205 0.871618 0.000000
0.594503 0.869587 0.000000
0.649574 0.867063 0.000000
0.705113 0.864539 0.000000
0.736918 0.862616 0.000000
0.756983 0.860890 0.000000
0.771879 0.859288 0.000000
0.785728 0.857776 0.000000
0.801563 0.856334 0.000000
0.821793 0.854948 0.000000
0.848417 0.853610 0.000000
0.879006 0.858372 0.000000
0.910762 0.864286 0.000000
0.942095 0.869869 0.000000
0.973040 0.875158 0.000000
1.000000 0.877002 0.000000
1.000000 0.855967 0.000000
1.000000 0.836168 0.000000
1.000000 0.817491 0.000000
0.132039 0.921257 0.000000
0.157056 0.919841 0.000000
0.182320 0.918435 0.000000
0.207845 0.917038 0.000000
0.233646 0.915648 0.000000
0.259741 0.914266 0.000000
0.286154 0.912889 0.000000
0.312912 0.911516 0.000000
0.340048 0.910146 0.000000
0.373934 0.908464 0.000000
0.408559 0.906778 0.000000
0.444068 0.905081 0.000000
0.480677 0.903363 0.000000
0.518726 0.901610 0.000000
0.558832 0.899795 0.000000
0.602400 0.897858 0.000000
0.657786 0.895444 0.000000
0.714444 0.893021 0.000000
0.750910 0.891169 0.000000
0.773875 0.889502 0.000000
0.790112 0.887949 0.000000
0.803807 0.886478 0.000000
0.818005 0.885070 0.000000
0.835110 0.883714 0.000000
0.857104 0.882399 0.000000
0.878923 0.881391 0.000000
0.909953 0.886910 0.000000
