ai-pipeline/luts/energetic.cube
TITLE "ClipVibe Energetic"
LUT_3D_SIZE 9
DOMAIN_MIN 0.0 0.0 0.0
DOMAIN_MAX 1.0 1.0 1.0
0.032897 0.011605 0.000000
0.148747 0.012084 0.000000
0.270092 0.011878 0.000000
0.431239 0.011291 0.000000
0.636753 0.010179 0.000000
0.848063 0.008732 0.000000
1.000000 0.007371 0.000000
1.000000 0.005750 0.000000
1.000000 0.004487 0.000000
0.043265 0.109797 0.000000
0.126043 0.107669 0.000000
0.246591 0.115473 0.000000
0.406869 0.118298 0.000000
0.611593 0.118867 0.000000
0.822467 0.118291 0.000000
0.987357 0.117528 0.000000
1.000000 0.105621 0.000000
1.000000 0.095273 0.000000
0.053155 0.214348 0.000000
0.148528 0.207691 0.000000
0.220123 0.204608 0.000000
0.380058 0.218466 0.000000
0.584681 0.224956 0.000000
0.795846 0.227625 0.000000
0.961244 0.228636 0.000000
1.000000 0.211875 0.000000
1.000000 0.191860 0.000000
0.064713 0.357835 0.000000
0.161959 0.351169 0.000000
0.260610 0.344211 0.000000
0.343632 0.336854 0.000000
0.549335 0.358964 0.000000
0.762161 0.370176 0.000000
0.929229 0.375770 0.000000
1.000000 0.360635 0.000000
1.000000 0.326911 0.000000
0.082005 0.542464 0.000000
0.181283 0.536275 0.000000
0.283466 0.529913 0.000000
0.415923 0.521540 0.000000
0.510830 0.510830 0.000000
0.724806 0.538418 0.000000
0.892091 0.551757 0.000000
1.000000 0.551579 0.000000
1.000000 0.500000 0.000000
0.105648 0.724456 0.000000
0.205747 0.718469 0.000000
0.309061 0.712182 0.000000
0.443762 0.703809 0.000000
0.597258 0.693099 0.000000
0.689308 0.683782 0.000000
0.858903 0.708999 0.000000
0.982797 0.723590 0.000000
1.000000 0.667907 0.000000
0.124649 0.866954 0.000000
0.224910 0.860967 0.000000
0.329033 0.854784 0.000000
0.467108 0.847182 0.000000
0.641731 0.838417 0.000000
0.753474 0.830297 0.000000
0.847821 0.829526 0.000000
0.973927 0.851287 0.000000
1.000000 0.794145 0.000000
0.142290 0.974887 0.000000
0.245845 0.969874 0.000000
0.353924 0.964926 0.000000
0.496295 0.958764 0.000000
0.674995 0.951436 0.000000
0.824854 0.944307 0.000000
0.882880 0.938868 0.000000
0.970674 0.942877 0.000000
1.000000 0.884087 0.000000
0.158553 1.000000 0.000000
0.257338 1.000000 0.000000
0.360706 1.000000 0.000000
0.497391 1.000000 0.000000
0.670071 1.000000 0.000000
0.838423 1.000000 0.000000
0.905225 1.000000 0.000000
0.953199 1.000000 0.000000
1.000000 0.967292 0.000000
0.031242 0.006984 0.106014
0.148095 0.000628 0.099287
0.269407 0.000000 0.096365
0.430414 0.000000 0.095651
0.635706 0.000000 0.096055
0.846776 0.000000 0.097113
1.000000 0.000000 0.097051
1.000000 0.000000 0.087545
1.000000 0.000000 0.080199
0.005970 0.108710 0.084741
0.121336 0.101774 0.082254
0.227128 0.098854 0.080334
0.384137 0.090607 0.071814
0.608367 0.073536 0.054802
0.829111 0.058539 0.041300
0.996447 0.048245 0.032386
1.000000 0.036933 0.023600
1.000000 0.028128 0.016732
0.000000 0.213312 0.075615
0.103718 0.207801 0.034759
0.219310 0.199002 0.044273
0.358688 0.192786 0.065495
0.574986 0.178978 0.039265
0.799189 0.163706 0.020808
0.968962 0.153198 0.010752
1.000000 0.134298 0.004323
1.000000 0.116929 0.000000
0.000000 0.356549 0.066136
0.079936 0.352385 0.000000
0.215352 0.344401 0.000000
0.342545 0.333849 0.005470
0.543383 0.322073 0.012818
0.764295 0.314526 0.000000
0.935347 0.312919 0.000000
1.000000 0.294613 0.000000
1.000000 0.264510 0.000000
0.000000 0.541011 0.043836
0.094377 0.538190 0.000000
0.219180 0.531172 0.000000
0.380372 0.521875 0.000000
0.509984 0.509984 0.000000
0.726851 0.512978 0.000000
0.895733 0.513940 0.000000
1.000000 0.505274 0.000000
1.000000 0.453645 0.000000
0.000000 0.723063 0.014343
0.117558 0.720654 0.000000
0.237139 0.713847 0.000000
0.392811 0.704782 0.000000
0.581316 0.693188 0.000000
0.688963 0.682469 0.000000
0.860917 0.692980 0.000000
0.986103 0.699344 0.000000
1.000000 0.637554 0.000000
0.008172 0.865563 0.000000
0.136095 0.863264 0.000000
0.254027 0.856753 0.000000
0.410200 0.848724 0.000000
0.607032 0.839377 0.000000
0.748328 0.830618 0.000000
0.848796 0.827737 0.000000
0.976226 0.840647 0.000000
1.000000 0.775618 0.000000
0.030602 0.973971 0.000000
0.159012 0.972580 0.000000
0.279571 0.967325 0.000000
0.438004 0.960734 0.000000
0.636208 0.952825 0.000000
0.814851 0.945059 0.000000
0.879491 0.939095 0.000000
0.971827 0.940643 0.000000
1.000000 0.873632 0.000000
0.062982 1.000000 0.000000
0.178657 1.000000 0.000000
0.291825 1.000000 0.000000
0.441266 1.000000 0.000000
0.629728 1.000000 0.000000
0.818947 1.000000 0.000000
0.900061 1.000000 0.000000
0.950292 1.000000 0.000000
1.000000 0.964130 0.000000
0.029088 0.005080 0.219302
0.145964 0.000000 0.213127
0.267176 0.000000 0.208196
0.428097 0.000000 0.206483
0.633297 0.000000 0.206323
0.844303 0.000000 0.207065
1.000000 0.000000 0.206090
1.000000 0.000000 0.184942
1.000000 0.000000 0.168592
0.004747 0.106096 0.200353
0.122475 0.098270 0.199309
0.249761 0.089678 0.189927
0.412777 0.079863 0.178885
0.618848 0.067645 0.167034
0.830355 0.055180 0.155664
0.995546 0.045515 0.147011
1.000000 0.034581 0.126241
1.000000 0.026028 0.109707
0.000000 0.211025 0.181078
0.088001 0.205697 0.171336
0.214500 0.196554 0.167411
0.354417 0.192348 0.167154
0.546264 0.183977 0.159296
0.758203 0.171735 0.147433
0.937166 0.158835 0.134574
1.000000 0.140123 0.117508
1.000000 0.118541 0.098372
0.000000 0.354336 0.178139
0.046904 0.350724 0.135889
0.180437 0.343954 0.098366
0.340772 0.331970 0.115238
0.517060 0.324458 0.153525
0.711017 0.318583 0.144478
0.885078 0.308977 0.125232
1.000000 0.295792 0.109197
1.000000 0.255891 0.086115
0.000000 0.538999 0.180624
0.000000 0.536770 0.064044
0.149118 0.532053 0.042748
0.335816 0.521793 0.033309
0.508670 0.508670 0.061929
0.713704 0.496643 0.086996
0.860756 0.491751 0.100910
0.987159 0.485250 0.081909
1.000000 0.431049 0.059342
0.000000 0.721131 0.165416
0.000000 0.719370 0.025171
0.135077 0.715260 0.000000
0.320489 0.705475 0.000000
0.550078 0.692958 0.000000
0.688380 0.680609 0.011352
0.862833 0.671813 0.003294
0.983054 0.666557 0.010734
1.000000 0.605145 0.014120
0.000000 0.863634 0.143883
0.001353 0.862055 0.000000
0.153683 0.858573 0.000000
0.334110 0.850092 0.000000
0.560639 0.840131 0.000000
0.741236 0.830701 0.000000
0.849601 0.824917 0.000000
0.978424 0.826406 0.000000
1.000000 0.752539 0.000000
0.000000 0.972398 0.118535
0.034576 0.972191 0.000000
0.183281 0.969607 0.000000
0.362560 0.962563 0.000000
0.586002 0.954041 0.000000
0.799235 0.945605 0.000000
0.875109 0.939089 0.000000
0.972800 0.937348 0.000000
1.000000 0.860668 0.000000
0.000000 1.000000 0.070223
0.074250 1.000000 0.000000
0.205420 1.000000 0.000000
0.370941 1.000000 0.000000
0.579240 1.000000 0.000000
0.789493 1.000000 0.000000
0.893591 1.000000 0.000000
0.946771 1.000000 0.000000
1.000000 0.960241 0.000000
0.026099 0.002260 0.383224
0.144593 0.000000 0.377153
0.266617 0.000000 0.370809
0.424707 0.000000 0.365052
0.629782 0.000000 0.364697
0.840709 0.000000 0.365305
1.000000 0.000000 0.364132
1.000000 0.000000 0.326095
1.000000 0.000000 0.296685
0.002122 0.102800 0.365214
0.118059 0.095060 0.368025
0.243466 0.086783 0.360567
0.408704 0.076256 0.349587
0.614904 0.064198 0.335503
0.826512 0.051830 0.322960
0.991795 0.042229 0.313727
1.000000 0.031781 0.276344
1.000000 0.023500 0.245547
0.000000 0.216637 0.343423
0.086260 0.201152 0.344264
0.212208 0.192013 0.341828
0.383595 0.179690 0.329402
0.594222 0.166536 0.314037
0.808601 0.153792 0.300765
0.975691 0.144187 0.291103
1.000000 0.125273 0.259198
1.000000 0.108106 0.229196
0.000000 0.351144 0.319655
0.043811 0.347059 0.309375
0.163560 0.340490 0.302107
0.337048 0.328098 0.289285
0.517837 0.322783 0.293917
0.718489 0.315039 0.285438
0.880309 0.307938 0.277746
0.997579 0.302780 0.272332
1.000000 0.268573 0.240974
0.000000 0.536112 0.319577
0.000635 0.533612 0.267667
0.117092 0.529486 0.255909
0.290667 0.520892 0.197848
0.505984 0.505984 0.224611
0.690591 0.497389 0.275837
0.837165 0.494271 0.273589
0.943092 0.492109 0.271897
1.000000 0.469481 0.258879
0.000000 0.718332 0.319282
0.000000 0.716317 0.252358
0.062059 0.713024 0.177580
0.263313 0.705892 0.140836
0.508836 0.692057 0.128059
0.687131 0.678652 0.167879
0.863486 0.669157 0.164406
0.951253 0.667840 0.230362
1.000000 0.641145 0.239720
0.000000 0.860839 0.319108
0.000000 0.859160 0.238841
0.015596 0.856860 0.097549
0.250949 0.851635 0.094593
0.499299 0.840774 0.077894
0.734396 0.830360 0.074753
0.850379 0.822559 0.111188
0.981241 0.817036 0.103534
1.000000 0.738226 0.098471
0.000000 0.970179 0.313119
0.000000 0.969913 0.205509
0.000000 0.969008 0.029507
0.255572 0.964801 0.053254
0.504530 0.955382 0.034954
0.760475 0.945965 0.015808
0.871172 0.938640 0.056597
0.973790 0.933197 0.066144
1.000000 0.845529 0.053899
0.000000 1.000000 0.266539
0.000000 1.000000 0.142327
0.029828 1.000000 0.000000
0.247106 1.000000 0.010701
0.484675 1.000000 0.000000
0.731717 1.000000 0.000000
0.880867 1.000000 0.000000
0.941873 1.000000 0.022745
1.000000 0.954323 0.025402
0.023611 0.000000 0.575712
0.143804 0.000000 0.569694
0.266916 0.000000 0.563401
0.425859 0.000000 0.555064
0.625622 0.000000 0.548675
0.836473 0.000000 0.549622
1.000000 0.000000 0.549926
1.000000 0.000000 0.492013
1.000000 0.000000 0.447230
0.000000 0.100355 0.558108
0.113580 0.091402 0.562694
0.237230 0.083553 0.555672
0.401654 0.073055 0.546359
0.610272 0.060150 0.533345
0.822015 0.047903 0.519426
0.987420 0.038383 0.509512
1.000000 0.028483 0.453875
1.000000 0.020527 0.406075
0.000000 0.220288 0.536580
0.083360 0.196721 0.540824
0.206928 0.187898 0.542252
0.375530 0.176214 0.531876
0.589311 0.162125 0.517095
0.804053 0.149654 0.501098
0.971412 0.140219 0.490096
1.000000 0.122213 0.441604
1.000000 0.105350 0.393514
0.000000 0.365562 0.507382
0.042304 0.342119 0.507959
0.161855 0.335046 0.506889
0.331469 0.323063 0.502472
0.554714 0.307443 0.485890
0.777112 0.294296 0.468832
0.948622 0.284706 0.457258
1.000000 0.259233 0.419178
1.000000 0.228309 0.371783
0.000000 0.532760 0.480790
0.000000 0.529918 0.466045
0.112980 0.525374 0.459288
0.276775 0.516820 0.448280
0.501649 0.501649 0.430864
0.691157 0.495690 0.441544
0.838633 0.492379 0.438548
0.947260 0.489546 0.435556
1.000000 0.460115 0.408334
0.000000 0.715045 0.481021
0.000000 0.712732 0.440760
0.074481 0.709126 0.415842
0.233294 0.702451 0.400893
0.455768 0.690219 0.325465
0.685052 0.675571 0.362700
0.839461 0.668453 0.403880
0.941047 0.668665 0.416138
1.000000 0.638688 0.394086
0.000000 0.857577 0.481087
0.000000 0.855879 0.428477
0.047543 0.853537 0.381985
0.194750 0.849409 0.335706
0.448555 0.840846 0.268945
0.720691 0.829262 0.248948
0.850703 0.820498 0.298893
0.983991 0.814350 0.290636
1.000000 0.751949 0.317887
0.000000 0.967656 0.474883
0.000000 0.967306 0.411605
0.036531 0.966281 0.349532
0.159707 0.963770 0.240532
0.455109 0.956316 0.222552
0.722883 0.945730 0.201929
0.873777 0.937445 0.231638
0.974306 0.931267 0.250630
1.000000 0.841414 0.221537
0.000000 1.000000 0.428150
0.000000 1.000000 0.360833
0.021398 1.000000 0.275869
0.119645 1.000000 0.129063
0.434677 1.000000 0.167417
0.687469 1.000000 0.150782
0.875475 1.000000 0.147136
0.944099 1.000000 0.193660
1.000000 0.952676 0.194065
0.023265 0.000000 0.797217
0.143171 0.000000 0.791234
0.266819 0.000000 0.784975
0.427831 0.000000 0.776675
0.627727 0.000000 0.766114
0.831584 0.000000 0.759674
0.996299 0.000000 0.761139
1.000000 0.000000 0.683119
1.000000 0.000000 0.620603
0.000000 0.100100 0.779819
0.108654 0.087220 0.785428
0.231300 0.079597 0.778650
0.394443 0.069408 0.769652
0.602951 0.056373 0.758174
0.816871 0.043397 0.745487
0.982435 0.033977 0.734793
1.000000 0.024677 0.659818
1.000000 0.017104 0.592110
0.000000 0.222421 0.758434
0.079264 0.192093 0.764566
0.201519 0.183446 0.768181
0.367769 0.172435 0.758403
0.580607 0.158484 0.745885
0.798893 0.144923 0.731617
0.966579 0.135690 0.719075
1.000000 0.118690 0.653125
1.000000 0.102185 0.583845
0.000000 0.376651 0.729280
0.039685 0.337112 0.732751
0.159216 0.329775 0.735179
0.326077 0.318220 0.735965
0.546217 0.303498 0.721763
0.772175 0.289359 0.705516
0.943883 0.279968 0.691395
1.000000 0.256019 0.639041
1.000000 0.225346 0.568753
0.000000 0.551544 0.692101
0.000000 0.526199 0.691941
0.112087 0.519786 0.690514
0.275068 0.510756 0.686614
0.495876 0.495876 0.678295
0.729694 0.479606 0.660638
0.906745 0.468617 0.646611
1.000000 0.446255 0.616939
1.000000 0.393924 0.545448
0.000000 0.711262 0.665294
0.000000 0.708607 0.655211
0.069995 0.704640 0.646726
0.228329 0.697486 0.637937
0.443482 0.685663 0.622703
0.681841 0.670976 0.601474
0.832729 0.668529 0.610528
0.944063 0.667767 0.605922
1.000000 0.635509 0.572694
0.000000 0.853977 0.665741
0.000000 0.852250 0.637457
0.044553 0.849837 0.610273
0.204854 0.845554 0.595002
0.421591 0.838089 0.571120
0.666962 0.827061 0.478539
0.850274 0.817199 0.526721
0.964839 0.812608 0.558334
1.000000 0.767618 0.544372
0.000000 0.964852 0.659720
0.000000 0.964386 0.618444
0.034755 0.963203 0.576271
0.196372 0.960430 0.557138
0.390779 0.954709 0.490366
0.668325 0.944579 0.427019
0.874569 0.935171 0.431418
0.974015 0.928163 0.473460
1.000000 0.838505 0.429318
0.000000 1.000000 0.602685
0.000000 1.000000 0.554210
0.027378 1.000000 0.504158
0.178313 1.000000 0.485374
0.327023 1.000000 0.353594
0.635208 1.000000 0.361332
0.845999 1.000000 0.350344
0.947624 1.000000 0.394740
1.000000 0.950865 0.397694
0.023011 0.000000 0.959554
0.142766 0.000000 0.953589
0.266623 0.000000 0.947347
0.428511 0.000000 0.939067
0.630540 0.000000 0.928522
0.832975 0.000000 0.917695
0.992725 0.000000 0.914282
1.000000 0.000000 0.823286
1.000000 0.000000 0.747742
0.000000 0.100142 0.942231
0.105091 0.084157 0.948315
0.227283 0.076628 0.941646
0.389859 0.066574 0.932785
0.597701 0.053725 0.921476
0.812011 0.040569 0.909826
0.978819 0.030763 0.899878
1.000000 0.021883 0.811853
1.000000 0.014596 0.729321
0.000000 0.223493 0.920909
0.076059 0.188831 0.927872
0.197744 0.180264 0.932474
0.362985 0.169559 0.922957
0.574593 0.156015 0.910765
0.793217 0.142299 0.898148
0.963105 0.132397 0.886873
1.000000 0.116109 0.809210
1.000000 0.099871 0.724151
0.000000 0.381561 0.891772
0.037238 0.333728 0.896518
0.156802 0.326292 0.900485
0.322520 0.314952 0.903570
0.540635 0.300943 0.889933
0.766146 0.286780 0.875777
0.940410 0.276495 0.862988
1.000000 0.253645 0.801390
1.000000 0.223160 0.714072
0.000000 0.564782 0.854563
0.000000 0.523991 0.856286
0.111446 0.515982 0.857050
0.273998 0.506751 0.856403
0.492175 0.492175 0.852808
0.723815 0.476366 0.836999
0.902889 0.464761 0.823123
1.000000 0.444244 0.789093
1.000000 0.392010 0.697766
0.000000 0.725506 0.818274
0.000000 0.711066 0.817075
0.069165 0.700740 0.814769
0.227639 0.693141 0.810029
0.442362 0.681409 0.799813
0.678909 0.667197 0.783367
0.868718 0.656231 0.764733
1.000000 0.647065 0.748380
1.000000 0.569004 0.653030
0.000000 0.851446 0.799995
0.000000 0.849683 0.789490
0.042526 0.847202 0.777501
0.202967 0.842788 0.765723
0.419782 0.835089 0.746379
0.656363 0.824492 0.721736
0.849406 0.814152 0.701659
0.954753 0.813497 0.721367
1.000000 0.765592 0.674525
0.000000 0.962858 0.794643
0.000000 0.962293 0.769490
0.033532 0.960981 0.742467
0.195119 0.957999 0.726584
0.411389 0.951954 0.703020
0.586797 0.942878 0.586436
0.856021 0.932890 0.581448
0.973187 0.925286 0.643894
1.000000 0.856813 0.636198
0.000000 1.000000 0.730841
0.000000 1.000000 0.696280
0.026521 1.000000 0.659921
0.177594 1.000000 0.644479
0.379972 1.000000 0.624018
0.581767 1.000000 0.520487
0.808670 1.000000 0.512995
0.949767 1.000000 0.538933
1.000000 0.949606 0.553792
0.020697 0.000000 1.000000
0.130111 0.000000 1.000000
0.244761 0.000000 1.000000
0.397008 0.000000 1.000000
0.591040 0.000000 1.000000
0.790287 0.000000 1.000000
0.945625 0.000000 1.000000
1.000000 0.000000 0.945137
1.000000 0.000000 0.858255
0.000000 0.092555 1.000000
0.093609 0.074784 1.000000
0.206728 0.068342 1.000000
0.359410 0.059621 1.000000
0.558316 0.048278 1.000000
0.767901 0.036432 1.000000
0.935233 0.027109 1.000000
1.000000 0.019452 0.944697
1.000000 0.012418 0.849122
0.000000 0.211161 1.000000
0.068445 0.173951 1.000000
0.181008 0.165182 1.000000
0.337116 0.156774 1.000000
0.541130 0.145957 1.000000
0.756917 0.134805 1.000000
0.929830 0.126135 1.000000
1.000000 0.113868 0.945535
1.000000 0.097853 0.846636
0.000000 0.372443 1.000000
0.033643 0.318645 1.000000
0.148125 0.309962 1.000000
0.304978 0.297946 1.000000
0.518538 0.288692 1.000000
0.744992 0.279105 1.000000
0.926331 0.271428 1.000000
1.000000 0.251571 0.943288
1.000000 0.221251 0.840999
0.000000 0.573068 0.995680
0.000000 0.522417 0.998588
0.110304 0.512554 1.000000
0.272087 0.502499 1.000000
0.488448 0.488448 1.000000
0.718569 0.473989 0.986315
0.897898 0.462106 0.974432
1.000000 0.442481 0.939419
1.000000 0.390342 0.830569
0.000000 0.740802 0.959424
0.000000 0.714080 0.959784
0.068903 0.697369 0.959250
0.227758 0.689493 0.956988
0.442140 0.677957 0.949987
0.676670 0.664309 0.937293
0.866050 0.653559 0.919807
1.000000 0.645375 0.903440
1.000000 0.567417 0.789022
0.000000 0.862365 0.930056
0.000000 0.853100 0.926969
0.042462 0.844550 0.922152
0.203307 0.839935 0.913276
0.419843 0.832108 0.897948
0.655461 0.821463 0.877720
0.848111 0.811142 0.858864
0.987773 0.803755 0.844042
1.000000 0.712860 0.742886
0.000000 0.961161 0.911543
0.000000 0.960502 0.900396
0.032515 0.959070 0.886891
0.194054 0.955896 0.873847
0.410151 0.949556 0.853980
0.643339 0.940121 0.830247
0.798176 0.930484 0.735556
0.971288 0.922394 0.798827
1.000000 0.862873 0.768673
0.000000 1.000000 0.842370
0.000000 1.000000 0.819972
0.025766 1.000000 0.795820
0.176941 1.000000 0.783382
0.379470 1.000000 0.767200
0.600138 1.000000 0.750779
0.761638 1.000000 0.659568
0.942285 1.000000 0.657321
1.000000 0.948565 0.694404
0.018283 0.000000 1.000000
0.115774 0.000000 1.000000
0.217945 0.000000 1.000000
0.353653 0.000000 1.000000
0.526673 0.000000 1.000000
0.704432 0.000000 1.000000
0.843084 0.000000 1.000000
0.943465 0.000000 1.000000
1.000000 0.000000 0.962345
0.000000 0.082584 1.000000
0.081049 0.064593 1.000000
0.181541 0.058833 1.000000
0.316978 0.051054 1.000000
0.493073 0.040970 1.000000
0.678206 0.030477 1.000000
0.825708 0.022249 1.000000
0.934241 0.016291 1.000000
1.000000 0.010370 0.962412
0.000000 0.188215 1.000000
0.058598 0.152523 1.000000
0.158521 0.144792 1.000000
0.296656 0.137278 1.000000
0.476774 0.127645 1.000000
0.666788 0.117754 1.000000
0.818675 0.110094 1.000000
0.930725 0.104602 1.000000
1.000000 0.095944 0.962466
0.000000 0.332003 1.000000
0.027891 0.280142 1.000000
0.129390 0.272418 1.000000
0.267884 0.261780 1.000000
0.455493 0.253434 1.000000
0.653565 0.244742 1.000000
0.811659 0.237804 1.000000
0.928074 0.232695 1.000000
1.000000 0.219445 0.961079
0.000000 0.513159 1.000000
0.000000 0.460281 1.000000
0.096091 0.449327 1.000000
0.238231 0.439879 1.000000
0.426782 0.426782 1.000000
0.634769 0.419267 1.000000
0.801211 0.413252 1.000000
0.924824 0.409141 1.000000
1.000000 0.388766 0.955967
0.000000 0.688426 1.000000
0.000000 0.654584 1.000000
0.062319 0.634407 1.000000
0.207961 0.627414 1.000000
0.405538 0.619702 1.000000
0.625309 0.613220 1.000000
0.812261 0.613522 1.000000
0.952688 0.614216 1.000000
1.000000 0.565914 0.917316
0.000000 0.826951 1.000000
0.000000 0.809805 1.000000
0.041078 0.796381 1.000000
0.195229 0.796883 1.000000
0.406029 0.798612 1.000000
0.641813 0.801226 1.000000
0.841573 0.804081 1.000000
0.986195 0.801063 0.991416
1.000000 0.711462 0.874635
0.000000 0.939522 1.000000
0.000000 0.936914 1.000000
0.032183 0.935936 1.000000
0.192259 0.942212 1.000000
0.410228 0.946964 0.995704
0.642521 0.937331 0.975828
0.830819 0.927579 0.958469
0.970486 0.919301 0.944991
1.000000 0.827234 0.846275
0.000000 1.000000 0.947546
0.000000 1.000000 0.936660
0.025040 1.000000 0.924267
0.176294 1.000000 0.914746
0.378949 1.000000 0.902726
0.599803 1.000000 0.891176
0.781986 1.000000 0.883263
0.894264 1.000000 0.798853
1.000000 0.949908 0.838584
