ai-pipeline/luts/hype.cube
TITLE "ClipVibe Hype"
LUT_3D_SIZE 33
DOMAIN_MIN 0.0 0.0 0.0
DOMAIN_MAX 1.0 1.0 1.0
0.013150 0.000000 0.000000
0.038582 0.000000 0.000000
0.064317 0.000000 0.000000
0.090376 0.000000 0.000000
0.116783 0.000000 0.000000
0.143566 0.000000 0.000000
0.170755 0.000000 0.000000
0.198389 0.000000 0.000000
0.226509 0.000000 0.000000
0.269717 0.000000 0.000000
0.314358 0.000000 0.000000
0.360739 0.000000 0.000000
0.409306 0.000000 0.000000
0.460770 0.000000 0.000000
0.516417 0.000000 0.000000
0.579221 0.000000 0.000000
0.668337 0.000000 0.000000
0.757405 0.000000 0.000000
0.820116 0.000000 0.000000
0.875641 0.000000 0.000000
0.926959 0.000000 0.000000
0.975358 0.000000 0.000000
1.000000 0.000000 0.000000
1.000000 0.000000 0.000000
1.000000 0.000000 0.000000
1.000000 0.000000 0.000000
1.000000 0.000000 0.000000
1.000000 0.000000 0.000000
1.000000 0.000000 0.000000
1.000000 0.000000 0.000000
1.000000 0.000000 0.000000
1.000000 0.000000 0.000000
1.000000 0.000000 0.000000
0.007570 0.020700 0.000000
0.032975 0.019057 0.000000
0.058684 0.017395 0.000000
0.084717 0.015711 0.000000
0.111098 0.014005 0.000000
0.137854 0.012275 0.000000
0.165019 0.010518 0.000000
0.192627 0.008732 0.000000
0.220722 0.006916 0.000000
0.263893 0.004124 0.000000
0.308498 0.001239 0.000000
0.354842 0.000000 0.000000
0.403373 0.000000 0.000000
0.454802 0.000000 0.000000
0.510413 0.000000 0.000000
0.573180 0.000000 0.000000
0.662250 0.000000 0.000000
0.751278 0.000000 0.000000
0.813966 0.000000 0.000000
0.869473 0.000000 0.000000
0.920777 0.000000 0.000000
0.969165 0.000000 0.000000
1.000000 0.000000 0.000000
1.000000 0.000000 0.000000
1.000000 0.000000 0.000000
1.000000 0.000000 0.000000
1.000000 0.000000 0.000000
1.000000 0.000000 0.000000
1.000000 0.000000 0.000000
1.000000 0.000000 0.000000
1.000000 0.000000 0.000000
1.000000 0.000000 0.000000
1.000000 0.000000 0.000000
0.001832 0.042520 0.000000
0.027212 0.040879 0.000000
0.052896 0.039218 0.000000
0.078904 0.037536 0.000000
0.105261 0.035831 0.000000
0.131994 0.034103 0.000000
0.159134 0.032347 0.000000
0.186719 0.030563 0.000000
0.214791 0.028748 0.000000
0.257928 0.025958 0.000000
0.302499 0.023076 0.000000
0.348811 0.020081 0.000000
0.397310 0.016944 0.000000
0.448706 0.013620 0.000000
0.504286 0.010026 0.000000
0.567020 0.005969 0.000000
0.656050 0.000211 0.000000
0.745045 0.000000 0.000000
0.807714 0.000000 0.000000
0.863208 0.000000 0.000000
0.914502 0.000000 0.000000
0.962882 0.000000 0.000000
1.000000 0.000000 0.000000
1.000000 0.000000 0.000000
1.000000 0.000000 0.000000
1.000000 0.000000 0.000000
1.000000 0.000000 0.000000
1.000000 0.000000 0.000000
1.000000 0.000000 0.000000
1.000000 0.000000 0.000000
1.000000 0.000000 0.000000
1.000000 0.000000 0.000000
1.000000 0.000000 0.000000
0.000000 0.064627 0.000000
0.021292 0.062988 0.000000
0.046953 0.061328 0.000000
0.072938 0.059648 0.000000
0.099273 0.057945 0.000000
0.125983 0.056217 0.000000
0.153102 0.054463 0.000000
0.180665 0.052681 0.000000
0.208716 0.050867 0.000000
0.251822 0.048079 0.000000
0.296363 0.045198 0.000000
0.342645 0.042205 0.000000
0.391115 0.039071 0.000000
0.442483 0.035749 0.000000
0.498034 0.032156 0.000000
0.560740 0.028101 0.000000
0.649737 0.022345 0.000000
0.738707 0.016592 0.000000
0.801361 0.012540 0.000000
0.856846 0.008951 0.000000
0.908133 0.005635 0.000000
0.956511 0.002506 0.000000
1.000000 0.000000 0.000000
1.000000 0.000000 0.000000
1.000000 0.000000 0.000000
1.000000 0.000000 0.000000
1.000000 0.000000 0.000000
1.000000 0.000000 0.000000
1.000000 0.000000 0.000000
1.000000 0.000000 0.000000
1.000000 0.000000 0.000000
1.000000 0.000000 0.000000
1.000000 0.000000 0.000000
0.000000 0.087042 0.000000
0.015213 0.085404 0.000000
0.040853 0.083746 0.000000
0.066817 0.082066 0.000000
0.093131 0.080365 0.000000
0.119821 0.078639 0.000000
0.146920 0.076886 0.000000
0.174463 0.075105 0.000000
0.202495 0.073292 0.000000
0.245573 0.070506 0.000000
0.290087 0.067627 0.000000
0.336343 0.064636 0.000000
0.384787 0.061503 0.000000
0.436131 0.058182 0.000000
0.491659 0.054591 0.000000
0.554342 0.050538 0.000000
0.643312 0.044784 0.000000
0.732262 0.039031 0.000000
0.794908 0.034980 0.000000
0.850388 0.031392 0.000000
0.901673 0.028075 0.000000
0.950051 0.024947 0.000000
0.996232 0.021960 0.000000
1.000000 0.019087 0.000000
1.000000 0.016306 0.000000
1.000000 0.014498 0.000000
1.000000 0.012720 0.000000
1.000000 0.010972 0.000000
1.000000 0.009251 0.000000
1.000000 0.007554 0.000000
1.000000 0.005879 0.000000
1.000000 0.004226 0.000000
1.000000 0.002593 0.000000
0.000000 0.109788 0.000000
0.008974 0.108150 0.000000
0.034593 0.106493 0.000000
0.060539 0.104816 0.000000
0.086834 0.103115 0.000000
0.113506 0.101390 0.000000
0.140586 0.099639 0.000000
0.168113 0.097859 0.000000
0.196127 0.096047 0.000000
0.239180 0.093263 0.000000
0.283670 0.090385 0.000000
0.329904 0.087395 0.000000
0.378327 0.084264 0.000000
0.429650 0.080945 0.000000
0.485159 0.077355 0.000000
0.547823 0.073302 0.000000
0.636774 0.067550 0.000000
0.725712 0.061798 0.000000
0.788354 0.057747 0.000000
0.843834 0.054159 0.000000
0.895122 0.050842 0.000000
0.943504 0.047713 0.000000
0.989692 0.044726 0.000000
1.000000 0.041852 0.000000
1.000000 0.039071 0.000000
1.000000 0.037262 0.000000
1.000000 0.035484 0.000000
1.000000 0.033736 0.000000
1.000000 0.032014 0.000000
1.000000 0.030316 0.000000
1.000000 0.028641 0.000000
1.000000 0.026987 0.000000
1.000000 0.025353 0.000000
0.000000 0.132890 0.000000
0.002570 0.131254 0.000000
0.028172 0.129599 0.000000
0.054100 0.127922 0.000000
0.080378 0.126222 0.000000
0.107034 0.124498 0.000000
0.134099 0.122748 0.000000
0.161610 0.120969 0.000000
0.189610 0.119158 0.000000
0.232641 0.116375 0.000000
0.277111 0.113499 0.000000
0.323326 0.110511 0.000000
0.371731 0.107380 0.000000
0.423038 0.104062 0.000000
0.478532 0.100473 0.000000
0.541183 0.096422 0.000000
0.630122 0.090670 0.000000
0.719057 0.084918 0.000000
0.781700 0.080867 0.000000
0.837184 0.077279 0.000000
0.888479 0.073962 0.000000
0.936870 0.070832 0.000000
0.983068 0.067844 0.000000
1.000000 0.064969 0.000000
1.000000 0.062188 0.000000
1.000000 0.060378 0.000000
1.000000 0.058600 0.000000
1.000000 0.056850 0.000000
1.000000 0.055127 0.000000
1.000000 0.053429 0.000000
1.000000 0.051753 0.000000
1.000000 0.050098 0.000000
1.000000 0.048463 0.000000
0.000000 0.156382 0.000000
0.000000 0.154747 0.000000
0.021585 0.153092 0.000000
0.047498 0.151416 0.000000
0.073762 0.149718 0.000000
0.100404 0.147995 0.000000
0.127455 0.146245 0.000000
0.154953 0.144467 0.000000
0.182940 0.142657 0.000000
0.225953 0.139875 0.000000
0.270407 0.137000 0.000000
0.316606 0.134013 0.000000
0.364998 0.130883 0.000000
0.416293 0.127566 0.000000
0.471777 0.123977 0.000000
0.534421 0.119926 0.000000
0.623356 0.114175 0.000000
0.712294 0.108423 0.000000
0.774945 0.104371 0.000000
0.830438 0.100782 0.000000
0.881745 0.097464 0.000000
0.930149 0.094334 0.000000
0.976363 0.091345 0.000000
1.000000 0.088469 0.000000
1.000000 0.085687 0.000000
1.000000 0.083876 0.000000
1.000000 0.082097 0.000000
1.000000 0.080346 0.000000
1.000000 0.078623 0.000000
1.000000 0.076923 0.000000
1.000000 0.075246 0.000000
1.000000 0.073591 0.000000
1.000000 0.071955 0.000000
0.000000 0.180298 0.000000
0.000000 0.178664 0.000000
0.014828 0.177010 0.000000
0.040728 0.175335 0.000000
0.066979 0.173637 0.000000
0.093609 0.171915 0.000000
0.120649 0.170166 0.000000
0.148136 0.168389 0.000000
0.176113 0.166579 0.000000
0.219113 0.163798 0.000000
0.263554 0.160924 0.000000
0.309741 0.157937 0.000000
0.358124 0.154808 0.000000
0.409412 0.151492 0.000000
0.464891 0.147904 0.000000
0.527533 0.143852 0.000000
0.616472 0.138101 0.000000
0.705422 0.132348 0.000000
0.768086 0.128296 0.000000
0.823595 0.124706 0.000000
0.874918 0.121387 0.000000
0.923341 0.118255 0.000000
0.969574 0.115265 0.000000
1.000000 0.112388 0.000000
1.000000 0.109604 0.000000
1.000000 0.107792 0.000000
1.000000 0.106012 0.000000
1.000000 0.104261 0.000000
1.000000 0.102536 0.000000
1.000000 0.100835 0.000000
1.000000 0.099157 0.000000
1.000000 0.097500 0.000000
1.000000 0.095863 0.000000
0.000000 0.217066 0.000000
0.000000 0.215433 0.000000
0.004359 0.213780 0.000000
0.030244 0.212106 0.000000
0.056481 0.210409 0.000000
0.083098 0.208688 0.000000
0.110125 0.206940 0.000000
0.137601 0.205163 0.000000
0.165567 0.203354 0.000000
0.208553 0.200574 0.000000
0.252982 0.197701 0.000000
0.299162 0.194715 0.000000
0.347539 0.191586 0.000000
0.398825 0.188269 0.000000
0.454307 0.184681 0.000000
0.516958 0.180629 0.000000
0.605919 0.174876 0.000000
0.694904 0.169121 0.000000
0.757601 0.165067 0.000000
0.813143 0.161475 0.000000
0.864501 0.158153 0.000000
0.912960 0.155020 0.000000
0.959232 0.152027 0.000000
1.000000 0.149147 0.000000
1.000000 0.146360 0.000000
1.000000 0.144547 0.000000
1.000000 0.142765 0.000000
1.000000 0.141011 0.000000
1.000000 0.139285 0.000000
1.000000 0.137582 0.000000
1.000000 0.135902 0.000000
1.000000 0.134243 0.000000
1.000000 0.132604 0.000000
0.000000 0.255076 0.000000
0.000000 0.253444 0.000000
0.000000 0.251792 0.000000
0.019340 0.250118 0.000000
0.045568 0.248422 0.000000
0.072177 0.246701 0.000000
0.099198 0.244954 0.000000
0.126668 0.243177 0.000000
0.154630 0.241369 0.000000
0.197611 0.238589 0.000000
0.242040 0.235716 0.000000
0.288221 0.232730 0.000000
0.336604 0.229601 0.000000
0.387900 0.226283 0.000000
0.443398 0.222694 0.000000
0.506072 0.218641 0.000000
0.595078 0.212885 0.000000
0.684120 0.207126 0.000000
0.746864 0.203069 0.000000
0.802454 0.199474 0.000000
0.853860 0.196149 0.000000
0.902369 0.193012 0.000000
0.948691 0.190016 0.000000
0.993273 0.187133 0.000000
1.000000 0.184343 0.000000
1.000000 0.182527 0.000000
1.000000 0.180742 0.000000
1.000000 0.178987 0.000000
1.000000 0.177257 0.000000
1.000000 0.175552 0.000000
1.000000 0.173870 0.000000
1.000000 0.172208 0.000000
1.000000 0.170566 0.000000
0.000000 0.294589 0.000000
0.000000 0.292957 0.000000
0.000000 0.291305 0.000000
0.007969 0.289632 0.000000
0.034195 0.287936 0.000000
0.060803 0.286215 0.000000
0.087824 0.284468 0.000000
0.115295 0.282691 0.000000
0.143260 0.280883 0.000000
0.186248 0.278102 0.000000
0.230686 0.275229 0.000000
0.276881 0.272241 0.000000
0.325282 0.269111 0.000000
0.376602 0.265792 0.000000
0.432130 0.262201 0.000000
0.494845 0.258145 0.000000
0.583919 0.252385 0.000000
0.673044 0.246621 0.000000
0.735853 0.242559 0.000000
0.791506 0.238960 0.000000
0.842975 0.235631 0.000000
0.891548 0.232490 0.000000
0.937934 0.229490 0.000000
0.982581 0.226603 0.000000
1.000000 0.223808 0.000000
1.000000 0.221989 0.000000
1.000000 0.220202 0.000000
1.000000 0.218443 0.000000
1.000000 0.216711 0.000000
1.000000 0.215003 0.000000
1.000000 0.213317 0.000000
1.000000 0.211653 0.000000
1.000000 0.210008 0.000000
0.000000 0.335984 0.000000
0.000000 0.334352 0.000000
0.000000 0.332699 0.000000
0.000000 0.331026 0.000000
0.022292 0.329330 0.000000
0.048906 0.327609 0.000000
0.075934 0.325861 0.000000
0.103415 0.324083 0.000000
0.131390 0.322274 0.000000
0.174396 0.319493 0.000000
0.218857 0.316618 0.000000
0.265080 0.313628 0.000000
0.313513 0.310496 0.000000
0.364872 0.307175 0.000000
0.420447 0.303581 0.000000
0.483222 0.299521 0.000000
0.572393 0.293754 0.000000
0.661627 0.287983 0.000000
0.724522 0.283916 0.000000
0.780257 0.280311 0.000000
0.831806 0.276977 0.000000
0.880459 0.273831 0.000000
0.926925 0.270826 0.000000
0.971653 0.267933 0.000000
1.000000 0.265133 0.000000
1.000000 0.263311 0.000000
1.000000 0.261520 0.000000
1.000000 0.259759 0.000000
1.000000 0.258024 0.000000
1.000000 0.256315 0.000000
1.000000 0.254628 0.000000
1.000000 0.252963 0.000000
1.000000 0.251318 0.000000
0.000000 0.379865 0.000000
0.000000 0.378232 0.000000
0.000000 0.376579 0.000000
0.000000 0.374905 0.000000
0.009737 0.373208 0.000000
0.036365 0.371486 0.000000
0.063410 0.369737 0.000000
0.090908 0.367959 0.000000
0.118903 0.366148 0.000000
0.161942 0.363365 0.000000
0.206441 0.360487 0.000000
0.252707 0.357495 0.000000
0.301189 0.354359 0.000000
0.352605 0.351034 0.000000
0.408248 0.347436 0.000000
0.471105 0.343371 0.000000
0.560405 0.337596 0.000000
0.649784 0.331815 0.000000
0.712789 0.327741 0.000000
0.768628 0.324130 0.000000
0.820278 0.320789 0.000000
0.869030 0.317636 0.000000
0.915580 0.314626 0.000000
0.960365 0.311730 0.000000
1.000000 0.308928 0.000000
1.000000 0.307105 0.000000
1.000000 0.305314 0.000000
1.000000 0.303553 0.000000
1.000000 0.301818 0.000000
1.000000 0.300108 0.000000
1.000000 0.298422 0.000000
1.000000 0.296757 0.000000
1.000000 0.295112 0.000000
0.000000 0.427327 0.000000
0.000000 0.425694 0.000000
0.000000 0.424040 0.000000
0.000000 0.422364 0.000000
0.000000 0.420665 0.000000
0.022944 0.418942 0.000000
0.050016 0.417191 0.000000
0.077543 0.415411 0.000000
0.105569 0.413598 0.000000
0.148660 0.410811 0.000000
0.193215 0.407930 0.000000
0.239544 0.404934 0.000000
0.288097 0.401794 0.000000
0.339593 0.398463 0.000000
0.395328 0.394859 0.000000
0.458297 0.390787 0.000000
0.547770 0.385000 0.000000
0.637336 0.379208 0.000000
0.700476 0.375125 0.000000
0.756400 0.371508 0.000000
0.808098 0.368165 0.000000
0.856864 0.365011 0.000000
0.903414 0.362000 0.000000
0.948198 0.359104 0.000000
0.991525 0.356302 0.000000
1.000000 0.354479 0.000000
1.000000 0.352689 0.000000
1.000000 0.350927 0.000000
1.000000 0.349193 0.000000
1.000000 0.347483 0.000000
1.000000 0.345796 0.000000
1.000000 0.344131 0.000000
1.000000 0.342486 0.000000
0.000000 0.480905 0.000000
0.000000 0.479269 0.000000
0.000000 0.477613 0.000000
0.000000 0.475935 0.000000
0.000000 0.474233 0.000000
0.008055 0.472507 0.000000
0.035170 0.470754 0.000000
0.062742 0.468970 0.000000
0.090816 0.467155 0.000000
0.133984 0.464363 0.000000
0.178623 0.461476 0.000000
0.225044 0.458474 0.000000
0.273699 0.455328 0.000000
0.325308 0.451990 0.000000
0.381172 0.448377 0.000000
0.444295 0.444295 0.000000
0.533944 0.438497 0.000000
0.623593 0.432700 0.000000
0.686738 0.428616 0.000000
0.742663 0.424999 0.000000
0.794360 0.421656 0.000000
0.843126 0.418502 0.000000
0.889676 0.415492 0.000000
0.934460 0.412595 0.000000
0.977787 0.409793 0.000000
1.000000 0.407970 0.000000
1.000000 0.406180 0.000000
1.000000 0.404418 0.000000
1.000000 0.402684 0.000000
1.000000 0.400974 0.000000
1.000000 0.399287 0.000000
1.000000 0.397622 0.000000
1.000000 0.395977 0.000000
0.000000 0.556933 0.000000
0.000000 0.555293 0.000000
0.000000 0.553632 0.000000
0.000000 0.551950 0.000000
0.000000 0.550243 0.000000
0.000000 0.548512 0.000000
0.014788 0.546753 0.000000
0.042447 0.544964 0.000000
0.070612 0.543143 0.000000
0.113924 0.540342 0.000000
0.158708 0.537446 0.000000
0.205258 0.534435 0.000000
0.254024 0.531281 0.000000
0.305721 0.527938 0.000000
0.361646 0.524321 0.000000
0.424791 0.520238 0.000000
0.514440 0.514440 0.000000
0.604089 0.508642 0.000000
0.667234 0.504559 0.000000
0.723159 0.500942 0.000000
0.774856 0.497599 0.000000
0.823622 0.494445 0.000000
0.870172 0.491434 0.000000
0.914957 0.488538 0.000000
0.958283 0.485736 0.000000
0.986470 0.483913 0.000000
1.000000 0.482122 0.000000
1.000000 0.480361 0.000000
1.000000 0.478626 0.000000
1.000000 0.476917 0.000000
1.000000 0.475230 0.000000
1.000000 0.473565 0.000000
1.000000 0.471920 0.000000
0.000000 0.632903 0.000000
0.000000 0.631258 0.000000
0.000000 0.629593 0.000000
0.000000 0.627906 0.000000
0.000000 0.626196 0.000000
0.000000 0.624462 0.000000
0.000000 0.622700 0.000000
0.022906 0.620910 0.000000
0.051093 0.619087 0.000000
0.094420 0.616285 0.000000
0.139204 0.613388 0.000000
0.185754 0.610378 0.000000
0.234520 0.607224 0.000000
0.286217 0.603881 0.000000
0.342142 0.600264 0.000000
0.405287 0.596180 0.000000
0.494936 0.590383 0.000000
0.584585 0.584585 0.000000
0.647730 0.580501 0.000000
0.703655 0.576885 0.000000
0.755352 0.573541 0.000000
0.804118 0.570388 0.000000
0.850668 0.567377 0.000000
0.895453 0.564481 0.000000
0.938779 0.561679 0.000000
0.966966 0.559856 0.000000
0.994657 0.558065 0.000000
1.000000 0.556304 0.000000
1.000000 0.554570 0.000000
1.000000 0.552867 0.000000
1.000000 0.551193 0.000000
1.000000 0.549546 0.000000
1.000000 0.547924 0.000000
0.000000 0.686394 0.000000
0.000000 0.684749 0.000000
0.000000 0.683084 0.000000
0.000000 0.681397 0.000000
0.000000 0.679687 0.000000
0.000000 0.677953 0.000000
0.000000 0.676191 0.000000
0.009168 0.674401 0.000000
0.037355 0.672578 0.000000
0.080682 0.669776 0.000000
0.125466 0.666880 0.000000
0.172016 0.663869 0.000000
0.220782 0.660715 0.000000
0.272480 0.657372 0.000000
0.328404 0.653755 0.000000
0.391550 0.649672 0.000000
0.481198 0.643874 0.000000
0.570847 0.638076 0.000000
0.633993 0.633993 0.000000
0.689917 0.630376 0.000000
0.741615 0.627032 0.000000
0.790380 0.623879 0.000000
0.836939 0.620872 0.000000
0.881775 0.617996 0.000000
0.925192 0.615230 0.000000
0.953458 0.613440 0.000000
0.981243 0.611687 0.000000
1.000000 0.609969 0.000000
1.000000 0.608282 0.000000
1.000000 0.606625 0.000000
1.000000 0.604996 0.000000
1.000000 0.603392 0.000000
1.000000 0.601812 0.000000
0.000000 0.733768 0.000000
0.000000 0.732123 0.000000
0.000000 0.730458 0.000000
0.000000 0.728772 0.000000
0.000000 0.727062 0.000000
0.000000 0.725327 0.000000
0.000000 0.723566 0.000000
0.000000 0.721775 0.000000
0.025188 0.719952 0.000000
0.068515 0.717150 0.000000
0.113300 0.714254 0.000000
0.159850 0.711244 0.000000
0.208615 0.708090 0.000000
0.260313 0.704746 0.000000
0.316237 0.701130 0.000000
0.379383 0.697046 0.000000
0.469032 0.691248 0.000000
0.558681 0.685451 0.000000
0.621828 0.681368 0.000000
0.677804 0.677772 0.000000
0.729610 0.674472 0.000000
0.778529 0.671380 0.000000
0.825269 0.668446 0.000000
0.870275 0.665639 0.000000
0.913851 0.662937 0.000000
0.942217 0.661187 0.000000
0.970097 0.659472 0.000000
0.997533 0.657791 0.000000
1.000000 0.656140 0.000000
1.000000 0.654516 0.000000
1.000000 0.652919 0.000000
1.000000 0.651346 0.000000
1.000000 0.649796 0.000000
0.000000 0.777562 0.000000
0.000000 0.775917 0.000000
0.000000 0.774252 0.000000
0.000000 0.772565 0.000000
0.000000 0.770856 0.000000
0.000000 0.769121 0.000000
0.000000 0.767360 0.000000
0.000000 0.765569 0.000000
0.013941 0.763746 0.000000
0.057268 0.760944 0.000000
0.102052 0.758048 0.000000
0.148602 0.755037 0.000000
0.197368 0.751883 0.000000
0.249066 0.748540 0.000000
0.304990 0.744923 0.000000
0.368135 0.740840 0.000000
0.457798 0.735047 0.000000
0.547604 0.729313 0.000000
0.610960 0.725314 0.000000
0.667137 0.721799 0.000000
0.719119 0.718570 0.000000
0.768196 0.715542 0.000000
0.815080 0.712666 0.000000
0.860218 0.709912 0.000000
0.903915 0.707259 0.000000
0.932357 0.705539 0.000000
0.960309 0.703854 0.000000
0.987813 0.702200 0.000000
1.000000 0.700575 0.000000
1.000000 0.698976 0.000000
1.000000 0.697403 0.000000
1.000000 0.695852 0.000000
1.000000 0.694323 0.000000
0.000000 0.818872 0.000000
0.000000 0.817227 0.000000
0.000000 0.815562 0.000000
0.000000 0.813875 0.000000
0.000000 0.812166 0.000000
0.000000 0.810431 0.000000
0.000000 0.808670 0.000000
0.000000 0.806879 0.000000
0.003332 0.805056 0.000000
0.046658 0.802254 0.000000
0.091443 0.799358 0.000000
0.137993 0.796347 0.000000
0.186759 0.793194 0.000000
0.238456 0.789850 0.000000
0.294404 0.786243 0.000000
0.357658 0.782203 0.000000
0.447603 0.776524 0.000000
0.537703 0.770908 0.000000
0.601251 0.766987 0.000000
0.657588 0.763536 0.000000
0.709710 0.760364 0.000000
0.758911 0.757386 0.000000
0.805907 0.754555 0.000000
0.851146 0.751842 0.000000
0.894936 0.749226 0.000000
0.923435 0.747529 0.000000
0.951440 0.745865 0.000000
0.978995 0.744231 0.000000
1.000000 0.742625 0.000000
1.000000 0.741045 0.000000
1.000000 0.739488 0.000000
1.000000 0.737953 0.000000
1.000000 0.736439 0.000000
0.000000 0.858305 0.000000
0.000000 0.856660 0.000000
0.000000 0.854995 0.000000
0.000000 0.853309 0.000000
0.000000 0.851599 0.000000
0.000000 0.849864 0.000000
0.000000 0.848103 0.000000
0.000000 0.846312 0.000000
0.000000 0.844489 0.000000
0.036531 0.841687 0.000000
0.081316 0.838791 0.000000
0.127889 0.835790 0.000000
0.176731 0.832667 0.000000
0.228565 0.829378 0.000000
0.284697 0.825845 0.000000
0.348149 0.821885 0.000000
0.438356 0.816312 0.000000
0.528695 0.810792 0.000000
0.592398 0.806933 0.000000
0.648861 0.803534 0.000000
0.701092 0.800405 0.000000
0.750389 0.797465 0.000000
0.797470 0.794668 0.000000
0.842785 0.791986 0.000000
0.886643 0.789398 0.000000
0.915183 0.787717 0.000000
0.943226 0.786068 0.000000
0.970816 0.784449 0.000000
0.997989 0.782856 0.000000
1.000000 0.781288 0.000000
1.000000 0.779742 0.000000
1.000000 0.778218 0.000000
1.000000 0.776713 0.000000
0.000000 0.896243 0.000000
0.000000 0.894598 0.000000
0.000000 0.892933 0.000000
0.000000 0.891246 0.000000
0.000000 0.889536 0.000000
0.000000 0.887802 0.000000
0.000000 0.886041 0.000000
0.000000 0.884255 0.000000
0.000000 0.882444 0.000000
0.026911 0.879674 0.000000
0.071820 0.876828 0.000000
0.118542 0.873887 0.000000
0.167533 0.870824 0.000000
0.219517 0.867596 0.000000
0.275804 0.864125 0.000000
0.339420 0.860231 0.000000
0.429841 0.854744 0.000000
0.520370 0.849301 0.000000
0.584194 0.845491 0.000000
0.640756 0.842131 0.000000
0.693070 0.839035 0.000000
0.742438 0.836124 0.000000
0.789581 0.833353 0.000000
0.834950 0.830692 0.000000
0.878853 0.828122 0.000000
0.907421 0.826453 0.000000
0.935490 0.824814 0.000000
0.963102 0.823203 0.000000
0.990295 0.821619 0.000000
1.000000 0.820058 0.000000
1.000000 0.818518 0.000000
1.000000 0.816999 0.000000
1.000000 0.815499 0.000000
0.000000 0.932946 0.000000
0.000000 0.931302 0.000000
0.000000 0.929645 0.000000
0.000000 0.927972 0.000000
0.000000 0.926282 0.000000
0.000000 0.924574 0.000000
0.000000 0.922845 0.000000
0.000000 0.921094 0.000000
0.000000 0.919317 0.000000
0.018036 0.916599 0.000000
0.063070 0.913803 0.000000
0.109917 0.910912 0.000000
0.159033 0.907899 0.000000
0.211142 0.904722 0.000000
0.267556 0.901302 0.000000
0.331305 0.897462 0.000000
0.421896 0.892044 0.000000
0.512575 0.886661 0.000000
0.576491 0.882887 0.000000
0.633125 0.879556 0.000000
0.685498 0.876485 0.000000
0.734916 0.873594 0.000000
0.782099 0.870838 0.000000
0.827502 0.868191 0.000000
0.871434 0.865633 0.000000
0.900017 0.863969 0.000000
0.928098 0.862336 0.000000
0.955721 0.860730 0.000000
0.982923 0.859149 0.000000
1.000000 0.857590 0.000000
1.000000 0.856053 0.000000
1.000000 0.854535 0.000000
1.000000 0.853035 0.000000
0.000000 0.956858 0.000000
0.000000 0.955236 0.000000
0.000000 0.953600 0.000000
0.000000 0.951948 0.000000
0.000000 0.950279 0.000000
0.000000 0.948591 0.000000
0.000000 0.946883 0.000000
0.000000 0.945152 0.000000
0.000000 0.943395 0.000000
0.012474 0.940706 0.000000
0.057581 0.937940 0.000000
0.104499 0.935077 0.000000
0.153685 0.932093 0.000000
0.205865 0.928944 0.000000
0.262350 0.925553 0.000000
0.326172 0.921742 0.000000
0.416856 0.916361 0.000000
0.507612 0.911009 0.000000
0.571575 0.907254 0.000000
0.628244 0.903937 0.000000
0.680644 0.900877 0.000000
0.730084 0.897995 0.000000
0.777284 0.895246 0.000000
0.822700 0.892604 0.000000
0.866640 0.890049 0.000000
0.895228 0.888388 0.000000
0.923311 0.886755 0.000000
0.950936 0.885150 0.000000
0.978137 0.883568 0.000000
1.000000 0.882009 0.000000
1.000000 0.880471 0.000000
1.000000 0.878951 0.000000
1.000000 0.877450 0.000000
0.000000 0.980425 0.000000
0.000000 0.978822 0.000000
0.000000 0.977205 0.000000
0.000000 0.975572 0.000000
0.000000 0.973921 0.000000
0.000000 0.972252 0.000000
0.000000 0.970562 0.000000
0.000000 0.968849 0.000000
0.000000 0.967110 0.000000
0.007155 0.964447 0.000000
0.052326 0.961706 0.000000
0.099307 0.958869 0.000000
0.148555 0.955910 0.000000
0.200795 0.952785 0.000000
0.257340 0.949418 0.000000
0.321225 0.945632 0.000000
0.411984 0.940282 0.000000
0.502802 0.934955 0.000000
0.566800 0.931214 0.000000
0.623495 0.927908 0.000000
0.675914 0.924855 0.000000
0.725367 0.921978 0.000000
0.772576 0.919233 0.000000
0.817997 0.916593 0.000000
0.861939 0.914039 0.000000
0.890526 0.912377 0.000000
0.918608 0.910744 0.000000
