ai-pipeline/luts/hype.cube
TITLE "ClipVibe Hype"
LUT_3D_SIZE 5
DOMAIN_MIN 0.0 0.0 0.0
DOMAIN_MAX 1.0 1.0 1.0
0.013150 0.000000 0.000000
0.226509 0.000000 0.000000
0.668337 0.000000 0.000000
1.000000 0.000000 0.000000
1.000000 0.000000 0.000000
0.000000 0.180298 0.000000
0.176113 0.166579 0.000000
0.616472 0.138101 0.000000
1.000000 0.109604 0.000000
1.000000 0.095863 0.000000
0.000000 0.556933 0.000000
0.070612 0.543143 0.000000
0.514440 0.514440 0.000000
0.958283 0.485736 0.000000
1.000000 0.471920 0.000000
0.000000 0.932946 0.000000
0.000000 0.919317 0.000000
0.421896 0.892044 0.000000
0.871434 0.865633 0.000000
1.000000 0.853035 0.000000
0.000000 1.000000 0.000000
0.000000 1.000000 0.000000
0.385002 1.000000 0.000000
0.834565 1.000000 0.000000
1.000000 1.000000 0.000000
0.008424 0.000000 0.221913
0.221607 0.000000 0.208126
0.663178 0.000000 0.179569
1.000000 0.000000 0.151079
1.000000 0.000000 0.137373
0.000000 0.176068 0.176068
0.171277 0.161813 0.161813
0.598379 0.136911 0.136911
1.000000 0.105465 0.105465
1.000000 0.088256 0.088256
0.000000 0.552266 0.079687
0.043941 0.547198 0.043941
0.511965 0.511965 0.008709
0.921378 0.486306 0.051233
1.000000 0.470267 0.010239
0.000000 0.928277 0.000000
0.000000 0.925208 0.000000
0.406369 0.894198 0.000000
0.870595 0.863937 0.000000
1.000000 0.849356 0.000000
0.000000 1.000000 0.000000
0.000000 1.000000 0.000000
0.366498 1.000000 0.000000
0.827941 1.000000 0.000000
1.000000 1.000000 0.000000
0.000000 0.000000 0.684729
0.211261 0.000000 0.670964
0.652377 0.000000 0.642436
1.000000 0.000000 0.613956
1.000000 0.000000 0.600247
0.000000 0.165993 0.639817
0.158118 0.149928 0.653184
0.622372 0.115020 0.618101
1.000000 0.086123 0.576986
1.000000 0.072267 0.560166
0.000000 0.542520 0.542520
0.031976 0.535233 0.535233
0.500000 0.500000 0.500000
0.945822 0.470762 0.470762
1.000000 0.458774 0.458764
0.000000 0.918740 0.445839
0.000000 0.914642 0.422429
0.370350 0.894637 0.361372
0.864956 0.856360 0.319525
1.000000 0.839866 0.358620
0.000000 1.000000 0.397559
0.000000 1.000000 0.369724
0.324739 1.000000 0.302884
0.810662 1.000000 0.263056
1.000000 1.000000 0.244752
0.000000 0.000000 1.000000
0.200725 0.000000 1.000000
0.641490 0.000000 1.000000
1.000000 0.000000 1.000000
1.000000 0.000000 1.000000
0.000000 0.156257 1.000000
0.146542 0.139881 1.000000
0.601409 0.107522 1.000000
1.000000 0.075090 1.000000
1.000000 0.061427 1.000000
0.000000 0.532772 1.000000
0.030650 0.521530 1.000000
0.486178 0.486178 1.000000
0.974448 0.445479 0.974448
1.000000 0.429593 0.949137
0.000000 0.909393 0.908556
0.000000 0.904166 0.902132
0.358083 0.881789 0.875938
0.851058 0.843803 0.836549
1.000000 0.834428 0.824564
0.000000 1.000000 0.860543
0.000000 1.000000 0.847030
0.311972 1.000000 0.808496
0.788559 1.000000 0.757123
1.000000 1.000000 0.735416
0.000000 0.000000 1.000000
0.195597 0.000000 1.000000
0.636231 0.000000 1.000000
1.000000 0.000000 1.000000
1.000000 0.000000 1.000000
0.000000 0.151591 1.000000
0.141125 0.135135 1.000000
0.593777 0.103397 1.000000
1.000000 0.071572 1.000000
1.000000 0.056204 1.000000
0.000000 0.528080 1.000000
0.027984 0.515886 1.000000
0.480506 0.480506 1.000000
0.961587 0.441766 1.000000
1.000000 0.423394 1.000000
0.000000 0.904934 1.000000
0.000000 0.897991 1.000000
0.359761 0.873933 1.000000
0.847414 0.836270 1.000000
1.000000 0.815495 1.000000
0.000000 1.000000 1.000000
0.000000 1.000000 1.000000
0.306418 1.000000 1.000000
0.780904 1.000000 1.000000
1.000000 1.000000 0.998462
