ai-pipeline/luts/hype.cube
TITLE "ClipVibe Hype"
LUT_3D_SIZE 9
DOMAIN_MIN 0.0 0.0 0.0
DOMAIN_MAX 1.0 1.0 1.0
0.013150 0.000000 0.000000
0.116783 0.000000 0.000000
0.226509 0.000000 0.000000
0.409306 0.000000 0.000000
0.668337 0.000000 0.000000
0.926959 0.000000 0.000000
1.000000 0.000000 0.000000
1.000000 0.000000 0.000000
1.000000 0.000000 0.000000
0.000000 0.087042 0.000000
0.093131 0.080365 0.000000
0.202495 0.073292 0.000000
0.384787 0.061503 0.000000
0.643312 0.044784 0.000000
0.901673 0.028075 0.000000
1.000000 0.016306 0.000000
1.000000 0.009251 0.000000
1.000000 0.002593 0.000000
0.000000 0.180298 0.000000
0.066979 0.173637 0.000000
0.176113 0.166579 0.000000
0.358124 0.154808 0.000000
0.616472 0.138101 0.000000
0.874918 0.121387 0.000000
1.000000 0.109604 0.000000
1.000000 0.102536 0.000000
1.000000 0.095863 0.000000
0.000000 0.335984 0.000000
0.022292 0.329330 0.000000
0.131390 0.322274 0.000000
0.313513 0.310496 0.000000
0.572393 0.293754 0.000000
0.831806 0.276977 0.000000
1.000000 0.265133 0.000000
1.000000 0.258024 0.000000
1.000000 0.251318 0.000000
0.000000 0.556933 0.000000
0.000000 0.550243 0.000000
0.070612 0.543143 0.000000
0.254024 0.531281 0.000000
0.514440 0.514440 0.000000
0.774856 0.497599 0.000000
0.958283 0.485736 0.000000
1.000000 0.478626 0.000000
1.000000 0.471920 0.000000
0.000000 0.777562 0.000000
0.000000 0.770856 0.000000
0.013941 0.763746 0.000000
0.197368 0.751883 0.000000
0.457798 0.735047 0.000000
0.719119 0.718570 0.000000
0.903915 0.707259 0.000000
1.000000 0.700575 0.000000
1.000000 0.694323 0.000000
0.000000 0.932946 0.000000
0.000000 0.926282 0.000000
0.000000 0.919317 0.000000
0.159033 0.907899 0.000000
0.421896 0.892044 0.000000
0.685498 0.876485 0.000000
0.871434 0.865633 0.000000
0.982923 0.859149 0.000000
1.000000 0.853035 0.000000
0.000000 1.000000 0.000000
0.000000 1.000000 0.000000
0.000000 1.000000 0.000000
0.138830 1.000000 0.000000
0.402644 0.987050 0.000000
0.666729 0.971686 0.000000
0.852726 0.960858 0.000000
0.964141 0.954345 0.000000
1.000000 0.948172 0.000000
0.000000 1.000000 0.000000
0.000000 1.000000 0.000000
0.000000 1.000000 0.000000
0.120898 1.000000 0.000000
0.385002 1.000000 0.000000
0.648937 1.000000 0.000000
0.834565 1.000000 0.000000
0.945655 1.000000 0.000000
1.000000 1.000000 0.000000
0.010864 0.000000 0.107280
0.114453 0.000000 0.100581
0.224136 0.000000 0.093488
0.406872 0.000000 0.081670
0.665837 0.000000 0.064922
0.924417 0.000000 0.048200
1.000000 0.000000 0.036429
1.000000 0.000000 0.029376
1.000000 0.000000 0.022723
0.000000 0.085264 0.085264
0.091161 0.077969 0.077969
0.198575 0.071417 0.071417
0.374262 0.061403 0.061403
0.647450 0.040718 0.040718
0.913908 0.021822 0.021822
1.000000 0.009792 0.009792
1.000000 0.002696 0.002696
1.000000 0.000000 0.000000
0.000000 0.178557 0.060391
0.057097 0.174403 0.045995
0.175038 0.164924 0.036960
0.324335 0.158990 0.063665
0.607002 0.137515 0.022573
0.884250 0.116135 0.000000
1.000000 0.103713 0.000000
1.000000 0.096547 0.000000
1.000000 0.089797 0.000000
0.000000 0.334033 0.020831
0.008281 0.331660 0.003011
0.122167 0.323314 0.000000
0.312287 0.309373 0.000000
0.565276 0.292195 0.000000
0.838458 0.272834 0.000000
1.000000 0.260279 0.000000
1.000000 0.252977 0.000000
1.000000 0.246119 0.000000
0.000000 0.554680 0.000000
0.000000 0.553266 0.000000
0.057926 0.545378 0.000000
0.246202 0.532206 0.000000
0.513505 0.513505 0.000000
0.778270 0.494964 0.000000
0.963815 0.482368 0.000000
1.000000 0.474932 0.000000
1.000000 0.467967 0.000000
0.000000 0.775285 0.000000
0.000000 0.774156 0.000000
0.000000 0.766484 0.000000
0.186639 0.753684 0.000000
0.452043 0.735532 0.000000
0.718488 0.717792 0.000000
0.906047 0.705503 0.000000
1.000000 0.698376 0.000000
1.000000 0.691775 0.000000
0.000000 0.930672 0.000000
0.000000 0.929736 0.000000
0.000000 0.922332 0.000000
0.147384 0.910172 0.000000
0.414506 0.893247 0.000000
0.682318 0.876602 0.000000
0.871179 0.864968 0.000000
0.984108 0.857933 0.000000
1.000000 0.851382 0.000000
0.000000 1.000000 0.000000
0.000000 1.000000 0.000000
0.000000 1.000000 0.000000
0.126832 1.000000 0.000000
0.394470 0.988544 0.000000
0.662326 0.972170 0.000000
0.850945 0.960623 0.000000
0.963904 0.953663 0.000000
1.000000 0.947003 0.000000
0.000000 1.000000 0.000000
0.000000 1.000000 0.000000
0.000000 1.000000 0.000000
0.108580 1.000000 0.000000
0.376149 1.000000 0.000000
0.643493 1.000000 0.000000
0.831486 1.000000 0.000000
0.943979 1.000000 0.000000
1.000000 1.000000 0.000000
0.008424 0.000000 0.221913
0.111968 0.000000 0.215216
0.221607 0.000000 0.208126
0.404280 0.000000 0.196312
0.663178 0.000000 0.179569
0.921719 0.000000 0.162849
1.000000 0.000000 0.151079
1.000000 0.000000 0.144026
1.000000 0.000000 0.137373
0.000000 0.082509 0.200884
0.088198 0.074621 0.203029
0.205959 0.065320 0.193172
0.392120 0.052914 0.175926
0.652469 0.035902 0.156596
0.911650 0.019063 0.138737
1.000000 0.007237 0.126478
1.000000 0.000155 0.119198
1.000000 0.000000 0.112362
0.000000 0.176068 0.176068
0.052838 0.171389 0.171389
0.171277 0.161813 0.161813
0.352141 0.150347 0.150347
0.598379 0.136911 0.136911
0.856654 0.120255 0.120255
1.000000 0.105465 0.105465
1.000000 0.096538 0.096538
1.000000 0.088256 0.088256
0.000000 0.331599 0.135796
0.004620 0.329003 0.123078
0.111461 0.323514 0.107210
0.310070 0.307286 0.091106
0.517080 0.298799 0.145613
0.759669 0.287791 0.121647
0.962308 0.271966 0.092163
1.000000 0.261581 0.075757
1.000000 0.251757 0.061641
0.000000 0.552266 0.079687
0.000000 0.550591 0.063130
0.043941 0.547198 0.043941
0.237362 0.532637 0.029381
0.511965 0.511965 0.008709
0.751681 0.494724 0.056777
0.921378 0.486306 0.051233
1.000000 0.478356 0.028713
1.000000 0.470267 0.010239
0.000000 0.772870 0.023065
0.000000 0.771551 0.004804
0.000000 0.768994 0.000000
0.174871 0.755199 0.000000
0.445581 0.735664 0.000000
0.717454 0.716581 0.000000
0.908003 0.703319 0.000000
1.000000 0.695877 0.000000
1.000000 0.689957 0.000000
0.000000 0.928277 0.000000
0.000000 0.927230 0.000000
0.000000 0.925208 0.000000
0.134737 0.912259 0.000000
0.406369 0.894198 0.000000
0.678638 0.876399 0.000000
0.870595 0.863937 0.000000
0.985076 0.856348 0.000000
1.000000 0.849356 0.000000
0.000000 1.000000 0.000000
0.000000 1.000000 0.000000
0.000000 1.000000 0.000000
0.113839 1.000000 0.000000
0.385525 0.989830 0.000000
0.657371 0.972384 0.000000
0.848762 0.960073 0.000000
0.963357 0.952642 0.000000
1.000000 0.945486 0.000000
0.000000 1.000000 0.000000
0.000000 1.000000 0.000000
0.000000 1.000000 0.000000
0.095264 1.000000 0.000000
0.366498 1.000000 0.000000
0.637447 1.000000 0.000000
0.827941 1.000000 0.000000
0.941918 1.000000 0.000000
1.000000 1.000000 0.000000
0.004316 0.000000 0.413179
0.107787 0.000000 0.406487
0.217357 0.000000 0.399401
0.399931 0.000000 0.387594
0.658727 0.000000 0.370857
0.917209 0.000000 0.354141
1.000000 0.000000 0.342372
1.000000 0.000000 0.335319
1.000000 0.000000 0.328665
0.000000 0.078350 0.392547
0.083013 0.070379 0.399028
0.197060 0.062021 0.390670
0.386918 0.048196 0.376471
0.647507 0.031466 0.353544
0.906812 0.014750 0.334102
1.000000 0.002974 0.321170
1.000000 0.000000 0.313583
1.000000 0.000000 0.306502
0.000000 0.171791 0.368019
0.051666 0.165479 0.371832
0.165556 0.156215 0.372520
0.363694 0.140113 0.356081
0.630055 0.121988 0.329883
0.892128 0.104645 0.308999
1.000000 0.092589 0.295445
1.000000 0.085394 0.287567
1.000000 0.078620 0.280252
0.000000 0.327543 0.327543
0.000000 0.324227 0.324227
0.105194 0.318072 0.318072
0.304045 0.301803 0.301803
0.564436 0.284704 0.284704
0.814843 0.270431 0.270431
0.989300 0.260981 0.260981
1.000000 0.255451 0.255451
1.000000 0.250300 0.250300
0.000000 0.548238 0.270972
0.000000 0.546118 0.260114
0.038997 0.542253 0.246977
0.221352 0.532098 0.221352
0.508137 0.508137 0.197391
0.715784 0.497102 0.278420
0.865594 0.494243 0.276360
0.955159 0.492600 0.275080
1.000000 0.491084 0.273851
0.000000 0.768842 0.214326
0.000000 0.767204 0.200159
0.000000 0.764309 0.183982
0.154336 0.756826 0.154336
0.433970 0.735007 0.132323
0.714893 0.713677 0.110081
0.910047 0.698945 0.103765
0.981892 0.694848 0.187271
1.000000 0.696597 0.253054
0.000000 0.924310 0.174368
0.000000 0.923055 0.158691
0.000000 0.920850 0.141028
0.112953 0.915004 0.109463
0.392099 0.895041 0.087741
0.671790 0.875313 0.065906
0.868904 0.861469 0.050795
0.986029 0.853021 0.046269
1.000000 0.845347 0.041560
0.000000 1.000000 0.149779
0.000000 1.000000 0.133254
0.000000 1.000000 0.114791
0.091534 1.000000 0.082637
0.369959 0.991292 0.061162
0.648442 0.972053 0.039677
0.844445 0.958464 0.024577
0.961765 0.950250 0.015990
1.000000 0.942320 0.011743
0.000000 1.000000 0.126038
0.000000 1.000000 0.108866
0.000000 1.000000 0.089805
0.072454 1.000000 0.057480
0.349786 1.000000 0.036310
0.626727 1.000000 0.015224
0.821379 1.000000 0.000459
0.937822 1.000000 0.000000
1.000000 1.000000 0.000000
0.000000 0.000000 0.684729
0.101782 0.000000 0.678044
0.211261 0.000000 0.670964
0.393708 0.000000 0.659165
0.652377 0.000000 0.642436
0.910794 0.000000 0.625724
1.000000 0.000000 0.613956
1.000000 0.000000 0.606902
1.000000 0.000000 0.600247
0.000000 0.072597 0.664227
0.076383 0.064586 0.672777
0.188478 0.056744 0.664935
0.375384 0.043667 0.651859
0.640455 0.025167 0.633172
0.899956 0.008625 0.611473
1.000000 0.000000 0.597583
1.000000 0.000000 0.589558
1.000000 0.000000 0.582129
0.000000 0.165993 0.639817
0.046807 0.158929 0.647545
0.158118 0.149928 0.653184
0.349999 0.135483 0.638739
0.622372 0.115020 0.618101
0.884923 0.098032 0.592527
1.000000 0.086123 0.576986
1.000000 0.078992 0.568200
1.000000 0.072267 0.560166
0.000000 0.321740 0.599341
0.000000 0.316483 0.602766
0.104096 0.309311 0.604804
0.295460 0.293685 0.604430
0.581030 0.269830 0.580555
0.853115 0.250625 0.551870
1.000000 0.237756 0.535006
1.000000 0.230189 0.525625
1.000000 0.223122 0.517123
0.000000 0.542520 0.542520
0.000000 0.539768 0.539768
0.031976 0.535233 0.535233
0.213215 0.523961 0.523961
0.500000 0.500000 0.500000
0.765319 0.481835 0.481835
0.945822 0.470762 0.470762
1.000000 0.464496 0.464496
1.000000 0.458774 0.458764
0.000000 0.763122 0.485864
0.000000 0.761032 0.477510
0.000000 0.757658 0.467494
0.146885 0.749375 0.448130
0.415711 0.732186 0.414742
0.709465 0.707655 0.388996
0.862270 0.697409 0.464308
0.947358 0.696871 0.474201
1.000000 0.695706 0.472885
0.000000 0.918740 0.445839
0.000000 0.917182 0.434979
0.000000 0.914642 0.422429
0.106327 0.908332 0.399109
0.370350 0.894637 0.361372
0.660542 0.872162 0.336623
0.864956 0.856360 0.319525
0.985955 0.846837 0.314132
1.000000 0.839866 0.358620
0.000000 1.000000 0.421223
0.000000 1.000000 0.409104
0.000000 1.000000 0.395315
0.084793 1.000000 0.370161
0.346473 0.991898 0.330822
0.634338 0.970106 0.306728
0.836858 0.954698 0.289815
0.958036 0.945380 0.280239
1.000000 0.936461 0.275622
0.000000 1.000000 0.397559
0.000000 1.000000 0.384462
0.000000 1.000000 0.369724
0.065267 1.000000 0.343194
0.324739 1.000000 0.302884
0.610142 1.000000 0.279448
0.810662 1.000000 0.263056
0.930587 1.000000 0.253289
1.000000 1.000000 0.244752
0.000000 0.000000 0.956285
0.095704 0.000000 0.949605
0.205100 0.000000 0.942530
0.387435 0.000000 0.930739
0.645997 0.000000 0.914017
0.904371 0.000000 0.897308
1.000000 0.000000 0.885539
1.000000 0.000000 0.878484
1.000000 0.000000 0.871827
0.000000 0.066888 0.935785
0.069919 0.058857 0.945294
0.181147 0.051240 0.937677
0.366632 0.038536 0.924973
0.629877 0.020507 0.906944
0.893120 0.002498 0.888851
1.000000 0.000000 0.873999
1.000000 0.000000 0.865533
1.000000 0.000000 0.857755
0.000000 0.160271 0.911416
0.041065 0.152882 0.920837
0.151252 0.143989 0.928696
0.340330 0.130303 0.915010
0.608904 0.110862 0.895570
0.877768 0.091415 0.876064
1.000000 0.079651 0.858528
1.000000 0.072585 0.848833
1.000000 0.065909 0.840076
0.000000 0.316014 0.870943
0.000000 0.309914 0.877286
0.100087 0.302300 0.882872
0.288184 0.286968 0.889457
0.566549 0.265100 0.867590
0.845664 0.243174 0.845664
1.000000 0.230593 0.825093
1.000000 0.223158 0.814028
1.000000 0.216193 0.804197
0.000000 0.536801 0.814058
0.000000 0.532474 0.815997
0.032185 0.526729 0.816893
0.213245 0.514490 0.815735
0.491413 0.491413 0.808390
0.783104 0.466127 0.783104
0.980160 0.451191 0.761553
1.000000 0.442689 0.750041
1.000000 0.434948 0.739813
0.000000 0.757403 0.757403
0.000000 0.754860 0.754860
0.000000 0.751007 0.751007
0.139513 0.741958 0.741904
0.407646 0.723826 0.722974
0.701233 0.699520 0.697808
0.886476 0.688620 0.685264
0.997304 0.682214 0.678025
1.000000 0.676552 0.671554
0.000000 0.913235 0.717319
0.000000 0.911364 0.711290
0.000000 0.908481 0.703866
0.100076 0.901575 0.689108
0.362952 0.887171 0.663064
0.647497 0.867123 0.631445
0.859188 0.849370 0.612171
0.956577 0.841862 0.656124
1.000000 0.841763 0.677627
0.000000 1.000000 0.692730
0.000000 1.000000 0.685025
0.000000 1.000000 0.675917
0.078875 0.997826 0.658574
0.338895 0.984855 0.629391
0.618548 0.966423 0.595677
0.827546 0.949190 0.576942
0.952574 0.938780 0.566179
1.000000 0.929037 0.563776
0.000000 1.000000 0.669171
0.000000 1.000000 0.660153
0.000000 1.000000 0.649739
0.059451 1.000000 0.630424
0.316699 1.000000 0.598914
0.591937 1.000000 0.563849
0.798285 1.000000 0.545834
0.921667 1.000000 0.535109
1.000000 1.000000 0.525596
0.000000 0.000000 1.000000
0.091381 0.000000 1.000000
0.200725 0.000000 1.000000
0.382990 0.000000 1.000000
0.641490 0.000000 1.000000
0.899846 0.000000 1.000000
1.000000 0.000000 1.000000
1.000000 0.000000 1.000000
1.000000 0.000000 1.000000
0.000000 0.062878 1.000000
0.065389 0.054837 1.000000
0.176244 0.047315 1.000000
0.361126 0.034768 1.000000
0.623553 0.016959 1.000000
0.886082 0.000000 1.000000
1.000000 0.000000 1.000000
1.000000 0.000000 1.000000
1.000000 0.000000 1.000000
0.000000 0.156257 1.000000
0.036828 0.148732 1.000000
0.146542 0.139881 1.000000
0.334453 0.126513 1.000000
0.601409 0.107522 1.000000
0.868739 0.088504 1.000000
1.000000 0.075090 1.000000
1.000000 0.068069 1.000000
1.000000 0.061427 1.000000
0.000000 0.311996 1.000000
0.000000 0.305540 1.000000
0.096654 0.297738 1.000000
0.283418 0.282524 1.000000
0.558822 0.261490 1.000000
0.834904 0.240404 1.000000
1.000000 0.225548 1.000000
1.000000 0.218205 1.000000
1.000000 0.211313 1.000000
0.000000 0.532772 1.000000
0.000000 0.527784 1.000000
0.030650 0.521530 1.000000
0.211634 0.508884 1.000000
0.486178 0.486178 1.000000
0.772661 0.462299 0.991267
0.974448 0.445479 0.974448
1.000000 0.437159 0.960952
1.000000 0.429593 0.949137
0.000000 0.753374 0.948664
0.000000 0.749873 0.948840
0.000000 0.745195 0.948061
0.140908 0.735280 0.944507
0.407575 0.716893 0.934428
0.696229 0.693293 0.918283
0.907635 0.675401 0.898682
1.000000 0.665941 0.885340
1.000000 0.657487 0.873651
0.000000 0.909393 0.908556
0.000000 0.907296 0.905938
0.000000 0.904166 0.902132
0.095714 0.896831 0.893411
0.358083 0.881789 0.875938
0.641732 0.861201 0.852541
0.851058 0.843803 0.836549
0.950585 0.840533 0.832007
1.000000 0.834428 0.824564
0.000000 1.000000 0.884016
0.000000 1.000000 0.879423
0.000000 0.999727 0.873614
0.074717 0.993226 0.861776
0.334184 0.979631 0.840405
0.612539 0.960816 0.813782
0.819942 0.944265 0.792311
0.947677 0.933093 0.780580
1.000000 0.928850 0.824316
0.000000 1.000000 0.860543
0.000000 1.000000 0.854399
0.000000 1.000000 0.847030
0.055336 1.000000 0.832796
0.311972 1.000000 0.808496
0.585483 1.000000 0.779537
0.788559 1.000000 0.757123
0.914360 1.000000 0.745730
1.000000 1.000000 0.735416
0.000000 0.000000 1.000000
0.088776 0.000000 1.000000
0.198090 0.000000 1.000000
0.380316 0.000000 1.000000
0.638785 0.000000 1.000000
0.897135 0.000000 1.000000
1.000000 0.000000 1.000000
1.000000 0.000000 1.000000
1.000000 0.000000 1.000000
0.000000 0.060478 1.000000
0.062675 0.052431 1.000000
0.173359 0.044952 1.000000
0.357967 0.032477 1.000000
0.620027 0.014767 1.000000
0.882216 0.000000 1.000000
1.000000 0.000000 1.000000
1.000000 0.000000 1.000000
1.000000 0.000000 1.000000
0.000000 0.153855 1.000000
0.034247 0.146268 1.000000
0.143747 0.137435 1.000000
0.331134 0.124211 1.000000
0.597368 0.105423 1.000000
0.864003 0.086607 1.000000
1.000000 0.073330 1.000000
1.000000 0.065361 1.000000
1.000000 0.058740 1.000000
0.000000 0.309590 1.000000
0.000000 0.302973 1.000000
0.094472 0.295085 1.000000
0.280648 0.279923 1.000000
0.554735 0.259265 1.000000
0.829432 0.238562 1.000000
1.000000 0.223977 1.000000
1.000000 0.215236 1.000000
1.000000 0.208388 1.000000
0.000000 0.530358 1.000000
0.000000 0.525068 1.000000
0.029367 0.518584 1.000000
0.210317 0.505753 1.000000
0.483216 0.483216 1.000000
0.767333 0.459976 1.000000
0.967456 0.443607 1.000000
1.000000 0.433862 1.000000
1.000000 0.426398 1.000000
0.000000 0.750960 1.000000
0.000000 0.747023 1.000000
0.000000 0.741971 1.000000
0.141016 0.731687 1.000000
0.407063 0.713194 1.000000
0.693169 0.689979 1.000000
0.902447 0.672679 1.000000
1.000000 0.662449 1.000000
1.000000 0.654102 1.000000
0.000000 0.907095 1.000000
0.000000 0.904492 1.000000
0.000000 0.900912 1.000000
0.096948 0.893025 1.000000
0.359094 0.877612 1.000000
0.640680 0.857117 0.983263
0.850516 0.839569 0.967120
0.978684 0.828556 0.954790
1.000000 0.818935 0.942759
0.000000 1.000000 0.998681
0.000000 1.000000 0.995955
0.000000 0.997225 0.992125
0.072226 0.990469 0.983586
0.331354 0.976496 0.966896
0.609315 0.957288 0.944951
0.816141 0.940566 0.926426
0.940154 0.929954 0.919755
1.000000 0.927624 0.916791
0.000000 1.000000 0.975265
0.000000 1.000000 0.970843
0.000000 1.000000 0.965299
0.052860 1.000000 0.954109
0.309121 1.000000 0.934129
0.582197 1.000000 0.909489
0.784353 1.000000 0.889441
0.909572 1.000000 0.876766
1.000000 1.000000 0.865927
0.000000 0.000000 1.000000
0.086309 0.000000 1.000000
0.195597 0.000000 1.000000
0.377789 0.000000 1.000000
0.636231 0.000000 1.000000
0.894579 0.000000 1.000000
1.000000 0.000000 1.000000
1.000000 0.000000 1.000000
1.000000 0.000000 1.000000
0.000000 0.058215 1.000000
0.060115 0.050164 1.000000
0.170663 0.042718 1.000000
0.355054 0.030299 1.000000
0.616828 0.012669 1.000000
0.878757 0.000000 1.000000
1.000000 0.000000 1.000000
1.000000 0.000000 1.000000
1.000000 0.000000 1.000000
0.000000 0.151591 1.000000
0.031793 0.143955 1.000000
0.141125 0.135135 1.000000
0.328102 0.122025 1.000000
0.593777 0.103397 1.000000
0.859876 0.084739 1.000000
1.000000 0.071572 1.000000
1.000000 0.063669 1.000000
1.000000 0.056204 1.000000
0.000000 0.307323 1.000000
0.000000 0.300577 1.000000
0.092358 0.292620 1.000000
0.278080 0.277498 1.000000
0.551147 0.257136 1.000000
0.824739 0.236736 1.000000
1.000000 0.222366 1.000000
1.000000 0.213754 1.000000
1.000000 0.205630 1.000000
0.000000 0.528080 1.000000
0.000000 0.522553 1.000000
0.027984 0.515886 1.000000
0.208907 0.502909 1.000000
0.480506 0.480506 1.000000
0.762754 0.457770 1.000000
0.961587 0.441766 1.000000
1.000000 0.432263 1.000000
1.000000 0.423394 1.000000
0.000000 0.748682 1.000000
0.000000 0.744401 1.000000
0.000000 0.739060 1.000000
0.140776 0.728496 1.000000
0.406354 0.709927 1.000000
0.690461 0.687021 1.000000
0.897938 0.670238 1.000000
1.000000 0.660211 1.000000
1.000000 0.650910 1.000000
0.000000 0.904934 1.000000
0.000000 0.901930 1.000000
0.000000 0.897991 1.000000
0.097725 0.889655 1.000000
0.359761 0.873933 1.000000
0.639680 0.853516 1.000000
0.847414 0.836270 1.000000
0.974476 0.825508 1.000000
1.000000 0.815495 1.000000
0.000000 0.999835 1.000000
0.000000 0.997517 1.000000
0.000000 0.994266 1.000000
0.073290 0.986993 1.000000
0.332401 0.972606 1.000000
0.608931 0.953335 1.000000
0.813945 0.936766 1.000000
0.940791 0.925650 1.000000
1.000000 0.914998 1.000000
0.000000 1.000000 1.000000
0.000000 1.000000 1.000000
0.000000 1.000000 1.000000
0.050518 1.000000 1.000000
0.306418 1.000000 1.000000
0.579078 1.000000 1.000000
0.780904 1.000000 1.000000
0.905648 1.000000 1.000000
1.000000 1.000000 0.998462
