ai-pipeline/luts/nostalgic.cube
TITLE "ClipVibe Nostalgic"
LUT_3D_SIZE 5
DOMAIN_MIN 0.0 0.0 0.0
DOMAIN_MAX 1.0 1.0 1.0
0.099426 0.073419 0.029649
0.314185 0.079031 0.039902
0.507133 0.083046 0.047896
0.699139 0.086662 0.055998
0.870682 0.089904 0.063237
0.104605 0.283639 0.059258
0.317689 0.288033 0.068375
0.511197 0.292588 0.076015
0.706583 0.298125 0.083524
0.883344 0.304228 0.089967
0.112506 0.480964 0.084581
0.332376 0.488846 0.092782
0.530862 0.496178 0.100017
0.729286 0.503469 0.106956
0.906627 0.509939 0.113250
0.136246 0.696240 0.108817
0.356742 0.704328 0.116905
0.556209 0.712077 0.123658
0.757955 0.721184 0.128739
0.939890 0.730158 0.132107
0.164875 0.910320 0.129341
0.391552 0.921756 0.133524
0.596757 0.932552 0.136673
0.801869 0.943365 0.139729
0.984609 0.952710 0.142769
0.099710 0.075321 0.202483
0.313591 0.080736 0.212333
0.506218 0.084543 0.220909
0.698258 0.088075 0.229233
0.870056 0.091351 0.236546
0.106075 0.284419 0.232097
0.319207 0.289243 0.239204
0.526330 0.290678 0.241838
0.733653 0.293561 0.246566
0.909234 0.300238 0.254505
0.115254 0.482675 0.257783
0.336754 0.490065 0.269057
0.532265 0.498229 0.276821
0.747585 0.503046 0.258507
0.930052 0.507746 0.267239
0.139371 0.698114 0.282297
0.362342 0.705092 0.294134
0.560470 0.713829 0.300999
0.760799 0.723864 0.306021
0.946170 0.733169 0.298908
0.169830 0.912874 0.302368
0.399558 0.923335 0.310265
0.603249 0.934621 0.313876
0.806631 0.945793 0.317535
0.987669 0.955366 0.320985
0.100846 0.076849 0.380588
0.314480 0.081953 0.389834
0.506498 0.085727 0.398637
0.698526 0.089241 0.407261
0.870522 0.092621 0.414699
0.105778 0.285888 0.409255
0.318550 0.291195 0.415770
0.509676 0.297190 0.425244
0.705275 0.303849 0.433968
0.881975 0.310428 0.441061
0.117484 0.484951 0.435127
0.340274 0.492305 0.443737
0.537092 0.500467 0.447670
0.747575 0.504566 0.450713
0.935595 0.508145 0.454198
0.141673 0.700415 0.459959
0.366439 0.707135 0.470621
0.565428 0.716117 0.478923
0.764202 0.727043 0.484222
0.962595 0.734564 0.458936
0.173872 0.916071 0.479145
0.406148 0.926006 0.487259
0.610164 0.937018 0.492941
0.811697 0.948517 0.497271
0.990914 0.958277 0.501307
0.101664 0.078260 0.556177
0.315280 0.083002 0.565391
0.506959 0.086790 0.573797
0.698839 0.090414 0.582443
0.871094 0.093934 0.589989
0.105719 0.287228 0.584552
0.319751 0.292740 0.589074
0.512078 0.299019 0.597626
0.707715 0.306289 0.606506
0.884367 0.312821 0.614221
0.119337 0.487342 0.609894
0.341939 0.495081 0.615241
0.536946 0.503506 0.621902
0.730834 0.511919 0.631072
0.906044 0.518926 0.638840
0.143937 0.702679 0.634769
0.369399 0.709872 0.642376
0.570066 0.719086 0.649153
0.769353 0.730474 0.652269
0.965034 0.737070 0.646090
0.177974 0.919282 0.652984
0.410627 0.929520 0.658820
0.616430 0.939906 0.665187
0.816822 0.951405 0.670814
0.994179 0.961303 0.675589
0.102466 0.079997 0.787780
0.315886 0.084410 0.797003
0.507689 0.088089 0.805374
0.699604 0.091920 0.813671
0.872059 0.095780 0.821032
0.106047 0.288961 0.815983
0.321314 0.294844 0.819148
0.515596 0.301396 0.827316
0.711783 0.309130 0.835159
0.887521 0.315975 0.842467
0.121862 0.490415 0.840795
0.344181 0.498453 0.844014
0.540519 0.506682 0.848689
0.735087 0.514981 0.856988
0.909875 0.522534 0.864444
0.146503 0.705763 0.865436
0.372416 0.713965 0.869513
0.574466 0.723794 0.872818
0.773988 0.735470 0.876686
0.952205 0.746318 0.881622
0.183530 0.923593 0.881991
0.416554 0.934167 0.884902
0.622364 0.944676 0.888841
0.823283 0.955660 0.894441
0.999897 0.965412 0.897635
