ai-pipeline/luts/nostalgic.cube
TITLE "ClipVibe Nostalgic"
LUT_3D_SIZE 9
DOMAIN_MIN 0.0 0.0 0.0
DOMAIN_MAX 1.0 1.0 1.0
0.099426 0.073419 0.029649
0.208353 0.076509 0.035643
0.314185 0.079031 0.039902
0.417873 0.081262 0.044170
0.507133 0.083046 0.047896
0.599984 0.084817 0.051806
0.699139 0.086662 0.055998
0.783914 0.088243 0.059583
0.870682 0.089904 0.063237
0.103254 0.180827 0.045430
0.211423 0.183105 0.050024
0.316136 0.185159 0.054273
0.419187 0.187114 0.058553
0.508237 0.188820 0.062270
0.601191 0.190671 0.066136
0.700815 0.192787 0.070241
0.786281 0.194753 0.073714
0.874031 0.196953 0.077218
0.104605 0.283639 0.059258
0.212814 0.285802 0.063966
0.317689 0.288033 0.068375
0.421313 0.290386 0.072470
0.511197 0.292588 0.076015
0.605339 0.295112 0.079677
0.706583 0.298125 0.083524
0.793719 0.301006 0.086743
0.883344 0.304228 0.089967
0.106793 0.386959 0.072954
0.216227 0.389723 0.077472
0.322675 0.392742 0.081755
0.428081 0.396113 0.085759
0.519820 0.399372 0.088975
0.615742 0.402893 0.092338
0.718298 0.406640 0.095968
0.805989 0.409837 0.099088
0.895667 0.413100 0.102290
0.112506 0.480964 0.084581
0.224051 0.484847 0.088783
0.332376 0.488846 0.092782
0.438899 0.492779 0.096715
0.530862 0.496178 0.100017
0.626753 0.499711 0.103349
0.729286 0.503469 0.106956
0.816962 0.506671 0.110061
0.906627 0.509939 0.113250
0.123444 0.582171 0.096027
0.235494 0.586293 0.100149
0.343866 0.590279 0.104135
0.450435 0.594200 0.108055
0.542424 0.597584 0.111439
0.638286 0.601114 0.114882
0.740794 0.604881 0.118464
0.828721 0.608233 0.121388
0.919231 0.611964 0.124035
0.136246 0.696240 0.108817
0.248334 0.700352 0.112929
0.356742 0.704328 0.116905
0.463475 0.708309 0.120735
0.556209 0.712077 0.123658
0.653439 0.716327 0.126323
0.757955 0.721184 0.128739
0.847743 0.725545 0.130485
0.939890 0.730158 0.132107
0.148046 0.800529 0.120434
0.261057 0.805138 0.123965
0.371131 0.810020 0.126888
0.480005 0.815159 0.129365
0.574401 0.819814 0.131243
0.673089 0.824830 0.132997
0.778842 0.830325 0.134701
0.869404 0.835092 0.136034
0.962091 0.839990 0.137326
0.164875 0.910320 0.129341
0.279899 0.916027 0.131595
0.391552 0.921756 0.133524
0.501620 0.927521 0.135254
0.596757 0.932552 0.136673
0.695928 0.937801 0.138131
0.801869 0.943365 0.139729
0.892314 0.948042 0.141177
0.984609 0.952710 0.142769
0.098868 0.074557 0.117559
0.207722 0.077601 0.122756
0.313282 0.080057 0.127356
0.416846 0.082226 0.131782
0.506068 0.083966 0.135584
0.598930 0.085700 0.139540
0.698140 0.087521 0.143759
0.782993 0.089095 0.147352
0.869866 0.090761 0.151007
0.104522 0.181089 0.133121
0.212660 0.183586 0.135129
0.325029 0.183688 0.135977
0.434745 0.183828 0.138700
0.524034 0.185401 0.143331
0.612503 0.188407 0.149498
0.707197 0.191866 0.155646
0.789448 0.194758 0.160323
0.874888 0.197675 0.164647
0.105910 0.283786 0.147399
0.213835 0.285965 0.153210
0.317429 0.288633 0.157756
0.431170 0.289552 0.147242
0.523978 0.290856 0.152136
0.616840 0.293552 0.159187
0.714950 0.297337 0.166302
0.799243 0.301011 0.171668
0.886203 0.304913 0.176508
0.108178 0.387307 0.161070
0.218316 0.389854 0.167022
0.323919 0.393261 0.171545
0.428565 0.397042 0.175578
0.523983 0.400234 0.169916
0.624874 0.402743 0.168673
0.725394 0.406611 0.177107
0.810798 0.410184 0.183228
0.898266 0.413888 0.188571
0.114289 0.481637 0.172621
0.227041 0.485175 0.178473
0.334527 0.489400 0.182699
0.440226 0.493555 0.186854
0.531514 0.497157 0.190141
0.627535 0.500842 0.191595
0.734484 0.504061 0.187520
0.821079 0.507294 0.193509
0.908996 0.510819 0.199301
0.125451 0.582951 0.184126
0.238695 0.586541 0.190012
0.346375 0.590714 0.194185
0.452264 0.594818 0.198289
0.543665 0.598360 0.201831
0.638947 0.602067 0.205238
0.741033 0.606010 0.208513
0.830597 0.609421 0.207576
0.921513 0.613196 0.210011
0.138267 0.697009 0.196993
0.251698 0.700537 0.202925
0.359528 0.704670 0.207058
0.465860 0.708898 0.210937
0.558294 0.712904 0.213879
0.655184 0.717388 0.216586
0.759334 0.722488 0.218890
0.848890 0.727033 0.220346
0.940957 0.731790 0.221460
0.150244 0.801373 0.208575
0.264910 0.805500 0.213815
0.374665 0.810624 0.216770
0.483192 0.815981 0.219304
0.577262 0.820808 0.221252
0.675585 0.825988 0.223096
0.780919 0.831642 0.224918
0.871120 0.836541 0.226210
0.963498 0.841555 0.227282
0.167941 0.911367 0.217450
0.284276 0.916622 0.221275
0.395562 0.922516 0.223294
0.505238 0.928426 0.225137
0.600010 0.933566 0.226670
0.698776 0.938913 0.228264
0.804255 0.944565 0.230024
0.894283 0.949303 0.231625
0.986144 0.954031 0.233253
0.099710 0.075321 0.202483
0.208187 0.078383 0.207269
0.313591 0.080736 0.212333
0.417052 0.082840 0.216986
0.506218 0.084543 0.220909
0.599049 0.086257 0.224951
0.698258 0.088075 0.229233
0.783135 0.089660 0.232865
0.870056 0.091351 0.236546
0.104507 0.181874 0.217167
0.211043 0.184566 0.221555
0.314042 0.186988 0.226909
0.416411 0.189117 0.231722
0.505202 0.190941 0.235701
0.598074 0.192913 0.239740
0.697756 0.195172 0.243961
0.783361 0.197278 0.247496
0.871375 0.199628 0.251031
0.106075 0.284419 0.232097
0.214819 0.286436 0.237596
0.319207 0.289243 0.239204
0.430428 0.289896 0.239772
0.526330 0.290678 0.241838
0.626934 0.291716 0.243887
0.733653 0.293561 0.246566
0.822258 0.296314 0.249897
0.909234 0.300238 0.254505
0.108605 0.388069 0.246125
0.219951 0.390390 0.252151
0.325353 0.393954 0.257365
0.429249 0.398129 0.261599
0.530503 0.400337 0.249201
0.632515 0.402223 0.250832
0.741687 0.404191 0.252609
0.833229 0.406277 0.255381
0.923058 0.409328 0.260245
0.115254 0.482675 0.257783
0.229299 0.485917 0.263969
0.336754 0.490065 0.269057
0.441647 0.494438 0.273430
0.532265 0.498229 0.276821
0.633313 0.501521 0.267350
0.747585 0.503046 0.258507
0.839428 0.505013 0.261579
0.930052 0.507746 0.267239
0.126562 0.584062 0.269361
0.241054 0.587220 0.275843
0.348930 0.591241 0.280949
0.454154 0.595524 0.285233
0.544981 0.599222 0.288930
0.639688 0.603094 0.292391
0.743282 0.607143 0.290887
0.844328 0.609133 0.271680
0.939084 0.611945 0.273668
0.139371 0.698114 0.282297
0.254136 0.701167 0.289017
0.362342 0.705092 0.294134
0.468339 0.709594 0.298029
0.560470 0.713829 0.300999
0.657021 0.718536 0.303757
0.760799 0.723864 0.306021
0.850112 0.728575 0.307317
0.946170 0.733169 0.298908
0.151574 0.802592 0.293795
0.267909 0.806307 0.299895
0.378235 0.811313 0.303711
0.486412 0.816878 0.306311
0.580155 0.821869 0.308334
0.678113 0.827205 0.310276
0.783029 0.833009 0.312221
0.872866 0.838029 0.313520
0.964928 0.843145 0.314474
0.169830 0.912874 0.302368
0.288082 0.917503 0.307615
0.399558 0.923335 0.310265
0.508840 0.929379 0.312225
0.603249 0.934621 0.313876
0.701611 0.940060 0.315609
0.806631 0.945793 0.317535
0.896242 0.950587 0.319290
0.987669 0.955366 0.320985
0.100348 0.076118 0.293933
0.209083 0.078976 0.298633
0.313891 0.081446 0.303297
0.417252 0.083485 0.308192
0.506366 0.085154 0.312243
0.599174 0.086852 0.316375
0.698391 0.088672 0.320723
0.783302 0.090274 0.324393
0.870282 0.091997 0.328102
0.104300 0.182651 0.308170
0.211560 0.185203 0.311462
0.314329 0.187725 0.316465
0.416663 0.189832 0.321869
0.505486 0.191661 0.326160
0.598427 0.193663 0.330416
0.698219 0.195976 0.334794
0.783947 0.198146 0.338424
0.872061 0.200591 0.342036
0.106002 0.285167 0.322910
0.214943 0.287359 0.326716
0.317823 0.290411 0.331241
0.419657 0.293506 0.336443
0.508885 0.296192 0.340567
0.602796 0.299173 0.344612
0.704119 0.302671 0.348725
0.791403 0.305919 0.352108
0.880810 0.309242 0.355514
0.109109 0.388908 0.337169
0.220766 0.391434 0.341849
0.326967 0.394959 0.346941
0.432549 0.399226 0.347368
0.530664 0.401093 0.347737
0.632447 0.403029 0.349542
0.741447 0.405036 0.351449
0.834357 0.406816 0.353226
0.927875 0.409019 0.355619
0.116365 0.483826 0.348927
0.230578 0.487196 0.354033
0.338989 0.491019 0.359528
0.443302 0.495517 0.364365
0.533194 0.499500 0.367998
0.638681 0.501750 0.355776
0.747558 0.503805 0.357561
0.840770 0.505520 0.359102
0.936169 0.507246 0.360687
0.127750 0.585250 0.360591
0.242311 0.588477 0.366190
0.351409 0.592057 0.372065
0.456287 0.596391 0.376864
0.546499 0.600254 0.380728
0.640585 0.604296 0.384341
0.750029 0.607843 0.371934
0.848279 0.609615 0.364616
0.945050 0.612110 0.365164
0.140554 0.699296 0.373601
0.255376 0.702407 0.379583
0.365078 0.705837 0.385712
0.471150 0.710469 0.390019
0.562948 0.714944 0.393029
0.659124 0.719885 0.395853
0.762490 0.725445 0.398150
0.851778 0.730316 0.398705
0.956017 0.733963 0.376167
0.153067 0.803934 0.384967
0.269679 0.807820 0.390293
0.381871 0.812278 0.395425
0.489970 0.817939 0.398399
0.583354 0.823101 0.400511
0.680911 0.828599 0.402565
0.785371 0.834558 0.404651
0.874807 0.839699 0.406010
0.966515 0.844911 0.406946
0.171890 0.914508 0.393230
0.290291 0.919242 0.397844
0.403913 0.924291 0.402453
0.512765 0.930474 0.404547
0.606775 0.935820 0.406331
0.704696 0.941351 0.408219
0.809215 0.947165 0.410329
0.898374 0.952015 0.412255
0.989326 0.956840 0.414059
0.100846 0.076849 0.380588
0.209648 0.079569 0.385259
0.314480 0.081953 0.389834
0.417425 0.084085 0.394467
0.506498 0.085727 0.398637
0.599292 0.087414 0.402853
0.698526 0.089241 0.407261
0.783477 0.090864 0.410966
0.870522 0.092621 0.414699
0.104238 0.183294 0.394637
0.211849 0.185772 0.397376
0.315128 0.188160 0.402266
0.416917 0.190515 0.407133
0.505777 0.192355 0.411720
0.598793 0.194389 0.416179
0.698698 0.196760 0.420704
0.784551 0.198994 0.424421
0.872816 0.201520 0.428098
0.105778 0.285888 0.409255
0.214870 0.288201 0.412090
0.318550 0.291195 0.415770
0.420338 0.294459 0.420641
0.509676 0.297190 0.425244
0.603745 0.300247 0.429618
0.705275 0.303849 0.433968
0.792596 0.307111 0.437514
0.881975 0.310428 0.441061
0.109459 0.389770 0.423360
0.221274 0.392530 0.426847
0.327895 0.396238 0.430715
0.431400 0.400877 0.435129
0.521186 0.404828 0.439379
0.615567 0.408731 0.443503
0.716960 0.412766 0.447706
0.803904 0.416147 0.451195
0.893185 0.419502 0.454656
0.117484 0.484951 0.435127
0.231788 0.488406 0.439220
0.340274 0.492305 0.443737
0.444977 0.496673 0.448712
0.537092 0.500467 0.447670
0.638905 0.502468 0.448744
0.747575 0.504566 0.450713
0.840654 0.506308 0.452372
0.935595 0.508145 0.454198
0.128874 0.586374 0.446879
0.243500 0.589666 0.451644
0.352660 0.593309 0.456712
0.458372 0.597332 0.462136
0.548042 0.601337 0.466195
0.641540 0.605536 0.470040
0.754733 0.608211 0.456959
0.848775 0.610549 0.457794
0.945582 0.613157 0.458313
0.141673 0.700415 0.459959
0.256549 0.703579 0.465244
0.366439 0.707135 0.470621
0.473926 0.711431 0.475835
0.565428 0.716117 0.478923
0.661240 0.721273 0.481819
0.764202 0.727043 0.484222
0.856721 0.731794 0.477105
0.962595 0.734564 0.458936
0.154545 0.805236 0.471160
0.271406 0.809279 0.475759
0.383801 0.813871 0.480210
0.493436 0.819038 0.484514
0.586472 0.824355 0.486720
0.683643 0.830002 0.488889
0.787661 0.836101 0.491116
0.876708 0.841349 0.492582
0.968096 0.846640 0.493516
0.173872 0.916071 0.479145
0.292402 0.920899 0.483166
0.406148 0.926006 0.487259
0.516539 0.931578 0.491025
0.610164 0.937018 0.492941
0.707660 0.942631 0.494982
0.811697 0.948517 0.497271
0.900420 0.953414 0.499363
0.990914 0.958277 0.501307
0.101256 0.077521 0.462804
0.210056 0.080136 0.467465
0.314913 0.082439 0.472026
0.417798 0.084553 0.476544
0.506617 0.086268 0.480548
0.599406 0.087949 0.484842
0.698665 0.089786 0.489305
0.783661 0.091433 0.493042
0.870775 0.093227 0.496796
0.104226 0.183866 0.476762
0.212046 0.186300 0.479164
0.315641 0.188612 0.483984
0.417676 0.190949 0.488697
0.506077 0.193025 0.492833
0.599170 0.195095 0.497484
0.699192 0.197524 0.502147
0.785169 0.199824 0.505946
0.873586 0.202431 0.509681
0.105704 0.286526 0.491301
0.214924 0.288932 0.493547
0.319133 0.291918 0.496705
0.421533 0.295136 0.501447
0.510477 0.298165 0.505515
0.604703 0.301297 0.510200
0.706417 0.304992 0.514775
0.793727 0.308242 0.518482
0.883095 0.311549 0.522159
0.109680 0.390636 0.505295
0.221526 0.393623 0.508016
0.328614 0.397461 0.511031
0.432834 0.402054 0.514750
0.522436 0.406079 0.518811
0.616781 0.409945 0.523400
0.718146 0.413953 0.527954
0.805073 0.417317 0.531668
0.894132 0.420715 0.535350
0.118427 0.486057 0.516893
0.232662 0.489623 0.520091
0.341224 0.493591 0.523703
0.446134 0.497991 0.527753
0.535326 0.502146 0.531736
0.628762 0.506301 0.536132
0.729443 0.510528 0.540540
0.815930 0.514032 0.544160
0.904694 0.517529 0.547754
0.129940 0.587440 0.528684
0.244628 0.590793 0.532657
0.353847 0.594495 0.536960
0.459617 0.598577 0.541632
0.549599 0.602458 0.546001
0.645250 0.606542 0.545148
0.755276 0.609040 0.544801
0.849331 0.611494 0.545673
0.946162 0.614204 0.546216
0.142733 0.701475 0.541830
0.257661 0.704691 0.546453
0.367792 0.708399 0.551081
0.475531 0.712855 0.555549
0.567899 0.717332 0.559323
0.663359 0.722689 0.562297
0.765925 0.728647 0.564867
0.864728 0.732473 0.548977
0.963736 0.735715 0.546764
0.156001 0.806500 0.552840
0.273089 0.810687 0.556754
0.385668 0.815400 0.560563
0.495601 0.820608 0.564417
0.589509 0.825624 0.567577
0.686305 0.831406 0.569862
0.789898 0.837634 0.572230
0.878566 0.842975 0.573845
0.971802 0.848213 0.569648
0.175780 0.917567 0.560573
0.294422 0.922479 0.564038
0.408242 0.927650 0.567614
0.519159 0.933070 0.571418
0.613424 0.938209 0.574301
0.710510 0.943896 0.576492
0.814081 0.949845 0.578956
0.902385 0.954783 0.581210
0.992436 0.959675 0.583318
0.101664 0.078260 0.556177
0.210426 0.080775 0.560835
0.315280 0.083002 0.565391
0.418193 0.085064 0.569898
0.506959 0.086790 0.573797
0.599542 0.088558 0.577919
0.698839 0.090414 0.582443
0.783894 0.092092 0.586214
0.871094 0.093934 0.589989
0.104238 0.184489 0.570083
0.212223 0.186892 0.572217
0.316078 0.189155 0.576980
0.418399 0.191466 0.581633
0.506963 0.193579 0.585612
0.599639 0.195918 0.589777
0.699802 0.198419 0.594595
0.785930 0.200798 0.598485
0.874526 0.203502 0.602285
0.105719 0.287228 0.584552
0.215079 0.289729 0.586335
0.319751 0.292740 0.589074
0.422690 0.295956 0.593704
0.512078 0.299019 0.597626
0.605863 0.302529 0.601666
0.707715 0.306289 0.606506
0.795010 0.309526 0.610396
0.884367 0.312821 0.614221
0.110089 0.391604 0.598431
0.222038 0.394813 0.600544
0.329578 0.398801 0.602880
0.434318 0.403338 0.606064
0.524331 0.407255 0.609981
0.618159 0.411323 0.614098
0.719494 0.415300 0.619050
0.806401 0.418644 0.623020
0.895443 0.422026 0.626909
0.119337 0.487342 0.609894
0.233309 0.491057 0.612392
0.341939 0.495081 0.615241
0.447227 0.499453 0.618457
0.536946 0.503506 0.621902
0.630192 0.507731 0.626164
0.730834 0.511919 0.631072
0.817296 0.515398 0.635012
0.906044 0.518926 0.638840
0.131032 0.588680 0.621589
0.245640 0.592142 0.624724
0.354885 0.595921 0.628188
0.460779 0.600052 0.632008
0.550960 0.603949 0.635637
0.644040 0.608416 0.639707
0.744751 0.613409 0.643871
0.831991 0.617806 0.646908
0.922024 0.622435 0.649620
0.143937 0.702679 0.634769
0.258949 0.705967 0.638627
0.369399 0.709872 0.642376
0.477413 0.714504 0.646002
0.570066 0.719086 0.649153
0.665891 0.724411 0.652455
0.769353 0.730474 0.652269
0.867211 0.733632 0.646360
0.965034 0.737070 0.646090
0.157716 0.807967 0.645521
0.275051 0.812311 0.648663
0.387826 0.817158 0.651750
0.497915 0.822477 0.654917
0.592201 0.827461 0.657813
0.689412 0.833086 0.660765
0.792511 0.839455 0.663302
0.880738 0.844892 0.665141
0.980578 0.849246 0.649949
0.177974 0.919282 0.652984
0.296733 0.924283 0.655824
0.410627 0.929520 0.658820
0.521580 0.934986 0.662077
0.616430 0.939906 0.665187
0.713787 0.945390 0.668145
0.816822 0.951405 0.670814
0.904643 0.956385 0.673255
0.994179 0.961303 0.675589
0.102091 0.079127 0.669629
0.210785 0.081538 0.674291
0.315617 0.083692 0.678844
0.418547 0.085706 0.683344
0.507360 0.087413 0.687231
0.599954 0.089207 0.691273
0.699077 0.091192 0.695575
0.784217 0.092915 0.699384
0.871534 0.094820 0.703183
0.104272 0.185225 0.683511
0.212407 0.187608 0.685409
0.316505 0.189844 0.690120
0.419104 0.192154 0.694717
0.507940 0.194287 0.698642
0.600858 0.196695 0.702678
0.700657 0.199532 0.706918
0.786940 0.202029 0.710876
0.875768 0.204857 0.714752
0.105835 0.288073 0.697907
0.215370 0.290686 0.699291
0.320499 0.293754 0.701663
0.423971 0.297015 0.706186
0.513852 0.300136 0.710009
0.608146 0.303740 0.713902
0.709363 0.307837 0.718000
0.796569 0.311085 0.722038
0.885913 0.314366 0.726042
0.110753 0.392791 0.711651
0.222891 0.396241 0.713236
0.330873 0.400390 0.714990
0.436004 0.404857 0.717731
0.526384 0.408675 0.721549
0.620558 0.412654 0.725528
0.721207 0.416906 0.729780
0.808013 0.420256 0.733979
0.897036 0.423619 0.738120
0.120540 0.488861 0.722976
0.234292 0.492701 0.724888
0.342979 0.496773 0.727096
0.448585 0.501121 0.729612
0.538753 0.505085 0.732613
0.632452 0.509192 0.736720
0.732594 0.513581 0.741109
0.818955 0.517057 0.745365
0.907863 0.520662 0.749401
0.132181 0.590221 0.734616
0.246460 0.593850 0.737056
0.355659 0.597719 0.739776
0.461767 0.601868 0.742794
0.552355 0.605730 0.745665
0.646266 0.610234 0.749013
0.747077 0.615441 0.752847
0.834443 0.619922 0.756205
0.924617 0.624615 0.759197
0.145267 0.704176 0.747703
0.260309 0.707656 0.750638
0.371059 0.711812 0.753364
0.479417 0.716643 0.755982
0.572398 0.721359 0.758263
0.668631 0.726771 0.760726
0.770733 0.733030 0.763603
0.858560 0.738381 0.766116
0.949057 0.743778 0.768400
0.159884 0.809792 0.758039
0.277502 0.814321 0.760251
0.390500 0.819321 0.762469
0.500762 0.824768 0.764811
0.595161 0.829843 0.767018
0.692673 0.835450 0.769553
0.795786 0.841778 0.772484
0.884789 0.847224 0.771722
0.984763 0.850540 0.765943
0.180678 0.921384 0.765196
0.299562 0.926487 0.767287
0.413530 0.931796 0.769588
0.524512 0.937310 0.772189
0.619352 0.942251 0.774755
0.717151 0.947531 0.777789
0.820196 0.953374 0.781146
0.907418 0.958398 0.783820
0.996315 0.963336 0.786486
0.102466 0.079997 0.787780
0.211084 0.082317 0.792449
0.315886 0.084410 0.797003
0.418830 0.086390 0.801497
0.507689 0.088089 0.805374
0.600364 0.089895 0.809400
0.699604 0.091920 0.813671
0.784674 0.093772 0.817285
0.872059 0.095780 0.821032
0.104321 0.185977 0.801659
0.212586 0.188357 0.803373
0.316895 0.190592 0.808041
0.419743 0.192925 0.812589
0.508828 0.195100 0.816467
0.602040 0.197572 0.820448
0.702192 0.200501 0.824623
0.788315 0.203284 0.828115
0.877183 0.206337 0.831833
0.106047 0.288961 0.815983
0.215773 0.291691 0.817065
0.321314 0.294844 0.819148
0.425265 0.298185 0.823579
0.515596 0.301396 0.827316
0.610349 0.305090 0.831119
0.711783 0.309130 0.835159
0.798495 0.312584 0.838612
0.887521 0.315975 0.842467
0.111606 0.394060 0.829587
0.223991 0.397747 0.830765
0.332262 0.401995 0.832095
0.437680 0.406410 0.834510
0.528330 0.410155 0.838255
0.622785 0.414058 0.842158
0.723734 0.418229 0.846329
0.810031 0.421794 0.849895
0.898694 0.425277 0.853908
0.121862 0.490415 0.840795
0.235451 0.494346 0.842276
0.344181 0.498453 0.844014
0.450020 0.502784 0.846015
0.540519 0.506682 0.848689
0.634570 0.510694 0.852701
0.735087 0.514981 0.856988
0.821054 0.518668 0.860630
0.909875 0.522534 0.864444
0.133462 0.591791 0.852395
0.247500 0.595543 0.854325
0.356664 0.599477 0.856497
0.462930 0.603638 0.858925
0.553932 0.607540 0.861171
0.648548 0.612114 0.863942
0.750078 0.617342 0.867486
0.837319 0.622070 0.870249
0.927385 0.626922 0.873247
0.146503 0.705763 0.865436
0.261486 0.709546 0.867608
0.372416 0.713965 0.869513
0.481093 0.718979 0.871291
0.574466 0.723794 0.872818
0.671228 0.729247 0.874464
0.773988 0.735470 0.876686
0.861790 0.740901 0.879001
0.952205 0.746318 0.881622
0.162059 0.811787 0.875190
0.279725 0.816555 0.876538
0.392839 0.821730 0.877912
0.503270 0.827298 0.879419
0.597847 0.832438 0.880905
0.695561 0.838081 0.882692
0.798949 0.844386 0.884932
0.886462 0.849931 0.887231
0.976129 0.855401 0.889865
0.183530 0.923593 0.881991
0.302527 0.928791 0.883313
0.416554 0.934167 0.884902
0.527548 0.939720 0.886832
0.622364 0.944676 0.888841
0.720102 0.949951 0.891317
0.823283 0.955660 0.894441
0.910342 0.960568 0.897499
0.999897 0.965412 0.897635
