ai-pipeline/luts/nostalgic.cube
TITLE "ClipVibe Nostalgic"
LUT_3D_SIZE 33
DOMAIN_MIN 0.0 0.0 0.0
DOMAIN_MAX 1.0 1.0 1.0
0.099426 0.073419 0.029649
0.127476 0.074099 0.031088
0.154473 0.074951 0.032977
0.181404 0.075769 0.034440
0.208353 0.076509 0.035643
0.235234 0.077179 0.036717
0.261855 0.077821 0.037783
0.288182 0.078438 0.038846
0.314185 0.079031 0.039902
0.340886 0.079625 0.040994
0.367134 0.080195 0.042072
0.392842 0.080741 0.043133
0.417873 0.081262 0.044170
0.441971 0.081754 0.045172
0.464459 0.082206 0.046110
0.484234 0.082598 0.046937
0.507133 0.083046 0.047896
0.529422 0.083478 0.048832
0.552438 0.083918 0.049801
0.575995 0.084365 0.050794
0.599984 0.084817 0.051806
0.624337 0.085272 0.052835
0.649003 0.085731 0.053877
0.673946 0.086195 0.054933
0.699139 0.086662 0.055998
0.720123 0.087051 0.056886
0.741253 0.087445 0.057780
0.762519 0.087842 0.058679
0.783914 0.088243 0.059583
0.805433 0.088650 0.060491
0.827071 0.089062 0.061403
0.848821 0.089480 0.062318
0.870682 0.089904 0.063237
0.100265 0.100827 0.035051
0.127896 0.101583 0.035881
0.155808 0.102216 0.036223
0.182710 0.102926 0.037880
0.209525 0.103605 0.039181
0.236271 0.104228 0.040281
0.262788 0.104822 0.041352
0.289019 0.105394 0.042421
0.314936 0.105946 0.043483
0.341554 0.106500 0.044580
0.367728 0.107034 0.045664
0.393371 0.107548 0.046730
0.418344 0.108041 0.047772
0.442393 0.108509 0.048779
0.464840 0.108941 0.049720
0.484583 0.109317 0.050550
0.507449 0.109750 0.051512
0.529711 0.110168 0.052450
0.552705 0.110598 0.053420
0.576243 0.111036 0.054414
0.600219 0.111482 0.055426
0.624564 0.111935 0.056455
0.649228 0.112394 0.057497
0.674175 0.112860 0.058550
0.699378 0.113333 0.059614
0.720374 0.113730 0.060499
0.741520 0.114133 0.061389
0.762808 0.114543 0.062284
0.784229 0.114959 0.063184
0.805778 0.115382 0.064087
0.827449 0.115813 0.064994
0.849239 0.116253 0.065903
0.871143 0.116701 0.066815
0.101609 0.127806 0.038488
0.129047 0.128492 0.039667
0.156328 0.129160 0.040685
0.183596 0.129773 0.041429
0.210404 0.130383 0.042716
0.237028 0.130970 0.043870
0.263460 0.131527 0.044943
0.289616 0.132066 0.046013
0.315465 0.132588 0.047078
0.342023 0.133114 0.048178
0.368143 0.133624 0.049265
0.393741 0.134117 0.050334
0.418676 0.134592 0.051377
0.442694 0.135046 0.052385
0.465117 0.135468 0.053327
0.484843 0.135837 0.054157
0.507695 0.136263 0.055119
0.529947 0.136678 0.056057
0.552936 0.137107 0.057026
0.576474 0.137547 0.058018
0.600456 0.137997 0.059028
0.624812 0.138456 0.060054
0.649493 0.138926 0.061092
0.674463 0.139405 0.062141
0.699694 0.139895 0.063199
0.720720 0.140309 0.064079
0.741899 0.140730 0.064964
0.763224 0.141160 0.065854
0.784687 0.141600 0.066746
0.806283 0.142049 0.067642
0.828005 0.142508 0.068541
0.849851 0.142978 0.069442
0.871816 0.143460 0.070345
0.102573 0.154466 0.041952
0.129955 0.155095 0.043139
0.157135 0.155709 0.044314
0.184144 0.156309 0.045350
0.210992 0.156879 0.046347
0.237576 0.157431 0.047469
0.263940 0.157964 0.048545
0.290041 0.158481 0.049614
0.315843 0.158984 0.050679
0.342360 0.159494 0.051778
0.368447 0.159990 0.052864
0.394019 0.160473 0.053932
0.418935 0.160942 0.054975
0.442941 0.161392 0.055981
0.465357 0.161812 0.056921
0.485082 0.162182 0.057749
0.507936 0.162612 0.058709
0.530196 0.163033 0.059643
0.553197 0.163470 0.060609
0.576754 0.163921 0.061596
0.600759 0.164385 0.062602
0.625145 0.164862 0.063622
0.649861 0.165352 0.064653
0.674873 0.165855 0.065695
0.700153 0.166373 0.066745
0.721223 0.166811 0.067618
0.742452 0.167260 0.068495
0.763830 0.167719 0.069376
0.785351 0.168191 0.070260
0.807010 0.168674 0.071146
0.828800 0.169170 0.072034
0.850718 0.169680 0.072924
0.872759 0.170203 0.073816
0.103254 0.180827 0.045430
0.130589 0.181413 0.046622
0.157731 0.181986 0.047809
0.184668 0.182550 0.048979
0.211423 0.183105 0.050024
0.237976 0.183640 0.051079
0.264297 0.184159 0.052148
0.290362 0.184665 0.053213
0.316136 0.185159 0.054273
0.342631 0.185664 0.055369
0.368705 0.186158 0.056451
0.394270 0.186642 0.057515
0.419187 0.187114 0.058553
0.443198 0.187570 0.059555
0.465625 0.187998 0.060491
0.485362 0.188377 0.061315
0.508237 0.188820 0.062270
0.530521 0.189255 0.063199
0.553552 0.189710 0.064158
0.577144 0.190182 0.065138
0.601191 0.190671 0.066136
0.625624 0.191175 0.067147
0.650395 0.191695 0.068170
0.675468 0.192232 0.069202
0.700815 0.192787 0.070241
0.721945 0.193258 0.071104
0.743238 0.193743 0.071971
0.764686 0.194241 0.072841
0.786281 0.194753 0.073714
0.808018 0.195279 0.074588
0.829892 0.195821 0.075464
0.851897 0.196379 0.076341
0.874031 0.196953 0.077218
0.103729 0.206908 0.048911
0.131034 0.207464 0.050106
0.158152 0.208011 0.051295
0.185072 0.208551 0.052478
0.211784 0.209085 0.053640
0.238299 0.209615 0.054686
0.264595 0.210132 0.055741
0.290643 0.210638 0.056798
0.316408 0.211136 0.057851
0.342901 0.211646 0.058939
0.368981 0.212148 0.060014
0.394558 0.212643 0.061071
0.419493 0.213129 0.062103
0.443527 0.213601 0.063098
0.465981 0.214046 0.064027
0.485746 0.214442 0.064845
0.508657 0.214907 0.065791
0.530982 0.215366 0.066712
0.554059 0.215848 0.067662
0.577704 0.216351 0.068633
0.601811 0.216873 0.069621
0.626310 0.217414 0.070621
0.651153 0.217974 0.071632
0.676304 0.218555 0.072651
0.701736 0.219157 0.073677
0.722942 0.219670 0.074529
0.744315 0.220199 0.075383
0.765847 0.220743 0.076240
0.787532 0.221304 0.077099
0.809363 0.221882 0.077959
0.831335 0.222477 0.078820
0.853445 0.223092 0.079682
0.875687 0.223725 0.080543
0.104070 0.232727 0.052384
0.131361 0.233266 0.053579
0.158471 0.233799 0.054768
0.185391 0.234328 0.055950
0.212108 0.234854 0.057124
0.238608 0.235378 0.058273
0.264896 0.235904 0.059314
0.290945 0.236421 0.060359
0.316719 0.236931 0.061401
0.343229 0.237458 0.062479
0.369333 0.237979 0.063544
0.394941 0.238495 0.064591
0.419912 0.239005 0.065613
0.443987 0.239502 0.066598
0.466484 0.239973 0.067518
0.486291 0.240395 0.068327
0.509255 0.240890 0.069263
0.531636 0.241382 0.070173
0.554777 0.241900 0.071112
0.578492 0.242442 0.072071
0.602674 0.243007 0.073046
0.627256 0.243594 0.074033
0.652189 0.244205 0.075029
0.677436 0.244839 0.076033
0.702971 0.245497 0.077043
0.724268 0.246060 0.077880
0.745736 0.246641 0.078720
0.767368 0.247240 0.079562
0.789157 0.247858 0.080405
0.811097 0.248495 0.081249
0.833183 0.249153 0.082093
0.855412 0.249832 0.082937
0.877778 0.250533 0.083780
0.104342 0.258301 0.055837
0.131635 0.258833 0.057031
0.158755 0.259364 0.058217
0.185691 0.259894 0.059396
0.212431 0.260424 0.060565
0.238959 0.260955 0.061724
0.265259 0.261488 0.062855
0.291327 0.262027 0.063885
0.317128 0.262561 0.064913
0.343674 0.263114 0.065977
0.369821 0.263664 0.067029
0.395477 0.264212 0.068063
0.420501 0.264755 0.069072
0.444634 0.265287 0.070045
0.467189 0.265793 0.070953
0.487052 0.266246 0.071751
0.510085 0.266782 0.072675
0.532538 0.267315 0.073572
0.555758 0.267878 0.074497
0.579559 0.268468 0.075442
0.603834 0.269085 0.076401
0.628516 0.269728 0.077372
0.653555 0.270397 0.078351
0.678916 0.271094 0.079337
0.704572 0.271819 0.080328
0.725973 0.272439 0.081150
0.747550 0.273080 0.081973
0.769296 0.273741 0.082798
0.791204 0.274424 0.083623
0.813269 0.275129 0.084448
0.835484 0.275857 0.085273
0.857845 0.276609 0.086097
0.880350 0.277385 0.086920
0.104605 0.283639 0.059258
0.131919 0.284176 0.060448
0.159066 0.284715 0.061630
0.186035 0.285257 0.062803
0.212814 0.285802 0.063966
0.239389 0.286352 0.065117
0.265739 0.286905 0.066257
0.291843 0.287465 0.067364
0.317689 0.288033 0.068375
0.344289 0.288623 0.069422
0.370496 0.289212 0.070458
0.396218 0.289801 0.071477
0.421313 0.290386 0.072470
0.445519 0.290962 0.073428
0.468148 0.291511 0.074322
0.488080 0.292005 0.075107
0.511197 0.292588 0.076015
0.533737 0.293170 0.076898
0.557051 0.293787 0.077807
0.580954 0.294434 0.078735
0.605339 0.295112 0.079677
0.630137 0.295819 0.080629
0.655299 0.296557 0.081588
0.680790 0.297325 0.082554
0.706583 0.298125 0.083524
0.728102 0.298811 0.084328
0.749803 0.299519 0.085132
0.771678 0.300250 0.085937
0.793719 0.301006 0.086743
0.815921 0.301786 0.087547
0.838278 0.302592 0.088351
0.860759 0.303408 0.089157
0.883344 0.304228 0.089967
0.104932 0.309882 0.062789
0.132286 0.310436 0.063972
0.159479 0.310995 0.065147
0.186502 0.311560 0.066311
0.213341 0.312132 0.067464
0.239981 0.312711 0.068605
0.266403 0.313298 0.069733
0.292583 0.313893 0.070847
0.318493 0.314496 0.071929
0.345167 0.315136 0.072955
0.371455 0.315777 0.073971
0.397264 0.316418 0.074970
0.422450 0.317058 0.075945
0.446750 0.317688 0.076885
0.469473 0.318291 0.077761
0.489490 0.318834 0.078531
0.512712 0.319477 0.079421
0.535358 0.320119 0.080285
0.558787 0.320799 0.081175
0.582813 0.321515 0.082083
0.607329 0.322265 0.083004
0.632265 0.323049 0.083934
0.657572 0.323867 0.084871
0.683217 0.324720 0.085813
0.709170 0.325608 0.086758
0.730827 0.326369 0.087541
0.752672 0.327156 0.088324
0.774672 0.327956 0.089110
0.796802 0.328761 0.089901
0.819056 0.329570 0.090697
0.841425 0.330383 0.091498
0.863905 0.331200 0.092304
0.886490 0.332020 0.093113
0.105371 0.335867 0.066258
0.132783 0.336448 0.067432
0.160042 0.337039 0.068597
0.187136 0.337638 0.069750
0.214052 0.338248 0.070891
0.240776 0.338868 0.072019
0.267287 0.339498 0.073134
0.293562 0.340139 0.074233
0.319570 0.340791 0.075315
0.346336 0.341481 0.076404
0.372724 0.342183 0.077397
0.398637 0.342887 0.078374
0.423932 0.343590 0.079328
0.448342 0.344285 0.080246
0.471173 0.344950 0.081103
0.491289 0.345549 0.081855
0.514631 0.346260 0.082725
0.537399 0.346970 0.083569
0.560958 0.347724 0.084437
0.585123 0.348517 0.085323
0.609785 0.349348 0.086220
0.634876 0.350217 0.087126
0.660346 0.351124 0.088037
0.686148 0.352064 0.088955
0.712213 0.353014 0.089883
0.733924 0.353805 0.090656
0.755784 0.354601 0.091436
0.777783 0.355402 0.092221
0.799912 0.356207 0.093011
0.822165 0.357016 0.093807
0.844534 0.357830 0.094607
0.867013 0.358647 0.095411
0.889596 0.359468 0.096220
0.105976 0.361574 0.069652
0.133465 0.362193 0.070815
0.160806 0.362825 0.071966
0.187989 0.363469 0.073106
0.215000 0.364127 0.074232
0.241824 0.364797 0.075345
0.268441 0.365482 0.076444
0.294827 0.366179 0.077526
0.320952 0.366889 0.078590
0.347842 0.367642 0.079679
0.374344 0.368407 0.080722
0.400379 0.369183 0.081674
0.425798 0.369959 0.082604
0.450334 0.370726 0.083499
0.473288 0.371461 0.084334
0.493517 0.372124 0.085067
0.516993 0.372910 0.085914
0.539897 0.373696 0.086735
0.563601 0.374531 0.087580
0.587920 0.375409 0.088441
0.612720 0.376317 0.089316
0.637902 0.377237 0.090206
0.663415 0.378169 0.091110
0.689219 0.379111 0.092026
0.715282 0.380062 0.092952
0.736992 0.380853 0.093724
0.758851 0.381650 0.094503
0.780849 0.382451 0.095287
0.802977 0.383256 0.096076
0.825229 0.384066 0.096871
0.847597 0.384880 0.097670
0.870075 0.385697 0.098473
0.892658 0.386518 0.099281
0.106793 0.386959 0.072954
0.134375 0.387627 0.074102
0.161816 0.388310 0.075239
0.189104 0.389008 0.076363
0.216227 0.389723 0.077472
0.243167 0.390454 0.078568
0.269906 0.391201 0.079647
0.296419 0.391964 0.080710
0.322675 0.392742 0.081755
0.349707 0.393567 0.082822
0.376352 0.394406 0.083865
0.402522 0.395256 0.084855
0.428081 0.396113 0.085759
0.452758 0.396961 0.086629
0.475848 0.397773 0.087440
0.496200 0.398505 0.088152
0.519820 0.399372 0.088975
0.542830 0.400218 0.089778
0.566603 0.401091 0.090610
0.590944 0.401984 0.091465
0.615742 0.402893 0.092338
0.640923 0.403814 0.093227
0.666434 0.404747 0.094129
0.692236 0.405689 0.095043
0.718298 0.406640 0.095968
0.740007 0.407432 0.096739
0.761865 0.408229 0.097517
0.783862 0.409031 0.098300
0.805989 0.409837 0.099088
0.828240 0.410647 0.099882
0.850607 0.411461 0.100680
0.873084 0.412279 0.101483
0.895667 0.413100 0.102290
0.107858 0.411941 0.076145
0.135550 0.412666 0.077277
0.163106 0.413410 0.078396
0.190515 0.414172 0.079502
0.217763 0.414952 0.080593
0.244836 0.415752 0.081668
0.271711 0.416570 0.082727
0.298365 0.417407 0.083769
0.324766 0.418261 0.084792
0.351953 0.419167 0.085835
0.378757 0.420089 0.086854
0.405086 0.421021 0.087845
0.430797 0.421961 0.088774
0.455603 0.422883 0.089621
0.478773 0.423742 0.090417
0.499161 0.424496 0.091121
0.522785 0.425367 0.091940
0.545793 0.426215 0.092741
0.569563 0.427088 0.093571
0.593903 0.427982 0.094424
0.618699 0.428891 0.095295
0.643878 0.429813 0.096182
0.669387 0.430747 0.097083
0.695188 0.431690 0.097995
0.721249 0.432642 0.098918
0.742956 0.433434 0.099689
0.764813 0.434231 0.100465
0.786809 0.435033 0.101247
0.808936 0.435839 0.102035
0.831186 0.436650 0.102827
0.853552 0.437464 0.103625
0.876028 0.438282 0.104427
0.898610 0.439104 0.105233
0.109193 0.436365 0.079199
0.137008 0.437155 0.080313
0.164692 0.437966 0.081413
0.192235 0.438799 0.082498
0.219623 0.439653 0.083568
0.246839 0.440528 0.084622
0.273863 0.441425 0.085659
0.300670 0.442342 0.086677
0.327228 0.443278 0.087676
0.354582 0.444273 0.088695
0.381531 0.445270 0.089692
0.407948 0.446247 0.090669
0.433689 0.447200 0.091622
0.458490 0.448119 0.092508
0.481657 0.448979 0.093300
0.502042 0.449734 0.094002
0.525664 0.450606 0.094819
0.548670 0.451455 0.095617
0.572438 0.452329 0.096446
0.596775 0.453224 0.097297
0.621570 0.454134 0.098166
0.646747 0.455056 0.099051
0.672255 0.455990 0.099950
0.698054 0.456934 0.100861
0.724114 0.457886 0.101783
0.745820 0.458679 0.102552
0.767676 0.459477 0.103328
0.789671 0.460279 0.104109
0.811797 0.461086 0.104895
0.834046 0.461897 0.105687
0.856411 0.462711 0.106484
0.878887 0.463530 0.107285
0.901468 0.464352 0.108091
0.110789 0.459882 0.082070
0.138737 0.460743 0.083164
0.166560 0.461628 0.084243
0.194247 0.462536 0.085307
0.221783 0.463469 0.086355
0.249152 0.464426 0.087386
0.276333 0.465406 0.088399
0.303286 0.466400 0.089396
0.329938 0.467385 0.090381
0.357331 0.468398 0.091393
0.384284 0.469394 0.092389
0.410705 0.470370 0.093365
0.436449 0.471321 0.094317
0.461251 0.472238 0.095233
0.484412 0.473096 0.096056
0.504796 0.473852 0.096755
0.528415 0.474725 0.097570
0.551419 0.475574 0.098366
0.575185 0.476450 0.099193
0.599520 0.477345 0.100042
0.624313 0.478256 0.100909
0.649489 0.479179 0.101793
0.674995 0.480114 0.102690
0.700793 0.481058 0.103600
0.726851 0.482011 0.104521
0.748556 0.482804 0.105289
0.770411 0.483602 0.106063
0.792405 0.484404 0.106843
0.814530 0.485211 0.107629
0.836778 0.486023 0.108420
0.859143 0.486838 0.109216
0.881618 0.487656 0.110017
0.904198 0.488478 0.110821
0.112506 0.480964 0.084581
0.140585 0.481896 0.085655
0.168544 0.482853 0.086713
0.196371 0.483837 0.087756
0.224051 0.484847 0.088783
0.251530 0.485861 0.089797
0.278762 0.486866 0.090802
0.305721 0.487862 0.091798
0.332376 0.488846 0.092782
0.359772 0.489857 0.093793
0.386728 0.490852 0.094788
0.413152 0.491828 0.095764
0.438899 0.492779 0.096715
0.463704 0.493694 0.097630
0.486865 0.494549 0.098485
0.507245 0.495304 0.099205
0.530862 0.496178 0.100017
0.553864 0.497028 0.100811
0.577628 0.497904 0.101636
0.601962 0.498800 0.102483
0.626753 0.499711 0.103349
0.651927 0.500635 0.104232
0.677433 0.501571 0.105128
0.703229 0.502515 0.106036
0.729286 0.503469 0.106956
0.750991 0.504262 0.107723
0.772844 0.505060 0.108496
0.794838 0.505863 0.109276
0.816962 0.506671 0.110061
0.839209 0.507482 0.110851
0.861573 0.508297 0.111646
0.884048 0.509116 0.112446
0.906627 0.509939 0.113250
0.114636 0.503229 0.087161
0.142866 0.504242 0.088212
0.170968 0.505276 0.089250
0.198883 0.506305 0.090279
0.226589 0.507327 0.091301
0.254071 0.508341 0.092315
0.281306 0.509345 0.093319
0.308269 0.510340 0.094314
0.334926 0.511323 0.095297
0.362325 0.512334 0.096308
0.389284 0.513328 0.097302
0.415711 0.514303 0.098277
0.441462 0.515253 0.099227
0.466269 0.516168 0.100142
0.489433 0.517022 0.100996
0.509812 0.517774 0.101748
0.533425 0.518647 0.102579
0.556425 0.519498 0.103372
0.580187 0.520375 0.104195
0.604519 0.521271 0.105041
0.629309 0.522183 0.105905
0.654482 0.523108 0.106786
0.679985 0.524043 0.107680
0.705780 0.524989 0.108588
0.731836 0.525943 0.109506
0.753540 0.526736 0.110272
0.775393 0.527535 0.111045
0.797385 0.528338 0.111823
0.819509 0.529146 0.112608
0.841755 0.529958 0.113397
0.864119 0.530773 0.114192
0.886592 0.531593 0.114991
0.909171 0.532415 0.115794
0.117414 0.528474 0.090005
0.145704 0.529516 0.091047
0.173814 0.530552 0.092083
0.201731 0.531581 0.093112
0.229441 0.532602 0.094133
0.256926 0.533615 0.095146
0.284164 0.534618 0.096150
0.311130 0.535612 0.097143
0.337791 0.536594 0.098126
0.365193 0.537604 0.099135
0.392155 0.538598 0.100129
0.418585 0.539572 0.101103
0.444338 0.540521 0.102052
0.469148 0.541435 0.102966
0.492314 0.542289 0.103820
0.512696 0.543040 0.104571
0.536308 0.543910 0.105441
0.559304 0.544760 0.106251
0.583064 0.545637 0.107072
0.607395 0.546535 0.107916
0.632182 0.547447 0.108778
0.657353 0.548373 0.109657
0.682855 0.549309 0.110550
0.708649 0.550255 0.111456
0.734703 0.551209 0.112373
0.756406 0.552003 0.113138
0.778258 0.552802 0.113910
0.800249 0.553606 0.114688
0.822372 0.554414 0.115471
0.844618 0.555226 0.116259
0.866980 0.556042 0.117053
0.889453 0.556862 0.117852
0.912032 0.557685 0.118654
0.120385 0.554926 0.092971
0.148677 0.555968 0.094013
0.176790 0.557003 0.095048
0.204711 0.558031 0.096076
0.232424 0.559051 0.097096
0.259912 0.560063 0.098108
0.287153 0.561066 0.099111
0.314121 0.562059 0.100104
0.340785 0.563040 0.101086
0.368190 0.564049 0.102095
0.395155 0.565042 0.103088
0.421588 0.566015 0.104061
0.447344 0.566963 0.105009
0.472156 0.567877 0.105922
0.495325 0.568730 0.106775
0.515709 0.569480 0.107526
0.539323 0.570350 0.108395
0.562318 0.571196 0.109242
0.586075 0.572073 0.110083
0.610403 0.572971 0.110924
0.635189 0.573885 0.111785
0.660358 0.574811 0.112662
0.685859 0.575748 0.113554
0.711651 0.576694 0.114458
0.737704 0.577649 0.115373
0.759405 0.578444 0.116137
0.781256 0.579243 0.116908
0.803247 0.580047 0.117685
0.825368 0.580856 0.118467
0.847629 0.581677 0.119245
0.870047 0.582523 0.120003
0.892614 0.583394 0.120742
0.915326 0.584289 0.121461
0.123444 0.582171 0.096027
0.151739 0.583212 0.097068
0.179855 0.584246 0.098102
0.207778 0.585273 0.099129
0.235494 0.586293 0.100149
0.262985 0.587304 0.101160
0.290229 0.588306 0.102162
0.317200 0.589299 0.103154
0.343866 0.590279 0.104135
0.371274 0.591288 0.105143
0.398241 0.592280 0.106135
0.424677 0.593252 0.107108
0.450435 0.594200 0.108055
0.475251 0.595113 0.108968
0.498422 0.595965 0.109821
0.518807 0.596715 0.110571
0.542424 0.597584 0.111439
0.565421 0.598430 0.112285
0.589177 0.599303 0.113159
0.613502 0.600200 0.114023
0.638286 0.601114 0.114882
0.663453 0.602041 0.115757
0.688952 0.602979 0.116647
0.714742 0.603926 0.117550
0.740794 0.604881 0.118464
0.762505 0.605682 0.119220
0.784402 0.606508 0.119960
0.806477 0.607358 0.120683
0.828721 0.608233 0.121388
0.851125 0.609131 0.122076
0.873682 0.610053 0.122746
0.896387 0.610997 0.123399
0.919231 0.611964 0.124035
0.126570 0.610021 0.099150
0.154868 0.611061 0.100190
0.182987 0.612095 0.101224
0.210913 0.613121 0.102250
0.238631 0.614140 0.103269
0.266124 0.615151 0.104279
0.293370 0.616152 0.105281
0.320344 0.617144 0.106272
0.347013 0.618124 0.107253
0.374423 0.619132 0.108260
0.401394 0.620123 0.109252
0.427831 0.621095 0.110223
0.453592 0.622042 0.111170
0.478410 0.622954 0.112082
0.501583 0.623806 0.112934
0.521971 0.624555 0.113684
0.545590 0.625423 0.114552
0.568589 0.626269 0.115397
0.592347 0.627142 0.116270
0.616671 0.628036 0.117164
0.641451 0.628949 0.118047
0.666617 0.629876 0.118921
0.692147 0.630832 0.119788
0.718021 0.631826 0.120635
0.744209 0.632857 0.121462
0.766062 0.633735 0.122128
0.788099 0.634636 0.122780
0.810311 0.635561 0.123416
0.832688 0.636508 0.124037
0.855222 0.637477 0.124642
0.877907 0.638467 0.125233
0.900734 0.639478 0.125809
0.923699 0.640509 0.126370
0.129751 0.638363 0.102328
0.158052 0.639403 0.103367
0.186173 0.640436 0.104400
0.214101 0.641462 0.105426
0.241822 0.642480 0.106444
0.269317 0.643490 0.107454
0.296566 0.644491 0.108455
0.323542 0.645481 0.109446
0.350213 0.646461 0.110425
0.377626 0.647468 0.111432
0.404599 0.648459 0.112423
0.431039 0.649430 0.113394
0.456802 0.650376 0.114341
0.481622 0.651288 0.115252
0.504797 0.652139 0.116103
0.525186 0.652888 0.116852
0.548807 0.653756 0.117720
0.571809 0.654600 0.118565
0.595580 0.655479 0.119430
0.619962 0.656403 0.120289
0.644845 0.657370 0.121133
0.670160 0.658379 0.121936
0.695858 0.659427 0.122695
0.721896 0.660510 0.123438
0.748244 0.661628 0.124162
0.770225 0.662577 0.124746
0.792388 0.663547 0.125317
0.814723 0.664538 0.125876
0.837220 0.665550 0.126421
0.859870 0.666581 0.126954
0.882667 0.667632 0.127474
0.905604 0.668702 0.127982
0.928673 0.669790 0.128477
0.132979 0.667121 0.105552
0.161281 0.668160 0.106591
0.189405 0.669192 0.107623
0.217335 0.670218 0.108649
0.245058 0.671235 0.109666
0.272556 0.672245 0.110676
0.299807 0.673245 0.111676
0.326785 0.674235 0.112666
0.353458 0.675214 0.113645
0.380873 0.676220 0.114651
0.407848 0.677211 0.115642
0.434290 0.678181 0.116612
0.460056 0.679127 0.117558
0.484877 0.680038 0.118469
0.508064 0.680894 0.119314
0.528495 0.681664 0.120037
0.552205 0.682579 0.120849
0.575334 0.683492 0.121613
0.599266 0.684457 0.122378
0.623810 0.685468 0.123134
0.648854 0.686520 0.123878
0.674324 0.687610 0.124607
0.700170 0.688739 0.125297
0.726355 0.689903 0.125946
0.752846 0.691098 0.126579
0.774941 0.692109 0.127091
0.797216 0.693139 0.127592
0.819658 0.694189 0.128082
0.842259 0.695257 0.128562
0.865011 0.696343 0.129031
0.887904 0.697446 0.129491
0.910934 0.698566 0.129940
0.934092 0.699702 0.130380
0.136246 0.696240 0.108817
0.164551 0.697278 0.109855
0.192676 0.698310 0.110887
0.220609 0.699335 0.111912
0.248334 0.700352 0.112929
0.275834 0.701360 0.113938
0.303087 0.702360 0.114937
0.330067 0.703350 0.115927
0.356742 0.704328 0.116905
0.384159 0.705334 0.117911
0.411137 0.706324 0.118900
0.437619 0.707315 0.119846
0.463475 0.708309 0.120735
0.488431 0.709293 0.121561
0.511775 0.710234 0.122307
0.532344 0.711079 0.122943
0.556209 0.712077 0.123658
0.579484 0.713068 0.124330
0.603563 0.714111 0.125003
0.628252 0.715199 0.125668
0.653439 0.716327 0.126323
0.679048 0.717491 0.126965
0.705028 0.718689 0.127592
0.731340 0.719921 0.128184
0.757955 0.721184 0.128739
0.780149 0.722248 0.129188
0.802519 0.723330 0.129628
0.825053 0.724430 0.130061
0.847743 0.725545 0.130485
0.870578 0.726677 0.130902
0.893553 0.727823 0.131311
0.916659 0.728984 0.131713
0.939890 0.730158 0.132107
0.139134 0.721982 0.111703
0.167441 0.723020 0.112741
0.195568 0.724051 0.113772
0.223503 0.725075 0.114796
0.251229 0.726092 0.115813
0.278731 0.727100 0.116821
0.305985 0.728099 0.117821
0.332968 0.729089 0.118810
0.359680 0.730086 0.119765
0.387192 0.731144 0.120711
0.414317 0.732214 0.121607
0.440958 0.733291 0.122452
0.466964 0.734367 0.123246
0.492060 0.735426 0.123984
0.515531 0.736435 0.124650
0.536208 0.737338 0.125218
0.560194 0.738401 0.125856
0.583584 0.739454 0.126457
0.607777 0.740557 0.127058
0.632578 0.741705 0.127653
0.657874 0.742890 0.128239
0.683591 0.744110 0.128814
0.709674 0.745363 0.129377
0.736084 0.746645 0.129928
0.762790 0.747956 0.130442
0.785057 0.749060 0.130845
0.807497 0.750180 0.131241
0.830098 0.751315 0.131632
0.852851 0.752465 0.132017
0.875747 0.753629 0.132396
0.898777 0.754805 0.132770
0.921936 0.755994 0.133139
0.945216 0.757195 0.133503
0.142047 0.747946 0.114614
0.170356 0.748983 0.115651
0.198484 0.750014 0.116682
0.226420 0.751038 0.117706
0.254149 0.752054 0.118722
0.281686 0.753081 0.119708
0.309033 0.754130 0.120649
0.336161 0.755200 0.121545
0.363035 0.756286 0.122399
0.390707 0.757431 0.123243
0.417985 0.758584 0.124042
0.444770 0.759740 0.124797
0.470911 0.760888 0.125505
0.496134 0.762015 0.126164
0.519718 0.763085 0.126758
0.540491 0.764039 0.127266
0.564585 0.765160 0.127836
0.588076 0.766266 0.128374
0.612369 0.767422 0.128912
0.637268 0.768621 0.129446
0.662660 0.769857 0.129973
0.688468 0.771125 0.130490
0.714640 0.772423 0.130998
0.741133 0.773748 0.131497
0.767916 0.775099 0.131985
0.790244 0.776234 0.132361
0.812741 0.777385 0.132722
